(.../EAGLE-7.6.0/ulp/pcb-gcode.ulp)
(Copyright 2005 - 2012 by John Johnson)
(See readme.txt for licensing terms.)
(This file generated from the board:)
(.../Projetos/Estágio2/PCB/placa.brd)
(Current profile is .../EAGLE-7.6.0/ulp/profiles/generic.pp  )
(This file generated 19/03/2017 19:19)
(Settings from pcb-machine.h)
(  Tool Size)
(0.2000 )
(Z Axis Settings)
(  High     Up        Down     Drill)
(1.0000 	1.0000 	-0.2300 	-2.0000 )
(spindle on time = 3.0000)
(milling depth = -2.0000)
(text depth = -0.1270)
(tool change at 20.0000 20.0000 30.0000 )
(feed rate xy = F508.00 )
(feed rate z  = F254.00 )
(Settings from pcb-defaults.h)
(isolate min = 0.0200)
(isolate max = 0.5000)
(isolate step = 0.1000)
(Generated bottom outlines, bottom drill, )
(Unit of measure: mm)
(Metric Mode)
G21
(Absolute Coordinates)
G90
G00 X0.0000 Y0.0000 
M03
G04 P3.000000
G00 Z1.0000 
G00 X28.2724 Y6.9641 
G01 Z-0.2300 F254.00 
G01 X28.2597 Y6.9168 F508.00 
G01 X28.2768 Y6.9339 
G01 X28.2768 Y8.0760 
G01 X28.1343 Y8.2343 
G01 X28.1792 Y8.1462 
G01 X28.2411 Y7.9557 
G01 X28.2724 Y7.7579 
G01 X28.2724 Y7.6219 
G01 X28.2724 Y6.9641 
G00 Z1.0000 
G00 X26.5655 Y9.9775 
G01 Z-0.2300 F254.00 
G01 X26.5414 Y10.0015 F508.00 
G01 X26.5371 Y10.0090 
G01 X26.5313 Y10.0154 
G01 X26.5159 Y10.0458 
G01 X26.4988 Y10.0752 
G01 X26.4966 Y10.0836 
G01 X26.4927 Y10.0913 
G01 X26.4856 Y10.1246 
G01 X26.4768 Y10.1574 
G01 X26.4768 Y10.1661 
G01 X26.4750 Y10.1745 
G01 X26.4768 Y10.2085 
G01 X26.4768 Y10.6661 
G01 X26.4164 Y10.7265 
G01 X26.4164 Y10.1127 
G01 X26.3804 Y10.0768 
G01 X27.3368 Y9.1205 
G01 X26.5655 Y9.9775 
G00 Z1.0000 
G00 X56.3870 Y4.4113 
G01 Z-0.2300 F254.00 
G01 X56.3875 Y4.4104 F508.00 
G01 X56.4090 Y4.3737 
G01 X56.4300 Y4.3378 
G01 X56.4415 Y4.2959 
G01 X56.4525 Y4.2558 
G01 X56.4528 Y4.2123 
G01 X56.4587 Y3.2265 
G01 X56.4589 Y3.1838 
G01 X56.4592 Y3.1424 
G01 X56.4482 Y3.1003 
G01 X56.4376 Y3.0601 
G01 X56.4162 Y3.0225 
G01 X56.3955 Y2.9861 
G01 X56.3668 Y2.9570 
G01 X56.3668 Y1.8430 
G01 X56.4430 Y1.7668 
G01 X57.5570 Y1.7668 
G01 X57.6332 Y1.8430 
G01 X57.6332 Y2.9570 
G01 X57.6271 Y2.9631 
G01 X57.5974 Y2.9924 
G01 X57.5755 Y3.0299 
G01 X57.5545 Y3.0659 
G01 X57.5430 Y3.1077 
G01 X57.5319 Y3.1480 
G01 X57.5317 Y3.1914 
G01 X57.5258 Y4.1821 
G01 X57.5255 Y4.2248 
G01 X57.5253 Y4.2662 
G01 X57.5363 Y4.3084 
G01 X57.5468 Y4.3485 
G01 X57.5683 Y4.3863 
G01 X57.5889 Y4.4225 
G01 X57.6194 Y4.4534 
G01 X57.6487 Y4.4830 
G01 X58.1120 Y4.9459 
G01 X58.1120 Y5.8821 
G01 X57.4501 Y6.5440 
G01 X56.5139 Y6.5440 
G01 X55.8520 Y5.8821 
G01 X55.8520 Y4.9459 
G01 X56.3574 Y4.4405 
G01 X56.3870 Y4.4113 
G00 Z1.0000 
G00 X55.8620 Y4.9501 
G01 Z-0.2300 F254.00 
G01 X55.8620 Y5.8779 F508.00 
G01 X56.5181 Y6.5340 
G01 X57.4459 Y6.5340 
G01 X58.1020 Y5.8779 
G01 X58.1020 Y4.9501 
G01 X57.5147 Y4.3628 
G01 X57.5227 Y3.0232 
G01 X57.5271 Y3.0232 
G01 X57.5712 Y3.0049 
G01 X57.6049 Y2.9712 
G01 X57.6232 Y2.9271 
G01 X57.6232 Y1.8729 
G01 X57.6049 Y1.8288 
G01 X57.5712 Y1.7951 
G01 X57.5271 Y1.7768 
G01 X56.4729 Y1.7768 
G01 X56.4288 Y1.7951 
G01 X56.3951 Y1.8288 
G01 X56.3768 Y1.8729 
G01 X56.3768 Y2.9271 
G01 X56.3951 Y2.9712 
G01 X56.4288 Y3.0049 
G01 X56.4699 Y3.0219 
G01 X56.4619 Y4.3501 
G01 X55.8620 Y4.9501 
G00 Z1.0000 
G00 X36.2077 Y32.3298 
G01 Z-0.2300 F254.00 
G01 X36.0960 Y32.0600 F508.00 
G01 X36.0960 Y31.7680 
G01 X36.2077 Y31.4982 
G01 X36.4142 Y31.2917 
G01 X36.6840 Y31.1800 
G01 X38.1840 Y31.1800 
G01 X38.4538 Y31.2917 
G01 X38.6603 Y31.4982 
G01 X38.7720 Y31.7680 
G01 X38.7720 Y32.0600 
G01 X38.6603 Y32.3298 
G01 X38.4538 Y32.5363 
G01 X38.1840 Y32.6480 
G01 X36.6840 Y32.6480 
G01 X36.4142 Y32.5363 
G01 X36.2077 Y32.3298 
G00 Z1.0000 
G00 X36.7587 Y32.6380 
G01 Z-0.2300 F254.00 
G01 X38.1093 Y32.6380 F508.00 
G01 X38.2492 Y32.6102 
G01 X38.3809 Y32.5556 
G01 X38.4995 Y32.4764 
G01 X38.6004 Y32.3755 
G01 X38.6796 Y32.2569 
G01 X38.7342 Y32.1252 
G01 X38.7620 Y31.9853 
G01 X38.7620 Y31.8427 
G01 X38.7342 Y31.7028 
G01 X38.6796 Y31.5711 
G01 X38.6004 Y31.4525 
G01 X38.4995 Y31.3516 
G01 X38.3809 Y31.2724 
G01 X38.2492 Y31.2178 
G01 X38.1093 Y31.1900 
G01 X36.7587 Y31.1900 
G01 X36.6188 Y31.2178 
G01 X36.4871 Y31.2724 
G01 X36.3685 Y31.3516 
G01 X36.2676 Y31.4525 
G01 X36.1884 Y31.5711 
G01 X36.1338 Y31.7028 
G01 X36.1060 Y31.8427 
G01 X36.1060 Y31.9853 
G01 X36.1338 Y32.1252 
G01 X36.1884 Y32.2569 
G01 X36.2676 Y32.3755 
G01 X36.3685 Y32.4764 
G01 X36.4871 Y32.5556 
G01 X36.6188 Y32.6102 
G01 X36.7587 Y32.6380 
G00 Z1.0000 
G00 X7.2560 Y30.6026 
G01 Z-0.2300 F254.00 
G01 X7.2586 Y30.6026 F508.00 
G01 X7.2611 Y30.6033 
G01 X7.3011 Y30.6026 
G01 X7.5593 Y30.6026 
G01 X7.9362 Y30.7587 
G01 X8.2246 Y31.0472 
G01 X8.3807 Y31.4240 
G01 X8.3807 Y31.8320 
G01 X8.2246 Y32.2088 
G01 X7.9362 Y32.4972 
G01 X7.5593 Y32.6533 
G01 X5.3607 Y32.6533 
G01 X4.9838 Y32.4972 
G01 X4.6954 Y32.2088 
G01 X4.5393 Y31.8320 
G01 X4.5393 Y31.4240 
G01 X4.6954 Y31.0472 
G01 X4.9838 Y30.7587 
G01 X5.3607 Y30.6026 
G01 X5.5392 Y30.6026 
G01 X5.5817 Y30.6026 
G01 X5.6217 Y30.6026 
G01 X5.6268 Y30.6019 
G01 X5.6652 Y30.5910 
G01 X5.7039 Y30.5806 
G01 X5.7086 Y30.5786 
G01 X5.7429 Y30.5581 
G01 X5.7776 Y30.5381 
G01 X5.7816 Y30.5349 
G01 X5.8095 Y30.5062 
G01 X5.8378 Y30.4779 
G01 X5.8409 Y30.4738 
G01 X5.8603 Y30.4389 
G01 X5.8803 Y30.4042 
G01 X5.8822 Y30.3995 
G01 X5.8920 Y30.3606 
G01 X5.9024 Y30.3220 
G01 X5.9024 Y30.3194 
G01 X5.9024 Y30.2769 
G01 X5.9024 Y30.2369 
G01 X5.8760 Y28.5976 
G01 X5.8760 Y28.5576 
G01 X5.8753 Y28.5525 
G01 X5.8644 Y28.5141 
G01 X5.8540 Y28.4754 
G01 X5.8520 Y28.4707 
G01 X5.8315 Y28.4363 
G01 X5.8115 Y28.4017 
G01 X5.8083 Y28.3977 
G01 X5.7796 Y28.3698 
G01 X5.7668 Y28.3570 
G01 X5.7668 Y27.2430 
G01 X5.8430 Y27.1668 
G01 X6.9570 Y27.1668 
G01 X7.0332 Y27.2430 
G01 X7.0332 Y28.3570 
G01 X7.0132 Y28.3770 
G01 X7.0102 Y28.3811 
G01 X6.9907 Y28.4160 
G01 X6.9707 Y28.4507 
G01 X6.9688 Y28.4554 
G01 X6.9590 Y28.4943 
G01 X6.9487 Y28.5329 
G01 X6.9487 Y28.5355 
G01 X6.9487 Y28.5780 
G01 X6.9487 Y28.6180 
G01 X6.9754 Y30.2820 
G01 X6.9754 Y30.3220 
G01 X6.9761 Y30.3271 
G01 X6.9870 Y30.3655 
G01 X6.9974 Y30.4042 
G01 X6.9994 Y30.4089 
G01 X7.0199 Y30.4432 
G01 X7.0399 Y30.4779 
G01 X7.0431 Y30.4819 
G01 X7.0718 Y30.5098 
G01 X7.1001 Y30.5381 
G01 X7.1042 Y30.5412 
G01 X7.1391 Y30.5606 
G01 X7.1738 Y30.5806 
G01 X7.1786 Y30.5825 
G01 X7.2174 Y30.5923 
G01 X7.2560 Y30.6026 
G00 Z1.0000 
G00 X7.4554 Y30.6127 
G01 Z-0.2300 F254.00 
G01 X6.9705 Y30.6127 F508.00 
G01 X6.9362 Y28.4194 
G01 X6.9712 Y28.4049 
G01 X7.0049 Y28.3712 
G01 X7.0232 Y28.3271 
G01 X7.0232 Y27.2729 
G01 X7.0049 Y27.2288 
G01 X6.9712 Y27.1951 
G01 X6.9271 Y27.1768 
G01 X5.8729 Y27.1768 
G01 X5.8288 Y27.1951 
G01 X5.7951 Y27.2288 
G01 X5.7768 Y27.2729 
G01 X5.7768 Y28.3271 
G01 X5.7951 Y28.3712 
G01 X5.8288 Y28.4049 
G01 X5.8729 Y28.4232 
G01 X5.8833 Y28.4232 
G01 X5.9176 Y30.6127 
G01 X5.4646 Y30.6127 
G01 X5.2685 Y30.6517 
G01 X5.0837 Y30.7282 
G01 X4.9174 Y30.8393 
G01 X4.7760 Y30.9808 
G01 X4.6649 Y31.1471 
G01 X4.5883 Y31.3318 
G01 X4.5493 Y31.5280 
G01 X4.5493 Y31.7280 
G01 X4.5883 Y31.9242 
G01 X4.6649 Y32.1089 
G01 X4.7760 Y32.2752 
G01 X4.9174 Y32.4167 
G01 X5.0837 Y32.5278 
G01 X5.2685 Y32.6043 
G01 X5.4646 Y32.6433 
G01 X7.4554 Y32.6433 
G01 X7.6515 Y32.6043 
G01 X7.8363 Y32.5278 
G01 X8.0026 Y32.4167 
G01 X8.1440 Y32.2752 
G01 X8.2551 Y32.1089 
G01 X8.3317 Y31.9242 
G01 X8.3707 Y31.7280 
G01 X8.3707 Y31.5280 
G01 X8.3317 Y31.3318 
G01 X8.2551 Y31.1471 
G01 X8.1440 Y30.9808 
G01 X8.0026 Y30.8393 
G01 X7.8363 Y30.7282 
G01 X7.6515 Y30.6517 
G01 X7.4554 Y30.6127 
G00 Z1.0000 
G00 X36.0960 Y26.6880 
G01 Z-0.2300 F254.00 
G01 X36.2077 Y26.4182 F508.00 
G01 X36.4142 Y26.2117 
G01 X36.6840 Y26.1000 
G01 X38.1840 Y26.1000 
G01 X38.4538 Y26.2117 
G01 X38.6603 Y26.4182 
G01 X38.7720 Y26.6880 
G01 X38.7720 Y26.9800 
G01 X38.6603 Y27.2498 
G01 X38.4538 Y27.4563 
G01 X38.1840 Y27.5680 
G01 X36.6840 Y27.5680 
G01 X36.4142 Y27.4563 
G01 X36.2077 Y27.2498 
G01 X36.0960 Y26.9800 
G01 X36.0960 Y26.6880 
G00 Z1.0000 
G00 X36.7587 Y27.5580 
G01 Z-0.2300 F254.00 
G01 X38.1093 Y27.5580 F508.00 
G01 X38.2492 Y27.5302 
G01 X38.3809 Y27.4756 
G01 X38.4995 Y27.3964 
G01 X38.6004 Y27.2955 
G01 X38.6796 Y27.1769 
G01 X38.7342 Y27.0452 
G01 X38.7620 Y26.9053 
G01 X38.7620 Y26.7627 
G01 X38.7342 Y26.6228 
G01 X38.6796 Y26.4911 
G01 X38.6004 Y26.3725 
G01 X38.4995 Y26.2716 
G01 X38.3809 Y26.1924 
G01 X38.2492 Y26.1378 
G01 X38.1093 Y26.1100 
G01 X36.7587 Y26.1100 
G01 X36.6188 Y26.1378 
G01 X36.4871 Y26.1924 
G01 X36.3685 Y26.2716 
G01 X36.2676 Y26.3725 
G01 X36.1884 Y26.4911 
G01 X36.1338 Y26.6228 
G01 X36.1060 Y26.7627 
G01 X36.1060 Y26.9053 
G01 X36.1338 Y27.0452 
G01 X36.1884 Y27.1769 
G01 X36.2676 Y27.2955 
G01 X36.3685 Y27.3964 
G01 X36.4871 Y27.4756 
G01 X36.6188 Y27.5302 
G01 X36.7587 Y27.5580 
G00 Z1.0000 
G00 X27.4200 Y35.7920 
G01 Z-0.2300 F254.00 
G01 X27.1280 Y35.7920 F508.00 
G01 X26.8582 Y35.6803 
G01 X26.6517 Y35.4738 
G01 X26.5400 Y35.2040 
G01 X26.5400 Y33.7040 
G01 X26.6517 Y33.4342 
G01 X26.8582 Y33.2277 
G01 X27.1280 Y33.1160 
G01 X27.4200 Y33.1160 
G01 X27.6898 Y33.2277 
G01 X27.8963 Y33.4342 
G01 X28.0080 Y33.7040 
G01 X28.0080 Y35.2040 
G01 X27.8963 Y35.4738 
G01 X27.6898 Y35.6803 
G01 X27.4200 Y35.7920 
G00 Z1.0000 
G00 X27.9980 Y35.1293 
G01 Z-0.2300 F254.00 
G01 X27.9980 Y33.7787 F508.00 
G01 X27.9702 Y33.6388 
G01 X27.9156 Y33.5071 
G01 X27.8364 Y33.3885 
G01 X27.7355 Y33.2876 
G01 X27.6169 Y33.2084 
G01 X27.4852 Y33.1538 
G01 X27.3453 Y33.1260 
G01 X27.2027 Y33.1260 
G01 X27.0628 Y33.1538 
G01 X26.9311 Y33.2084 
G01 X26.8125 Y33.2876 
G01 X26.7116 Y33.3885 
G01 X26.6324 Y33.5071 
G01 X26.5778 Y33.6388 
G01 X26.5500 Y33.7787 
G01 X26.5500 Y35.1293 
G01 X26.5778 Y35.2692 
G01 X26.6324 Y35.4009 
G01 X26.7116 Y35.5195 
G01 X26.8125 Y35.6204 
G01 X26.9311 Y35.6996 
G01 X27.0628 Y35.7542 
G01 X27.2027 Y35.7820 
G01 X27.3453 Y35.7820 
G01 X27.4852 Y35.7542 
G01 X27.6169 Y35.6996 
G01 X27.7355 Y35.6204 
G01 X27.8364 Y35.5195 
G01 X27.9156 Y35.4009 
G01 X27.9702 Y35.2692 
G01 X27.9980 Y35.1293 
G00 Z1.0000 
G00 X24.8800 Y35.7920 
G01 Z-0.2300 F254.00 
G01 X24.5880 Y35.7920 F508.00 
G01 X24.3182 Y35.6803 
G01 X24.1117 Y35.4738 
G01 X24.0000 Y35.2040 
G01 X24.0000 Y33.7040 
G01 X24.1117 Y33.4342 
G01 X24.3182 Y33.2277 
G01 X24.5880 Y33.1160 
G01 X24.8800 Y33.1160 
G01 X25.1498 Y33.2277 
G01 X25.3563 Y33.4342 
G01 X25.4680 Y33.7040 
G01 X25.4680 Y35.2040 
G01 X25.3563 Y35.4738 
G01 X25.1498 Y35.6803 
G01 X24.8800 Y35.7920 
G00 Z1.0000 
G00 X25.4580 Y35.1293 
G01 Z-0.2300 F254.00 
G01 X25.4580 Y33.7787 F508.00 
G01 X25.4302 Y33.6388 
G01 X25.3756 Y33.5071 
G01 X25.2964 Y33.3885 
G01 X25.1955 Y33.2876 
G01 X25.0769 Y33.2084 
G01 X24.9452 Y33.1538 
G01 X24.8053 Y33.1260 
G01 X24.6627 Y33.1260 
G01 X24.5228 Y33.1538 
G01 X24.3911 Y33.2084 
G01 X24.2725 Y33.2876 
G01 X24.1716 Y33.3885 
G01 X24.0924 Y33.5071 
G01 X24.0378 Y33.6388 
G01 X24.0100 Y33.7787 
G01 X24.0100 Y35.1293 
G01 X24.0378 Y35.2692 
G01 X24.0924 Y35.4009 
G01 X24.1716 Y35.5195 
G01 X24.2725 Y35.6204 
G01 X24.3911 Y35.6996 
G01 X24.5228 Y35.7542 
G01 X24.6627 Y35.7820 
G01 X24.8053 Y35.7820 
G01 X24.9452 Y35.7542 
G01 X25.0769 Y35.6996 
G01 X25.1955 Y35.6204 
G01 X25.2964 Y35.5195 
G01 X25.3756 Y35.4009 
G01 X25.4302 Y35.2692 
G01 X25.4580 Y35.1293 
G00 Z1.0000 
G00 X36.0960 Y21.9000 
G01 Z-0.2300 F254.00 
G01 X36.0960 Y21.6080 F508.00 
G01 X36.2077 Y21.3382 
G01 X36.4142 Y21.1317 
G01 X36.6840 Y21.0200 
G01 X38.1840 Y21.0200 
G01 X38.4538 Y21.1317 
G01 X38.6603 Y21.3382 
G01 X38.7720 Y21.6080 
G01 X38.7720 Y21.9000 
G01 X38.6603 Y22.1698 
G01 X38.4538 Y22.3763 
G01 X38.1840 Y22.4880 
G01 X36.6840 Y22.4880 
G01 X36.4142 Y22.3763 
G01 X36.2077 Y22.1698 
G01 X36.0960 Y21.9000 
G00 Z1.0000 
G00 X36.7587 Y22.4780 
G01 Z-0.2300 F254.00 
G01 X38.1093 Y22.4780 F508.00 
G01 X38.2492 Y22.4502 
G01 X38.3809 Y22.3956 
G01 X38.4995 Y22.3164 
G01 X38.6004 Y22.2155 
G01 X38.6796 Y22.0969 
G01 X38.7342 Y21.9652 
G01 X38.7620 Y21.8253 
G01 X38.7620 Y21.6827 
G01 X38.7342 Y21.5428 
G01 X38.6796 Y21.4111 
G01 X38.6004 Y21.2925 
G01 X38.4995 Y21.1916 
G01 X38.3809 Y21.1124 
G01 X38.2492 Y21.0578 
G01 X38.1093 Y21.0300 
G01 X36.7587 Y21.0300 
G01 X36.6188 Y21.0578 
G01 X36.4871 Y21.1124 
G01 X36.3685 Y21.1916 
G01 X36.2676 Y21.2925 
G01 X36.1884 Y21.4111 
G01 X36.1338 Y21.5428 
G01 X36.1060 Y21.6827 
G01 X36.1060 Y21.8253 
G01 X36.1338 Y21.9652 
G01 X36.1884 Y22.0969 
G01 X36.2676 Y22.2155 
G01 X36.3685 Y22.3164 
G01 X36.4871 Y22.3956 
G01 X36.6188 Y22.4502 
G01 X36.7587 Y22.4780 
G00 Z1.0000 
G00 X36.0960 Y19.3600 
G01 Z-0.2300 F254.00 
G01 X36.0960 Y19.0680 F508.00 
G01 X36.2077 Y18.7982 
G01 X36.4142 Y18.5917 
G01 X36.6840 Y18.4800 
G01 X38.1840 Y18.4800 
G01 X38.4538 Y18.5917 
G01 X38.6603 Y18.7982 
G01 X38.7720 Y19.0680 
G01 X38.7720 Y19.3600 
G01 X38.6603 Y19.6298 
G01 X38.4538 Y19.8363 
G01 X38.1840 Y19.9480 
G01 X36.6840 Y19.9480 
G01 X36.4142 Y19.8362 
G01 X36.2077 Y19.6298 
G01 X36.0960 Y19.3600 
G00 Z1.0000 
G00 X36.7587 Y19.9380 
G01 Z-0.2300 F254.00 
G01 X38.1093 Y19.9380 F508.00 
G01 X38.2492 Y19.9102 
G01 X38.3809 Y19.8556 
G01 X38.4995 Y19.7764 
G01 X38.6004 Y19.6755 
G01 X38.6796 Y19.5569 
G01 X38.7342 Y19.4252 
G01 X38.7620 Y19.2853 
G01 X38.7620 Y19.1427 
G01 X38.7342 Y19.0028 
G01 X38.6796 Y18.8711 
G01 X38.6004 Y18.7525 
G01 X38.4995 Y18.6516 
G01 X38.3809 Y18.5724 
G01 X38.2492 Y18.5178 
G01 X38.1093 Y18.4900 
G01 X36.7587 Y18.4900 
G01 X36.6188 Y18.5178 
G01 X36.4871 Y18.5724 
G01 X36.3685 Y18.6516 
G01 X36.2676 Y18.7525 
G01 X36.1884 Y18.8711 
G01 X36.1338 Y19.0028 
G01 X36.1060 Y19.1427 
G01 X36.1060 Y19.2853 
G01 X36.1338 Y19.4252 
G01 X36.1884 Y19.5569 
G01 X36.2676 Y19.6755 
G01 X36.3685 Y19.7764 
G01 X36.4871 Y19.8556 
G01 X36.6188 Y19.9102 
G01 X36.7587 Y19.9380 
G00 Z1.0000 
G00 X13.3477 Y32.3298 
G01 Z-0.2300 F254.00 
G01 X13.2360 Y32.0600 F508.00 
G01 X13.2360 Y31.7680 
G01 X13.3477 Y31.4982 
G01 X13.5542 Y31.2917 
G01 X13.8240 Y31.1800 
G01 X15.3240 Y31.1800 
G01 X15.5938 Y31.2917 
G01 X15.8003 Y31.4982 
G01 X15.9120 Y31.7680 
G01 X15.9120 Y32.0600 
G01 X15.8003 Y32.3298 
G01 X15.5938 Y32.5363 
G01 X15.3240 Y32.6480 
G01 X13.8240 Y32.6480 
G01 X13.5542 Y32.5363 
G01 X13.3477 Y32.3298 
G00 Z1.0000 
G00 X13.8987 Y32.6380 
G01 Z-0.2300 F254.00 
G01 X15.2493 Y32.6380 F508.00 
G01 X15.3892 Y32.6102 
G01 X15.5209 Y32.5556 
G01 X15.6395 Y32.4764 
G01 X15.7404 Y32.3755 
G01 X15.8196 Y32.2569 
G01 X15.8742 Y32.1252 
G01 X15.9020 Y31.9853 
G01 X15.9020 Y31.8427 
G01 X15.8742 Y31.7028 
G01 X15.8196 Y31.5711 
G01 X15.7404 Y31.4525 
G01 X15.6395 Y31.3516 
G01 X15.5209 Y31.2724 
G01 X15.3892 Y31.2178 
G01 X15.2493 Y31.1900 
G01 X13.8987 Y31.1900 
G01 X13.7588 Y31.2178 
G01 X13.6271 Y31.2724 
G01 X13.5085 Y31.3516 
G01 X13.4076 Y31.4525 
G01 X13.3284 Y31.5711 
G01 X13.2738 Y31.7028 
G01 X13.2460 Y31.8427 
G01 X13.2460 Y31.9853 
G01 X13.2738 Y32.1252 
G01 X13.3284 Y32.2569 
G01 X13.4076 Y32.3755 
G01 X13.5085 Y32.4764 
G01 X13.6271 Y32.5556 
G01 X13.7588 Y32.6102 
G01 X13.8987 Y32.6380 
G00 Z1.0000 
G00 X13.3477 Y29.7898 
G01 Z-0.2300 F254.00 
G01 X13.2360 Y29.5200 F508.00 
G01 X13.2360 Y29.2280 
G01 X13.3477 Y28.9582 
G01 X13.5542 Y28.7517 
G01 X13.8240 Y28.6400 
G01 X15.3240 Y28.6400 
G01 X15.5938 Y28.7517 
G01 X15.8003 Y28.9582 
G01 X15.9120 Y29.2280 
G01 X15.9120 Y29.5200 
G01 X15.8003 Y29.7898 
G01 X15.5938 Y29.9962 
G01 X15.3240 Y30.1080 
G01 X13.8240 Y30.1080 
G01 X13.5542 Y29.9962 
G01 X13.3477 Y29.7898 
G00 Z1.0000 
G00 X13.8987 Y30.0980 
G01 Z-0.2300 F254.00 
G01 X15.2493 Y30.0980 F508.00 
G01 X15.3892 Y30.0702 
G01 X15.5209 Y30.0156 
G01 X15.6395 Y29.9364 
G01 X15.7404 Y29.8355 
G01 X15.8196 Y29.7169 
G01 X15.8742 Y29.5852 
G01 X15.9020 Y29.4453 
G01 X15.9020 Y29.3027 
G01 X15.8742 Y29.1628 
G01 X15.8196 Y29.0311 
G01 X15.7404 Y28.9125 
G01 X15.6395 Y28.8116 
G01 X15.5209 Y28.7324 
G01 X15.3892 Y28.6778 
G01 X15.2493 Y28.6500 
G01 X13.8987 Y28.6500 
G01 X13.7588 Y28.6778 
G01 X13.6271 Y28.7324 
G01 X13.5085 Y28.8116 
G01 X13.4076 Y28.9125 
G01 X13.3284 Y29.0311 
G01 X13.2738 Y29.1628 
G01 X13.2460 Y29.3027 
G01 X13.2460 Y29.4453 
G01 X13.2738 Y29.5852 
G01 X13.3284 Y29.7169 
G01 X13.4076 Y29.8355 
G01 X13.5085 Y29.9364 
G01 X13.6271 Y30.0156 
G01 X13.7588 Y30.0702 
G01 X13.8987 Y30.0980 
G00 Z1.0000 
G00 X13.3477 Y24.7098 
G01 Z-0.2300 F254.00 
G01 X13.2360 Y24.4400 F508.00 
G01 X13.2360 Y24.1480 
G01 X13.3477 Y23.8782 
G01 X13.5542 Y23.6717 
G01 X13.8240 Y23.5600 
G01 X15.3240 Y23.5600 
G01 X15.5938 Y23.6717 
G01 X15.8003 Y23.8782 
G01 X15.9120 Y24.1480 
G01 X15.9120 Y24.4400 
G01 X15.8003 Y24.7098 
G01 X15.5938 Y24.9163 
G01 X15.3240 Y25.0280 
G01 X13.8240 Y25.0280 
G01 X13.5542 Y24.9163 
G01 X13.3477 Y24.7098 
G00 Z1.0000 
G00 X13.8987 Y25.0180 
G01 Z-0.2300 F254.00 
G01 X15.2493 Y25.0180 F508.00 
G01 X15.3892 Y24.9902 
G01 X15.5209 Y24.9356 
G01 X15.6395 Y24.8564 
G01 X15.7404 Y24.7555 
G01 X15.8196 Y24.6369 
G01 X15.8742 Y24.5052 
G01 X15.9020 Y24.3653 
G01 X15.9020 Y24.2227 
G01 X15.8742 Y24.0828 
G01 X15.8196 Y23.9511 
G01 X15.7404 Y23.8325 
G01 X15.6395 Y23.7316 
G01 X15.5209 Y23.6524 
G01 X15.3892 Y23.5978 
G01 X15.2493 Y23.5700 
G01 X13.8987 Y23.5700 
G01 X13.7588 Y23.5978 
G01 X13.6271 Y23.6524 
G01 X13.5085 Y23.7316 
G01 X13.4076 Y23.8325 
G01 X13.3284 Y23.9511 
G01 X13.2738 Y24.0828 
G01 X13.2460 Y24.2227 
G01 X13.2460 Y24.3653 
G01 X13.2738 Y24.5052 
G01 X13.3284 Y24.6369 
G01 X13.4076 Y24.7555 
G01 X13.5085 Y24.8564 
G01 X13.6271 Y24.9356 
G01 X13.7588 Y24.9902 
G01 X13.8987 Y25.0180 
G00 Z1.0000 
G00 X13.3477 Y19.6298 
G01 Z-0.2300 F254.00 
G01 X13.2360 Y19.3600 F508.00 
G01 X13.2360 Y19.0680 
G01 X13.3477 Y18.7982 
G01 X13.5542 Y18.5917 
G01 X13.8240 Y18.4800 
G01 X15.3240 Y18.4800 
G01 X15.5938 Y18.5917 
G01 X15.8003 Y18.7982 
G01 X15.9120 Y19.0680 
G01 X15.9120 Y19.3600 
G01 X15.8003 Y19.6298 
G01 X15.5938 Y19.8363 
G01 X15.3240 Y19.9480 
G01 X13.8240 Y19.9480 
G01 X13.5542 Y19.8362 
G01 X13.3477 Y19.6298 
G00 Z1.0000 
G00 X13.8987 Y19.9380 
G01 Z-0.2300 F254.00 
G01 X15.2493 Y19.9380 F508.00 
G01 X15.3892 Y19.9102 
G01 X15.5209 Y19.8556 
G01 X15.6395 Y19.7764 
G01 X15.7404 Y19.6755 
G01 X15.8196 Y19.5569 
G01 X15.8742 Y19.4252 
G01 X15.9020 Y19.2853 
G01 X15.9020 Y19.1427 
G01 X15.8742 Y19.0028 
G01 X15.8196 Y18.8711 
G01 X15.7404 Y18.7525 
G01 X15.6395 Y18.6516 
G01 X15.5209 Y18.5724 
G01 X15.3892 Y18.5178 
G01 X15.2493 Y18.4900 
G01 X13.8987 Y18.4900 
G01 X13.7588 Y18.5178 
G01 X13.6271 Y18.5724 
G01 X13.5085 Y18.6516 
G01 X13.4076 Y18.7525 
G01 X13.3284 Y18.8711 
G01 X13.2738 Y19.0028 
G01 X13.2460 Y19.1427 
G01 X13.2460 Y19.2853 
G01 X13.2738 Y19.4252 
G01 X13.3284 Y19.5569 
G01 X13.4076 Y19.6755 
G01 X13.5085 Y19.7764 
G01 X13.6271 Y19.8556 
G01 X13.7588 Y19.9102 
G01 X13.8987 Y19.9380 
G00 Z1.0000 
G00 X13.3477 Y14.5498 
G01 Z-0.2300 F254.00 
G01 X13.2360 Y14.2800 F508.00 
G01 X13.2360 Y13.9880 
G01 X13.3477 Y13.7182 
G01 X13.5542 Y13.5117 
G01 X13.8240 Y13.4000 
G01 X15.3240 Y13.4000 
G01 X15.5938 Y13.5117 
G01 X15.8003 Y13.7182 
G01 X15.9120 Y13.9880 
G01 X15.9120 Y14.2800 
G01 X15.8003 Y14.5498 
G01 X15.5938 Y14.7563 
G01 X15.3240 Y14.8680 
G01 X13.8240 Y14.8680 
G01 X13.5542 Y14.7563 
G01 X13.3477 Y14.5498 
G00 Z1.0000 
G00 X13.8987 Y14.8580 
G01 Z-0.2300 F254.00 
G01 X15.2493 Y14.8580 F508.00 
G01 X15.3892 Y14.8302 
G01 X15.5209 Y14.7756 
G01 X15.6395 Y14.6964 
G01 X15.7404 Y14.5955 
G01 X15.8196 Y14.4769 
G01 X15.8742 Y14.3452 
G01 X15.9020 Y14.2053 
G01 X15.9020 Y14.0627 
G01 X15.8742 Y13.9228 
G01 X15.8196 Y13.7911 
G01 X15.7404 Y13.6725 
G01 X15.6395 Y13.5716 
G01 X15.5209 Y13.4924 
G01 X15.3892 Y13.4378 
G01 X15.2493 Y13.4100 
G01 X13.8987 Y13.4100 
G01 X13.7588 Y13.4378 
G01 X13.6271 Y13.4924 
G01 X13.5085 Y13.5716 
G01 X13.4076 Y13.6725 
G01 X13.3284 Y13.7911 
G01 X13.2738 Y13.9228 
G01 X13.2460 Y14.0627 
G01 X13.2460 Y14.2053 
G01 X13.2738 Y14.3452 
G01 X13.3284 Y14.4769 
G01 X13.4076 Y14.5955 
G01 X13.5085 Y14.6964 
G01 X13.6271 Y14.7756 
G01 X13.7588 Y14.8302 
G01 X13.8987 Y14.8580 
G00 Z1.0000 
G00 X45.8528 Y38.2140 
G01 Z-0.2300 F254.00 
G01 X46.0191 Y38.3251 F508.00 
G01 X46.2038 Y38.4017 
G01 X46.4000 Y38.4407 
G01 X46.6000 Y38.4407 
G01 X46.7385 Y38.4131 
G01 X46.5476 Y38.4768 
G01 X45.4334 Y38.4768 
G01 X45.4772 Y38.4478 
G01 X45.5232 Y38.4212 
G01 X45.5348 Y38.4097 
G01 X45.5484 Y38.4006 
G01 X45.5836 Y38.3608 
G01 X45.6212 Y38.3232 
G01 X45.6294 Y38.3090 
G01 X45.7788 Y38.1401 
G01 X45.8528 Y38.2140 
G00 Z1.0000 
G00 X19.4820 Y8.4456 
G01 Z-0.2300 F254.00 
G01 X19.9474 Y8.9109 F508.00 
G01 X19.9474 Y8.9168 
G01 X19.9334 Y8.9168 
G01 X19.4763 Y8.4596 
G01 X19.4762 Y8.4456 
G01 X19.4820 Y8.4456 
G00 Z1.0000 
G00 X23.4019 Y9.9604 
G01 Z-0.2300 F254.00 
G01 X22.9366 Y9.4950 F508.00 
G01 X22.9366 Y9.4892 
G01 X22.9506 Y9.4892 
G01 X23.4077 Y9.9464 
G01 X23.4078 Y9.9604 
G01 X23.4019 Y9.9604 
G00 Z1.0000 
G00 X20.2676 Y7.6426 
G01 Z-0.2300 F254.00 
G01 X20.7306 Y7.1796 F508.00 
G01 X21.3854 Y7.1796 
G01 X21.7548 Y7.5490 
G01 X21.8285 Y7.5916 
G01 X21.9107 Y7.6136 
G01 X24.7093 Y7.6136 
G01 X24.7915 Y7.5916 
G01 X24.8652 Y7.5490 
G01 X24.9254 Y7.4888 
G01 X25.3086 Y7.1056 
G01 X25.9634 Y7.1056 
G01 X26.4264 Y7.5686 
G01 X26.4264 Y8.2234 
G01 X25.9634 Y8.6864 
G01 X25.3086 Y8.6864 
G01 X24.8652 Y8.2430 
G01 X24.7915 Y8.2004 
G01 X24.7093 Y8.1784 
G01 X24.6046 Y8.1784 
G01 X24.5224 Y8.2004 
G01 X24.4487 Y8.2430 
G01 X24.3894 Y8.3022 
G01 X24.3459 Y8.3768 
G01 X24.3239 Y8.4590 
G01 X24.3239 Y8.5442 
G01 X24.3459 Y8.6264 
G01 X24.3885 Y8.7000 
G01 X24.5254 Y8.8369 
G01 X24.5254 Y8.8428 
G01 X24.5114 Y8.8428 
G01 X24.0542 Y8.3856 
G01 X23.4077 Y8.3856 
G01 X22.9506 Y8.8427 
G01 X22.9366 Y8.8428 
G01 X22.9366 Y8.8369 
G01 X23.0735 Y8.7000 
G01 X23.1161 Y8.6264 
G01 X23.1381 Y8.5442 
G01 X23.1381 Y8.4590 
G01 X23.1161 Y8.3768 
G01 X23.0744 Y8.3048 
G01 X23.0133 Y8.2430 
G01 X22.9396 Y8.2004 
G01 X22.8574 Y8.1784 
G01 X22.0587 Y8.1784 
G01 X21.9765 Y8.2004 
G01 X21.9028 Y8.2430 
G01 X21.8426 Y8.3031 
G01 X21.3854 Y8.7604 
G01 X20.7306 Y8.7604 
G01 X20.2676 Y8.2974 
G01 X20.2676 Y7.6426 
G00 Z1.0000 
G00 X24.8556 Y7.5727 
G01 Z-0.2300 F254.00 
G01 X24.8556 Y7.6236 F508.00 
G01 X21.8153 Y7.6236 
G01 X21.3813 Y7.1896 
G01 X20.7347 Y7.1896 
G01 X20.2776 Y7.6467 
G01 X20.2776 Y8.2933 
G01 X20.7347 Y8.7504 
G01 X21.3813 Y8.7504 
G01 X21.8384 Y8.2933 
G01 X21.8384 Y8.1684 
G01 X24.8556 Y8.1684 
G01 X24.8556 Y8.2193 
G01 X25.3127 Y8.6764 
G01 X25.9593 Y8.6764 
G01 X26.4164 Y8.2193 
G01 X26.4164 Y7.5727 
G01 X25.9593 Y7.1156 
G01 X25.3127 Y7.1156 
G01 X24.8556 Y7.5727 
G00 Z1.0000 
G00 X24.5254 Y9.4950 
G01 Z-0.2300 F254.00 
G01 X24.0600 Y9.9604 F508.00 
G01 X24.0542 Y9.9604 
G01 X24.0542 Y9.9464 
G01 X24.5114 Y9.4893 
G01 X24.5254 Y9.4892 
G01 X24.5254 Y9.4950 
G00 Z1.0000 
G00 X36.7719 Y30.1120 
G01 Z-0.2300 F254.00 
G01 X36.6572 Y30.0938 F508.00 
G01 X36.5467 Y30.0579 
G01 X36.4432 Y30.0052 
G01 X36.3492 Y29.9369 
G01 X36.2671 Y29.8548 
G01 X36.2573 Y29.8413 
G01 X36.2518 Y29.8297 
G01 X36.2324 Y29.8070 
G01 X36.2148 Y29.7829 
G01 X36.2048 Y29.7748 
G01 X36.1965 Y29.7650 
G01 X36.1719 Y29.7481 
G01 X36.1487 Y29.7293 
G01 X36.1370 Y29.7241 
G01 X36.1264 Y29.7168 
G01 X36.0982 Y29.7068 
G01 X36.0710 Y29.6947 
G01 X36.0583 Y29.6927 
G01 X36.0461 Y29.6884 
G01 X36.0164 Y29.6860 
G01 X35.9869 Y29.6814 
G01 X35.9741 Y29.6827 
G01 X35.9613 Y29.6817 
G01 X35.9320 Y29.6872 
G01 X35.9023 Y29.6903 
G01 X35.8903 Y29.6949 
G01 X35.8776 Y29.6972 
G01 X35.8507 Y29.7101 
G01 X35.8228 Y29.7208 
G01 X35.8124 Y29.7283 
G01 X35.8008 Y29.7339 
G01 X35.7781 Y29.7532 
G01 X35.7540 Y29.7708 
G01 X35.7459 Y29.7808 
G01 X35.7361 Y29.7891 
G01 X35.7192 Y29.8137 
G01 X35.7004 Y29.8369 
G01 X35.6952 Y29.8487 
G01 X35.6879 Y29.8593 
G01 X35.6779 Y29.8874 
G01 X35.6658 Y29.9147 
G01 X35.6638 Y29.9274 
G01 X35.6595 Y29.9395 
G01 X35.6572 Y29.9692 
G01 X35.6525 Y29.9987 
G01 X35.6537 Y30.0099 
G01 X35.6420 Y30.0269 
G01 X35.6363 Y30.0431 
G01 X35.6281 Y30.0581 
G01 X35.6221 Y30.0830 
G01 X35.6136 Y30.1072 
G01 X35.6122 Y30.1242 
G01 X35.6109 Y30.1297 
G01 X35.6044 Y30.1455 
G01 X35.6010 Y30.1709 
G01 X35.5951 Y30.1958 
G01 X35.5955 Y30.2130 
G01 X35.5933 Y30.2299 
G01 X35.5960 Y30.2509 
G01 X35.5784 Y30.2934 
G01 X35.5662 Y30.3159 
G01 X35.5622 Y30.3325 
G01 X35.5557 Y30.3483 
G01 X35.5523 Y30.3737 
G01 X35.5416 Y30.4184 
G01 X35.5270 Y30.4338 
G01 X35.5189 Y30.4488 
G01 X35.5084 Y30.4624 
G01 X35.4986 Y30.4860 
G01 X35.4864 Y30.5085 
G01 X35.4824 Y30.5252 
G01 X35.4803 Y30.5304 
G01 X35.4713 Y30.5450 
G01 X35.4641 Y30.5696 
G01 X35.4542 Y30.5932 
G01 X35.4520 Y30.6102 
G01 X35.4472 Y30.6266 
G01 X35.4466 Y30.6478 
G01 X35.4226 Y30.6870 
G01 X35.4070 Y30.7073 
G01 X35.4004 Y30.7231 
G01 X35.3915 Y30.7377 
G01 X35.3842 Y30.7622 
G01 X35.3667 Y30.8047 
G01 X35.3499 Y30.8176 
G01 X35.3394 Y30.8312 
G01 X35.3270 Y30.8429 
G01 X35.3136 Y30.8648 
G01 X35.2980 Y30.8851 
G01 X35.2915 Y30.9009 
G01 X35.2885 Y30.9057 
G01 X35.2774 Y30.9188 
G01 X35.2664 Y30.9418 
G01 X35.2530 Y30.9637 
G01 X35.2481 Y30.9801 
G01 X35.2408 Y30.9956 
G01 X35.2369 Y31.0164 
G01 X35.2071 Y31.0513 
G01 X35.1885 Y31.0690 
G01 X35.1796 Y31.0836 
G01 X35.1685 Y31.0966 
G01 X35.1574 Y31.1197 
G01 X35.1334 Y31.1588 
G01 X35.1148 Y31.1690 
G01 X35.1024 Y31.1807 
G01 X35.0883 Y31.1904 
G01 X35.0717 Y31.2099 
G01 X35.0531 Y31.2275 
G01 X35.0441 Y31.2421 
G01 X35.0405 Y31.2464 
G01 X35.0274 Y31.2575 
G01 X35.0129 Y31.2786 
G01 X34.9963 Y31.2981 
G01 X34.9889 Y31.3136 
G01 X34.9792 Y31.3277 
G01 X34.9722 Y31.3477 
G01 X34.9372 Y31.3775 
G01 X34.9161 Y31.3920 
G01 X34.9050 Y31.4050 
G01 X34.8920 Y31.4161 
G01 X34.8775 Y31.4372 
G01 X34.8477 Y31.4722 
G01 X34.8277 Y31.4792 
G01 X34.8136 Y31.4889 
G01 X34.7981 Y31.4963 
G01 X34.7786 Y31.5129 
G01 X34.7575 Y31.5274 
G01 X34.7464 Y31.5405 
G01 X34.7421 Y31.5441 
G01 X34.7275 Y31.5531 
G01 X34.7099 Y31.5717 
G01 X34.6904 Y31.5883 
G01 X34.6807 Y31.6024 
G01 X34.6690 Y31.6148 
G01 X34.6588 Y31.6334 
G01 X34.6197 Y31.6574 
G01 X34.5966 Y31.6685 
G01 X34.5836 Y31.6796 
G01 X34.5690 Y31.6885 
G01 X34.5513 Y31.7071 
G01 X34.5164 Y31.7369 
G01 X34.4956 Y31.7408 
G01 X34.4801 Y31.7481 
G01 X34.4637 Y31.7530 
G01 X34.4418 Y31.7664 
G01 X34.4188 Y31.7774 
G01 X34.4057 Y31.7885 
G01 X34.4009 Y31.7915 
G01 X34.3851 Y31.7980 
G01 X34.3648 Y31.8136 
G01 X34.3429 Y31.8270 
G01 X34.3312 Y31.8394 
G01 X34.3176 Y31.8499 
G01 X34.3047 Y31.8667 
G01 X34.2622 Y31.8842 
G01 X34.2377 Y31.8915 
G01 X34.2231 Y31.9004 
G01 X34.2073 Y31.9070 
G01 X34.1870 Y31.9226 
G01 X34.1478 Y31.9466 
G01 X34.1266 Y31.9472 
G01 X34.1102 Y31.9520 
G01 X34.0932 Y31.9542 
G01 X34.0696 Y31.9641 
G01 X34.0450 Y31.9713 
G01 X34.0304 Y31.9803 
G01 X34.0252 Y31.9824 
G01 X34.0085 Y31.9864 
G01 X33.9860 Y31.9986 
G01 X33.9624 Y32.0084 
G01 X33.9488 Y32.0189 
G01 X33.9338 Y32.0270 
G01 X33.9184 Y32.0416 
G01 X33.8737 Y32.0523 
G01 X33.8483 Y32.0557 
G01 X33.8325 Y32.0622 
G01 X33.8159 Y32.0662 
G01 X33.7934 Y32.0785 
G01 X33.7509 Y32.0960 
G01 X33.7299 Y32.0933 
G01 X33.7130 Y32.0955 
G01 X33.6958 Y32.0951 
G01 X33.6709 Y32.1010 
G01 X33.6455 Y32.1044 
G01 X33.6297 Y32.1109 
G01 X33.6242 Y32.1122 
G01 X33.6072 Y32.1136 
G01 X33.5830 Y32.1221 
G01 X33.5581 Y32.1281 
G01 X33.5431 Y32.1363 
G01 X33.5270 Y32.1420 
G01 X33.5095 Y32.1540 
G01 X33.4637 Y32.1576 
G01 X33.4381 Y32.1569 
G01 X33.4214 Y32.1609 
G01 X33.4044 Y32.1623 
G01 X33.3803 Y32.1708 
G01 X33.3356 Y32.1815 
G01 X33.3153 Y32.1755 
G01 X33.2981 Y32.1751 
G01 X33.2813 Y32.1720 
G01 X33.2558 Y32.1740 
G01 X33.2302 Y32.1733 
G01 X33.2150 Y32.1770 
G01 X33.1880 Y32.1770 
G01 X33.1756 Y32.1803 
G01 X33.1628 Y32.1813 
G01 X33.1346 Y32.1913 
G01 X33.1058 Y32.1990 
G01 X33.0947 Y32.2054 
G01 X33.0826 Y32.2097 
G01 X33.0580 Y32.2266 
G01 X33.0321 Y32.2415 
G01 X33.0286 Y32.2450 
G01 X33.0230 Y32.2506 
G01 X33.0124 Y32.2579 
G01 X32.9930 Y32.2806 
G01 X32.9685 Y32.3052 
G01 X32.9610 Y32.3181 
G01 X32.9572 Y32.3226 
G01 X32.9513 Y32.3350 
G01 X32.9259 Y32.3789 
G01 X32.9196 Y32.4026 
G01 X32.9039 Y32.4611 
G01 X32.9039 Y32.5032 
G01 X32.9039 Y32.5462 
G01 X32.9134 Y32.5814 
G01 X32.9259 Y32.6284 
G01 X32.9369 Y32.6474 
G01 X32.9685 Y32.7021 
G01 X34.7646 Y35.8124 
G01 X34.7817 Y35.8420 
G01 X34.8121 Y35.8724 
G01 X34.8419 Y35.9022 
G01 X34.8646 Y35.9153 
G01 X34.9156 Y35.9448 
G01 X34.9403 Y35.9514 
G01 X34.9978 Y35.9668 
G01 X35.0408 Y35.9668 
G01 X35.1570 Y35.9668 
G01 X35.2332 Y36.0430 
G01 X35.2332 Y37.1570 
G01 X35.1570 Y37.2332 
G01 X34.0430 Y37.2332 
G01 X33.9668 Y37.1570 
G01 X33.9668 Y36.7053 
G01 X33.9668 Y36.6632 
G01 X33.9668 Y36.6202 
G01 X33.9574 Y36.5849 
G01 X33.9448 Y36.5380 
G01 X33.9337 Y36.5189 
G01 X33.9022 Y36.4643 
G01 X31.5518 Y32.3940 
G01 X31.5506 Y32.3899 
G01 X31.5306 Y32.3573 
G01 X31.5114 Y32.3240 
G01 X31.5083 Y32.3210 
G01 X31.5061 Y32.3174 
G01 X31.4783 Y32.2910 
G01 X31.4512 Y32.2639 
G01 X31.4475 Y32.2617 
G01 X31.4444 Y32.2588 
G01 X31.4107 Y32.2405 
G01 X31.3775 Y32.2213 
G01 X31.3734 Y32.2202 
G01 X31.3696 Y32.2182 
G01 X31.3323 Y32.2092 
G01 X31.2953 Y32.1993 
G01 X31.2910 Y32.1993 
G01 X31.1980 Y32.1770 
G01 X31.1738 Y32.1684 
G01 X31.1568 Y32.1671 
G01 X31.1401 Y32.1631 
G01 X31.1145 Y32.1638 
G01 X31.0617 Y32.1596 
G01 X31.0279 Y32.1471 
G01 X30.9964 Y32.1340 
G01 X30.9879 Y32.1329 
G01 X30.9798 Y32.1300 
G01 X30.9459 Y32.1274 
G01 X30.9121 Y32.1229 
G01 X30.8611 Y32.1029 
G01 X30.8386 Y32.0907 
G01 X30.8220 Y32.0867 
G01 X30.8062 Y32.0802 
G01 X30.7808 Y32.0768 
G01 X30.7293 Y32.0645 
G01 X30.6979 Y32.0468 
G01 X30.6688 Y32.0290 
G01 X30.6606 Y32.0266 
G01 X30.6530 Y32.0225 
G01 X30.6199 Y32.0145 
G01 X30.5872 Y32.0048 
G01 X30.5400 Y31.9771 
G01 X30.5197 Y31.9615 
G01 X30.5039 Y31.9549 
G01 X30.4893 Y31.9460 
G01 X30.4648 Y31.9387 
G01 X30.4158 Y31.9185 
G01 X30.3876 Y31.8961 
G01 X30.3616 Y31.8740 
G01 X30.3539 Y31.8703 
G01 X30.3471 Y31.8651 
G01 X30.3156 Y31.8520 
G01 X30.2848 Y31.8373 
G01 X30.2426 Y31.8026 
G01 X30.2249 Y31.7840 
G01 X30.2103 Y31.7751 
G01 X30.1973 Y31.7640 
G01 X30.1742 Y31.7529 
G01 X30.1291 Y31.7253 
G01 X30.1046 Y31.6988 
G01 X30.0825 Y31.6728 
G01 X30.0754 Y31.6680 
G01 X30.0695 Y31.6617 
G01 X30.0405 Y31.6439 
G01 X30.0124 Y31.6246 
G01 X29.9761 Y31.5837 
G01 X29.9616 Y31.5626 
G01 X29.9485 Y31.5515 
G01 X29.9374 Y31.5384 
G01 X29.9163 Y31.5239 
G01 X29.8760 Y31.4895 
G01 X29.8561 Y31.4596 
G01 X29.8383 Y31.4305 
G01 X29.8320 Y31.4246 
G01 X29.8272 Y31.4175 
G01 X29.8012 Y31.3954 
G01 X29.7765 Y31.3719 
G01 X29.7471 Y31.3258 
G01 X29.7360 Y31.3027 
G01 X29.7249 Y31.2897 
G01 X29.7160 Y31.2751 
G01 X29.6974 Y31.2574 
G01 X29.6630 Y31.2172 
G01 X29.6480 Y31.1844 
G01 X29.6349 Y31.1529 
G01 X29.6297 Y31.1461 
G01 X29.6260 Y31.1384 
G01 X29.6039 Y31.1124 
G01 X29.5831 Y31.0854 
G01 X29.5613 Y31.0353 
G01 X29.5540 Y31.0107 
G01 X29.5450 Y30.9961 
G01 X29.5385 Y30.9803 
G01 X29.5229 Y30.9600 
G01 X29.4952 Y30.9148 
G01 X29.4855 Y30.8801 
G01 X29.4775 Y30.8470 
G01 X29.4734 Y30.8394 
G01 X29.4710 Y30.8312 
G01 X29.4532 Y30.8021 
G01 X29.4369 Y30.7722 
G01 X29.4232 Y30.7192 
G01 X29.4198 Y30.6938 
G01 X29.4133 Y30.6780 
G01 X29.4093 Y30.6614 
G01 X29.3971 Y30.6389 
G01 X29.3768 Y30.5899 
G01 X29.3726 Y30.5541 
G01 X29.3699 Y30.5202 
G01 X29.3671 Y30.5121 
G01 X29.3660 Y30.5036 
G01 X29.3529 Y30.4721 
G01 X29.3415 Y30.4399 
G01 X29.3362 Y30.3855 
G01 X29.3369 Y30.3599 
G01 X29.3329 Y30.3432 
G01 X29.3316 Y30.3262 
G01 X29.3230 Y30.3020 
G01 X29.3065 Y30.2332 
G01 X29.3065 Y30.2116 
G01 X29.3075 Y30.1733 
G01 X29.3065 Y30.1691 
G01 X29.3065 Y30.0500 
G01 X29.3088 Y30.0374 
G01 X29.3065 Y30.0076 
G01 X29.3065 Y29.9778 
G01 X29.3032 Y29.9653 
G01 X29.2972 Y29.8893 
G01 X29.2988 Y29.8808 
G01 X29.3065 Y29.8519 
G01 X29.3065 Y29.8391 
G01 X29.3088 Y29.8264 
G01 X29.3065 Y29.7967 
G01 X29.3065 Y29.7042 
G01 X29.3087 Y29.6733 
G01 X29.3065 Y29.6618 
G01 X29.3065 Y29.6502 
G01 X29.2985 Y29.6202 
G01 X29.2977 Y29.6162 
G01 X29.3035 Y29.5354 
G01 X29.3065 Y29.5241 
G01 X29.3065 Y29.4931 
G01 X29.3087 Y29.4621 
G01 X29.3065 Y29.4507 
G01 X29.3065 Y29.2911 
G01 X29.3082 Y29.2835 
G01 X29.3065 Y29.2487 
G01 X29.3065 Y29.2404 
G01 X29.3082 Y29.2328 
G01 X29.3067 Y29.2013 
G01 X29.3088 Y29.1736 
G01 X29.3065 Y29.1609 
G01 X29.3065 Y29.1481 
G01 X29.2988 Y29.1192 
G01 X29.2972 Y29.1107 
G01 X29.3032 Y29.0347 
G01 X29.3065 Y29.0222 
G01 X29.3065 Y28.9924 
G01 X29.3088 Y28.9626 
G01 X29.3065 Y28.9500 
G01 X29.3065 Y28.8309 
G01 X29.3075 Y28.8267 
G01 X29.3065 Y28.7884 
G01 X29.3065 Y28.7668 
G01 X29.3230 Y28.6980 
G01 X29.3316 Y28.6738 
G01 X29.3329 Y28.6568 
G01 X29.3369 Y28.6401 
G01 X29.3362 Y28.6145 
G01 X29.3404 Y28.5617 
G01 X29.3529 Y28.5279 
G01 X29.3660 Y28.4964 
G01 X29.3671 Y28.4879 
G01 X29.3699 Y28.4798 
G01 X29.3726 Y28.4459 
G01 X29.3771 Y28.4121 
G01 X29.3971 Y28.3611 
G01 X29.4093 Y28.3386 
G01 X29.4133 Y28.3220 
G01 X29.4198 Y28.3062 
G01 X29.4232 Y28.2808 
G01 X29.4355 Y28.2293 
G01 X29.4532 Y28.1979 
G01 X29.4710 Y28.1688 
G01 X29.4734 Y28.1606 
G01 X29.4775 Y28.1530 
G01 X29.4855 Y28.1199 
G01 X29.4952 Y28.0872 
G01 X29.5229 Y28.0400 
G01 X29.5385 Y28.0197 
G01 X29.5450 Y28.0039 
G01 X29.5540 Y27.9893 
G01 X29.5613 Y27.9648 
G01 X29.5815 Y27.9158 
G01 X29.6039 Y27.8876 
G01 X29.6260 Y27.8616 
G01 X29.6297 Y27.8539 
G01 X29.6349 Y27.8471 
G01 X29.6480 Y27.8156 
G01 X29.6627 Y27.7848 
G01 X29.6974 Y27.7426 
G01 X29.7160 Y27.7249 
G01 X29.7249 Y27.7103 
G01 X29.7360 Y27.6973 
G01 X29.7471 Y27.6742 
G01 X29.7747 Y27.6291 
G01 X29.8013 Y27.6046 
G01 X29.8272 Y27.5825 
G01 X29.8320 Y27.5754 
G01 X29.8383 Y27.5695 
G01 X29.8561 Y27.5404 
G01 X29.8754 Y27.5123 
G01 X29.9163 Y27.4761 
G01 X29.9374 Y27.4616 
G01 X29.9485 Y27.4485 
G01 X29.9616 Y27.4374 
G01 X29.9761 Y27.4163 
G01 X30.0104 Y27.3761 
G01 X30.0404 Y27.3561 
G01 X30.0695 Y27.3383 
G01 X30.0754 Y27.3320 
G01 X30.0825 Y27.3272 
G01 X30.1046 Y27.3013 
G01 X30.1281 Y27.2765 
G01 X30.1742 Y27.2471 
G01 X30.1973 Y27.2360 
G01 X30.2103 Y27.2249 
G01 X30.2249 Y27.2160 
G01 X30.2426 Y27.1974 
G01 X30.2828 Y27.1630 
G01 X30.3156 Y27.1480 
G01 X30.3471 Y27.1349 
G01 X30.3539 Y27.1297 
G01 X30.3616 Y27.1260 
G01 X30.3875 Y27.1039 
G01 X30.4146 Y27.0831 
G01 X30.4648 Y27.0613 
G01 X30.4893 Y27.0540 
G01 X30.5039 Y27.0450 
G01 X30.5197 Y27.0385 
G01 X30.5400 Y27.0229 
G01 X30.5852 Y26.9952 
G01 X30.6199 Y26.9855 
G01 X30.6530 Y26.9775 
G01 X30.6606 Y26.9734 
G01 X30.6688 Y26.9710 
G01 X30.6979 Y26.9532 
G01 X30.7278 Y26.9369 
G01 X30.7808 Y26.9232 
G01 X30.8062 Y26.9198 
G01 X30.8220 Y26.9133 
G01 X30.8386 Y26.9093 
G01 X30.8611 Y26.8971 
G01 X30.9100 Y26.8768 
G01 X30.9458 Y26.8726 
G01 X30.9799 Y26.8699 
G01 X30.9879 Y26.8671 
G01 X30.9964 Y26.8660 
G01 X31.0279 Y26.8529 
G01 X31.0601 Y26.8415 
G01 X31.1145 Y26.8362 
G01 X31.1401 Y26.8369 
G01 X31.1568 Y26.8329 
G01 X31.1738 Y26.8316 
G01 X31.1980 Y26.8230 
G01 X31.2668 Y26.8065 
G01 X31.2884 Y26.8065 
G01 X31.3267 Y26.8075 
G01 X31.3309 Y26.8065 
G01 X31.4500 Y26.8065 
G01 X31.4626 Y26.8088 
G01 X31.4924 Y26.8065 
G01 X31.5222 Y26.8065 
G01 X31.5347 Y26.8032 
G01 X31.6107 Y26.7972 
G01 X31.6192 Y26.7988 
G01 X31.6481 Y26.8065 
G01 X31.6609 Y26.8065 
G01 X31.6735 Y26.8088 
G01 X31.7013 Y26.8067 
G01 X31.7328 Y26.8082 
G01 X31.7404 Y26.8065 
G01 X31.7486 Y26.8065 
G01 X31.7834 Y26.8082 
G01 X31.7911 Y26.8065 
G01 X31.9507 Y26.8065 
G01 X31.9621 Y26.8087 
G01 X31.9931 Y26.8065 
G01 X32.0241 Y26.8065 
G01 X32.0354 Y26.8035 
G01 X32.1162 Y26.7977 
G01 X32.1202 Y26.7985 
G01 X32.1502 Y26.8065 
G01 X32.1618 Y26.8065 
G01 X32.1733 Y26.8087 
G01 X32.2042 Y26.8065 
G01 X32.7958 Y26.8065 
G01 X32.8267 Y26.8087 
G01 X32.8381 Y26.8065 
G01 X32.8498 Y26.8065 
G01 X32.8798 Y26.7985 
G01 X32.8838 Y26.7977 
G01 X32.9646 Y26.8035 
G01 X32.9759 Y26.8065 
G01 X33.0069 Y26.8065 
G01 X33.0379 Y26.8087 
G01 X33.0493 Y26.8065 
G01 X33.1375 Y26.8065 
G01 X33.1494 Y26.8091 
G01 X33.1830 Y26.8181 
G01 X33.1909 Y26.8181 
G01 X33.1985 Y26.8198 
G01 X33.2333 Y26.8181 
G01 X33.2681 Y26.8181 
G01 X33.2757 Y26.8161 
G01 X33.2835 Y26.8157 
G01 X33.2910 Y26.8133 
G01 X33.3420 Y26.8244 
G01 X33.3640 Y26.8320 
G01 X33.3834 Y26.8334 
G01 X33.4024 Y26.8376 
G01 X33.4257 Y26.8364 
G01 X33.4750 Y26.8400 
G01 X33.4877 Y26.8486 
G01 X33.5061 Y26.8550 
G01 X33.5234 Y26.8639 
G01 X33.5461 Y26.8688 
G01 X33.5682 Y26.8765 
G01 X33.5730 Y26.8775 
G01 X33.5962 Y26.8797 
G01 X33.6190 Y26.8847 
G01 X33.6384 Y26.8838 
G01 X33.6578 Y26.8856 
G01 X33.6730 Y26.8830 
G01 X33.7193 Y26.9003 
G01 X33.7400 Y26.9110 
G01 X33.7590 Y26.9151 
G01 X33.7772 Y26.9219 
G01 X33.8004 Y26.9241 
G01 X33.8487 Y26.9346 
G01 X33.8601 Y26.9450 
G01 X33.8774 Y26.9539 
G01 X33.8932 Y26.9652 
G01 X33.9150 Y26.9733 
G01 X33.9357 Y26.9840 
G01 X33.9404 Y26.9858 
G01 X33.9630 Y26.9912 
G01 X33.9848 Y26.9994 
G01 X34.0042 Y27.0012 
G01 X34.0231 Y27.0058 
G01 X34.0385 Y27.0054 
G01 X34.0819 Y27.0292 
G01 X34.1009 Y27.0427 
G01 X34.1191 Y27.0495 
G01 X34.1362 Y27.0588 
G01 X34.1588 Y27.0643 
G01 X34.2051 Y27.0815 
G01 X34.2149 Y27.0934 
G01 X34.2308 Y27.1047 
G01 X34.2449 Y27.1181 
G01 X34.2653 Y27.1293 
G01 X34.2843 Y27.1428 
G01 X34.2887 Y27.1452 
G01 X34.3103 Y27.1538 
G01 X34.3307 Y27.1650 
G01 X34.3496 Y27.1696 
G01 X34.3677 Y27.1768 
G01 X34.3830 Y27.1786 
G01 X34.4226 Y27.2083 
G01 X34.4394 Y27.2243 
G01 X34.4565 Y27.2337 
G01 X34.4720 Y27.2453 
G01 X34.4937 Y27.2540 
G01 X34.5371 Y27.2777 
G01 X34.5451 Y27.2908 
G01 X34.5592 Y27.3043 
G01 X34.5712 Y27.3196 
G01 X34.5898 Y27.3335 
G01 X34.6067 Y27.3496 
G01 X34.6107 Y27.3525 
G01 X34.6309 Y27.3642 
G01 X34.6496 Y27.3782 
G01 X34.6676 Y27.3854 
G01 X34.6844 Y27.3951 
G01 X34.6993 Y27.3991 
G01 X34.7342 Y27.4340 
G01 X34.7486 Y27.4524 
G01 X34.7642 Y27.4640 
G01 X34.7779 Y27.4778 
G01 X34.7981 Y27.4894 
G01 X34.8377 Y27.5190 
G01 X34.8438 Y27.5332 
G01 X34.8558 Y27.5485 
G01 X34.8655 Y27.5653 
G01 X34.8820 Y27.5818 
G01 X34.8964 Y27.6001 
G01 X34.8999 Y27.6036 
G01 X34.9182 Y27.6180 
G01 X34.9347 Y27.6345 
G01 X34.9515 Y27.6442 
G01 X34.9668 Y27.6562 
G01 X34.9810 Y27.6623 
G01 X35.0106 Y27.7019 
G01 X35.0222 Y27.7221 
G01 X35.0360 Y27.7358 
G01 X35.0476 Y27.7514 
G01 X35.0659 Y27.7658 
G01 X35.1009 Y27.8007 
G01 X35.1049 Y27.8156 
G01 X35.1146 Y27.8324 
G01 X35.1218 Y27.8504 
G01 X35.1358 Y27.8691 
G01 X35.1474 Y27.8893 
G01 X35.1504 Y27.8933 
G01 X35.1665 Y27.9102 
G01 X35.1804 Y27.9288 
G01 X35.1957 Y27.9408 
G01 X35.2092 Y27.9549 
G01 X35.2223 Y27.9629 
G01 X35.2460 Y28.0063 
G01 X35.2547 Y28.0280 
G01 X35.2663 Y28.0435 
G01 X35.2756 Y28.0606 
G01 X35.2917 Y28.0774 
G01 X35.3214 Y28.1170 
G01 X35.3232 Y28.1323 
G01 X35.3304 Y28.1504 
G01 X35.3350 Y28.1693 
G01 X35.3462 Y28.1897 
G01 X35.3548 Y28.2113 
G01 X35.3572 Y28.2157 
G01 X35.3707 Y28.2347 
G01 X35.3819 Y28.2552 
G01 X35.3953 Y28.2692 
G01 X35.4066 Y28.2850 
G01 X35.4185 Y28.2948 
G01 X35.4357 Y28.3412 
G01 X35.4412 Y28.3638 
G01 X35.4505 Y28.3809 
G01 X35.4573 Y28.3991 
G01 X35.4708 Y28.4181 
G01 X35.4945 Y28.4615 
G01 X35.4942 Y28.4769 
G01 X35.4988 Y28.4958 
G01 X35.5006 Y28.5152 
G01 X35.5087 Y28.5370 
G01 X35.5142 Y28.5596 
G01 X35.5160 Y28.5643 
G01 X35.5267 Y28.5850 
G01 X35.5348 Y28.6068 
G01 X35.5461 Y28.6226 
G01 X35.5550 Y28.6399 
G01 X35.5653 Y28.6513 
G01 X35.5759 Y28.6996 
G01 X35.5781 Y28.7228 
G01 X35.5849 Y28.7410 
G01 X35.5890 Y28.7600 
G01 X35.5997 Y28.7807 
G01 X35.6321 Y28.8676 
G01 X35.6337 Y28.8776 
G01 X35.6469 Y28.9073 
G01 X35.6583 Y28.9378 
G01 X35.6641 Y28.9461 
G01 X35.6683 Y28.9553 
G01 X35.6888 Y28.9806 
G01 X35.7076 Y29.0071 
G01 X35.7154 Y29.0136 
G01 X35.7218 Y29.0215 
G01 X35.7482 Y29.0406 
G01 X35.7732 Y29.0613 
G01 X35.7825 Y29.0655 
G01 X35.7907 Y29.0715 
G01 X35.8210 Y29.0831 
G01 X35.8507 Y29.0967 
G01 X35.8607 Y29.0983 
G01 X35.8701 Y29.1020 
G01 X35.9025 Y29.1054 
G01 X35.9346 Y29.1108 
G01 X35.9447 Y29.1098 
G01 X35.9548 Y29.1109 
G01 X35.9869 Y29.1058 
G01 X36.0193 Y29.1027 
G01 X36.0288 Y29.0991 
G01 X36.0388 Y29.0976 
G01 X36.0685 Y29.0843 
G01 X36.0990 Y29.0730 
G01 X36.1073 Y29.0671 
G01 X36.1166 Y29.0630 
G01 X36.1419 Y29.0425 
G01 X36.1684 Y29.0236 
G01 X36.1748 Y29.0158 
G01 X36.1827 Y29.0094 
G01 X36.2018 Y28.9831 
G01 X36.2225 Y28.9580 
G01 X36.2267 Y28.9488 
G01 X36.2671 Y28.8932 
G01 X36.3492 Y28.8111 
G01 X36.4432 Y28.7428 
G01 X36.5467 Y28.6901 
G01 X36.6572 Y28.6542 
G01 X36.7719 Y28.6360 
G01 X37.1108 Y28.6360 
G01 X37.1108 Y28.6500 
G01 X36.7587 Y28.6500 
G01 X36.6188 Y28.6778 
G01 X36.4871 Y28.7324 
G01 X36.3685 Y28.8116 
G01 X36.2676 Y28.9125 
G01 X36.1884 Y29.0311 
G01 X36.1338 Y29.1628 
G01 X36.1060 Y29.3027 
G01 X36.1060 Y29.4453 
G01 X36.1338 Y29.5852 
G01 X36.1884 Y29.7169 
G01 X36.2676 Y29.8355 
G01 X36.3685 Y29.9364 
G01 X36.4871 Y30.0156 
G01 X36.6188 Y30.0702 
G01 X36.7587 Y30.0980 
G01 X37.1108 Y30.0980 
G01 X37.1108 Y30.1120 
G01 X36.7719 Y30.1120 
G00 Z1.0000 
G00 X33.9768 Y37.1271 
G01 Z-0.2300 F254.00 
G01 X33.9951 Y37.1712 F508.00 
G01 X34.0288 Y37.2049 
G01 X34.0729 Y37.2232 
G01 X35.1271 Y37.2232 
G01 X35.1712 Y37.2049 
G01 X35.2049 Y37.1712 
G01 X35.2232 Y37.1271 
G01 X35.2232 Y36.0729 
G01 X35.2049 Y36.0288 
G01 X35.1712 Y35.9951 
G01 X35.1271 Y35.9768 
G01 X34.8480 Y35.9768 
G01 X31.1240 Y29.5279 
G01 X31.1240 Y29.2415 
G01 X30.7585 Y28.8760 
G01 X30.2415 Y28.8760 
G01 X29.8760 Y29.2415 
G01 X29.8760 Y29.7585 
G01 X30.2415 Y30.1240 
G01 X30.2525 Y30.1240 
G01 X33.9768 Y36.5734 
G01 X33.9768 Y37.1271 
G00 Z1.0000 
G00 X36.0960 Y6.6600 
G01 Z-0.2300 F254.00 
G01 X36.0960 Y6.3680 F508.00 
G01 X36.2077 Y6.0982 
G01 X36.4142 Y5.8917 
G01 X36.6840 Y5.7800 
G01 X38.1840 Y5.7800 
G01 X38.4538 Y5.8917 
G01 X38.6603 Y6.0982 
G01 X38.7720 Y6.3680 
G01 X38.7720 Y6.6600 
G01 X38.6603 Y6.9298 
G01 X38.4538 Y7.1363 
G01 X38.1840 Y7.2480 
G01 X36.6840 Y7.2480 
G01 X36.4142 Y7.1363 
G01 X36.2077 Y6.9298 
G01 X36.0960 Y6.6600 
G00 Z1.0000 
G00 X36.7587 Y7.2380 
G01 Z-0.2300 F254.00 
G01 X38.1093 Y7.2380 F508.00 
G01 X38.2492 Y7.2102 
G01 X38.3809 Y7.1556 
G01 X38.4995 Y7.0764 
G01 X38.6004 Y6.9755 
G01 X38.6796 Y6.8569 
G01 X38.7342 Y6.7252 
G01 X38.7620 Y6.5853 
G01 X38.7620 Y6.4427 
G01 X38.7342 Y6.3028 
G01 X38.6796 Y6.1711 
G01 X38.6004 Y6.0525 
G01 X38.4995 Y5.9516 
G01 X38.3809 Y5.8724 
G01 X38.2492 Y5.8178 
G01 X38.1093 Y5.7900 
G01 X36.7587 Y5.7900 
G01 X36.6188 Y5.8178 
G01 X36.4871 Y5.8724 
G01 X36.3685 Y5.9516 
G01 X36.2676 Y6.0525 
G01 X36.1884 Y6.1711 
G01 X36.1338 Y6.3028 
G01 X36.1060 Y6.4427 
G01 X36.1060 Y6.5853 
G01 X36.1338 Y6.7252 
G01 X36.1884 Y6.8569 
G01 X36.2676 Y6.9755 
G01 X36.3685 Y7.0764 
G01 X36.4871 Y7.1556 
G01 X36.6188 Y7.2102 
G01 X36.7587 Y7.2380 
G00 Z1.0000 
G00 X12.7570 Y37.2332 
G01 Z-0.2300 F254.00 
G01 X11.6430 Y37.2332 F508.00 
G01 X11.6146 Y37.2048 
G01 X11.5771 Y37.1832 
G01 X11.5409 Y37.1623 
G01 X11.4993 Y37.1511 
G01 X11.4587 Y37.1402 
G01 X11.4155 Y37.1402 
G01 X11.3736 Y37.1402 
G01 X8.4118 Y37.1549 
G01 X8.3698 Y37.1549 
G01 X8.3282 Y37.1660 
G01 X8.2876 Y37.1769 
G01 X8.2504 Y37.1984 
G01 X8.2139 Y37.2195 
G01 X8.1835 Y37.2499 
G01 X7.9362 Y37.4972 
G01 X7.5593 Y37.6533 
G01 X5.3607 Y37.6533 
G01 X4.9838 Y37.4972 
G01 X4.6954 Y37.2088 
G01 X4.5393 Y36.8320 
G01 X4.5393 Y36.6130 
G01 X4.5420 Y36.5947 
G01 X4.5393 Y36.5706 
G01 X4.5393 Y36.5464 
G01 X4.5345 Y36.5285 
G01 X4.5324 Y36.5102 
G01 X4.5235 Y36.4876 
G01 X4.5173 Y36.4642 
G01 X4.5080 Y36.4482 
G01 X4.5013 Y36.4310 
G01 X4.4868 Y36.4115 
G01 X4.4747 Y36.3905 
G01 X4.4617 Y36.3774 
G01 X4.4507 Y36.3626 
G01 X4.4317 Y36.3475 
G01 X4.4145 Y36.3303 
G01 X4.3985 Y36.3211 
G01 X4.3841 Y36.3096 
G01 X4.3618 Y36.2999 
G01 X4.3409 Y36.2878 
G01 X4.3230 Y36.2830 
G01 X1.6293 Y35.1107 
G01 X1.5903 Y35.0937 
G01 X1.5539 Y35.0779 
G01 X1.5510 Y35.0775 
G01 X1.4916 Y35.0528 
G01 X1.4469 Y35.0065 
G01 X1.4173 Y34.9759 
G01 X1.3898 Y34.9474 
G01 X1.3417 Y34.9003 
G01 X1.3182 Y34.8404 
G01 X1.3178 Y34.8375 
G01 X1.3026 Y34.8008 
G01 X1.2881 Y34.7640 
G01 X1.2617 Y34.7021 
G01 X1.2628 Y34.6377 
G01 X1.2636 Y34.6349 
G01 X1.2636 Y34.5953 
G01 X1.2643 Y34.5556 
G01 X1.2636 Y34.5527 
G01 X1.2636 Y7.0437 
G01 X1.2636 Y7.0012 
G01 X1.2636 Y6.9594 
G01 X1.2631 Y6.8944 
G01 X1.2878 Y6.8349 
G01 X1.3041 Y6.7955 
G01 X1.3201 Y6.7570 
G01 X1.3444 Y6.6970 
G01 X1.3899 Y6.6515 
G01 X1.4201 Y6.6213 
G01 X1.4496 Y6.5918 
G01 X3.7058 Y4.3158 
G01 X3.7356 Y4.2859 
G01 X3.7570 Y4.2488 
G01 X3.7782 Y4.2122 
G01 X3.7893 Y4.1706 
G01 X3.8002 Y4.1300 
G01 X3.8002 Y4.0868 
G01 X3.8002 Y4.0449 
G01 X3.7890 Y4.0030 
G01 X3.7782 Y3.9627 
G01 X3.7565 Y3.9252 
G01 X3.7356 Y3.8890 
G01 X3.7153 Y3.8687 
G01 X3.5593 Y3.4920 
G01 X3.5593 Y3.0840 
G01 X3.7154 Y2.7072 
G01 X4.0038 Y2.4187 
G01 X4.3807 Y2.2626 
G01 X6.5793 Y2.2626 
G01 X6.9562 Y2.4187 
G01 X7.2446 Y2.7072 
G01 X7.4007 Y3.0840 
G01 X7.4007 Y3.4920 
G01 X7.2446 Y3.8688 
G01 X6.9562 Y4.1572 
G01 X6.5793 Y4.3133 
G01 X5.3953 Y4.3133 
G01 X5.3528 Y4.3133 
G01 X5.3109 Y4.3133 
G01 X5.2693 Y4.3245 
G01 X5.2287 Y4.3354 
G01 X5.1914 Y4.3569 
G01 X5.1551 Y4.3779 
G01 X5.1245 Y4.4085 
G01 X5.0949 Y4.4381 
G01 X2.4307 Y7.1257 
G01 X2.4010 Y7.1554 
G01 X2.3794 Y7.1928 
G01 X2.3584 Y7.2291 
G01 X2.3472 Y7.2709 
G01 X2.3364 Y7.3113 
G01 X2.3364 Y7.3546 
G01 X2.3364 Y34.0125 
G01 X2.3337 Y34.0308 
G01 X2.3364 Y34.0549 
G01 X2.3364 Y34.0792 
G01 X2.3412 Y34.0970 
G01 X2.3433 Y34.1154 
G01 X2.3521 Y34.1379 
G01 X2.3584 Y34.1614 
G01 X2.3677 Y34.1774 
G01 X2.3744 Y34.1946 
G01 X2.3888 Y34.2141 
G01 X2.4010 Y34.2351 
G01 X2.4140 Y34.2481 
G01 X2.4250 Y34.2630 
G01 X2.4440 Y34.2781 
G01 X2.4611 Y34.2952 
G01 X2.4771 Y34.3045 
G01 X2.4916 Y34.3160 
G01 X2.5139 Y34.3257 
G01 X2.5348 Y34.3378 
G01 X2.5527 Y34.3426 
G01 X5.3697 Y35.5685 
G01 X5.3907 Y35.5806 
G01 X5.4085 Y35.5854 
G01 X5.4255 Y35.5928 
G01 X5.4494 Y35.5964 
G01 X5.4729 Y35.6026 
G01 X5.4913 Y35.6026 
G01 X5.5096 Y35.6054 
G01 X5.5337 Y35.6026 
G01 X7.5593 Y35.6026 
G01 X7.9362 Y35.7587 
G01 X8.1354 Y35.9580 
G01 X8.1653 Y35.9879 
G01 X8.1950 Y36.0176 
G01 X8.2325 Y36.0393 
G01 X8.2687 Y36.0601 
G01 X8.3106 Y36.0714 
G01 X8.3509 Y36.0822 
G01 X8.3941 Y36.0822 
G01 X8.4360 Y36.0822 
G01 X11.4090 Y36.0674 
G01 X11.4510 Y36.0674 
G01 X11.4926 Y36.0563 
G01 X11.5332 Y36.0454 
G01 X11.5705 Y36.0238 
G01 X11.6069 Y36.0029 
G01 X11.6376 Y35.9721 
G01 X11.6430 Y35.9668 
G01 X12.7570 Y35.9668 
G01 X12.8332 Y36.0430 
G01 X12.8332 Y37.1570 
G01 X12.7570 Y37.2332 
G00 Z1.0000 
G00 X6.4754 Y2.2727 
G01 Z-0.2300 F254.00 
G01 X4.4846 Y2.2727 F508.00 
G01 X4.2885 Y2.3117 
G01 X4.1037 Y2.3882 
G01 X3.9374 Y2.4993 
G01 X3.7960 Y2.6408 
G01 X3.6849 Y2.8071 
G01 X3.6083 Y2.9918 
G01 X3.5693 Y3.1880 
G01 X3.5693 Y3.3880 
G01 X3.6083 Y3.5842 
G01 X3.6849 Y3.7689 
G01 X3.7960 Y3.9352 
G01 X3.9374 Y4.0767 
G01 X3.9491 Y4.0845 
G01 X1.4270 Y6.6286 
G01 X1.3788 Y6.6768 
G01 X1.3435 Y6.7379 
G01 X1.3095 Y6.7968 
G01 X1.2913 Y6.8648 
G01 X1.2736 Y6.9307 
G01 X1.2736 Y7.0008 
G01 X1.2736 Y34.5608 
G01 X1.2691 Y34.5906 
G01 X1.2736 Y34.6298 
G01 X1.2736 Y34.6693 
G01 X1.2814 Y34.6984 
G01 X1.2848 Y34.7283 
G01 X1.2993 Y34.7650 
G01 X1.3095 Y34.8032 
G01 X1.3245 Y34.8292 
G01 X1.3355 Y34.8573 
G01 X1.3590 Y34.8890 
G01 X1.3788 Y34.9232 
G01 X1.4001 Y34.9445 
G01 X1.4180 Y34.9687 
G01 X1.4489 Y34.9933 
G01 X1.4768 Y35.0212 
G01 X1.5029 Y35.0363 
G01 X1.5264 Y35.0550 
G01 X1.5626 Y35.0708 
G01 X1.5968 Y35.0905 
G01 X1.6259 Y35.0983 
G01 X4.5781 Y36.3831 
G01 X4.5493 Y36.5280 
G01 X4.5493 Y36.7280 
G01 X4.5883 Y36.9242 
G01 X4.6649 Y37.1089 
G01 X4.7760 Y37.2752 
G01 X4.9174 Y37.4167 
G01 X5.0837 Y37.5278 
G01 X5.2685 Y37.6043 
G01 X5.4646 Y37.6433 
G01 X7.4554 Y37.6433 
G01 X7.6515 Y37.6043 
G01 X7.8363 Y37.5278 
G01 X8.0026 Y37.4167 
G01 X8.1440 Y37.2752 
G01 X8.2305 Y37.1458 
G01 X11.5778 Y37.1294 
G01 X11.5951 Y37.1712 
G01 X11.6288 Y37.2049 
G01 X11.6729 Y37.2232 
G01 X12.7271 Y37.2232 
G01 X12.7712 Y37.2049 
G01 X12.8049 Y37.1712 
G01 X12.8232 Y37.1271 
G01 X12.8232 Y36.0729 
G01 X12.8049 Y36.0288 
G01 X12.7712 Y35.9951 
G01 X12.7271 Y35.9768 
G01 X11.6729 Y35.9768 
G01 X11.6288 Y35.9951 
G01 X11.5951 Y36.0288 
G01 X11.5768 Y36.0729 
G01 X11.5768 Y36.0766 
G01 X8.2190 Y36.0930 
G01 X8.1440 Y35.9808 
G01 X8.0026 Y35.8393 
G01 X7.8363 Y35.7282 
G01 X7.6515 Y35.6517 
G01 X7.4554 Y35.6127 
G01 X5.4646 Y35.6127 
G01 X5.4519 Y35.6152 
G01 X2.3264 Y34.2550 
G01 X2.3264 Y7.2167 
G01 X5.2146 Y4.3033 
G01 X6.4754 Y4.3033 
G01 X6.6715 Y4.2643 
G01 X6.8563 Y4.1878 
G01 X7.0226 Y4.0767 
G01 X7.1640 Y3.9352 
G01 X7.2751 Y3.7689 
G01 X7.3517 Y3.5842 
G01 X7.3907 Y3.3880 
G01 X7.3907 Y3.1880 
G01 X7.3517 Y2.9918 
G01 X7.2751 Y2.8071 
G01 X7.1640 Y2.6408 
G01 X7.0226 Y2.4993 
G01 X6.8563 Y2.3882 
G01 X6.6715 Y2.3117 
G01 X6.4754 Y2.2727 
G00 Z1.0000 
G00 X4.9327 Y14.6791 
G01 Z-0.2300 F254.00 
G01 X4.9327 Y14.6380 F508.00 
G01 X4.9330 Y14.5966 
G01 X4.9327 Y14.5940 
G01 X4.9220 Y14.5543 
G01 X4.9117 Y14.5142 
G01 X4.8901 Y14.4761 
G01 X4.8697 Y14.4402 
G01 X4.8390 Y14.4090 
G01 X4.8100 Y14.3795 
G01 X4.7723 Y14.3573 
G01 X4.7367 Y14.3364 
G01 X4.6945 Y14.3247 
G01 X4.6546 Y14.3137 
G01 X4.6520 Y14.3133 
G01 X4.6109 Y14.3133 
G01 X4.5695 Y14.3130 
G01 X4.3807 Y14.3133 
G01 X4.0038 Y14.1572 
G01 X3.7154 Y13.8688 
G01 X3.5593 Y13.4920 
G01 X3.5593 Y13.0840 
G01 X3.7154 Y12.7072 
G01 X4.0038 Y12.4187 
G01 X4.3807 Y12.2626 
G01 X6.5793 Y12.2626 
G01 X6.9562 Y12.4187 
G01 X7.2446 Y12.7072 
G01 X7.4007 Y13.0840 
G01 X7.4007 Y13.4920 
G01 X7.2446 Y13.8688 
G01 X6.9562 Y14.1572 
G01 X6.5793 Y14.3133 
G01 X6.3302 Y14.3133 
G01 X6.2888 Y14.3130 
G01 X6.2862 Y14.3133 
G01 X6.2464 Y14.3240 
G01 X6.2064 Y14.3344 
G01 X6.1683 Y14.3560 
G01 X6.1324 Y14.3763 
G01 X6.1012 Y14.4070 
G01 X6.0717 Y14.4360 
G01 X6.0495 Y14.4738 
G01 X6.0286 Y14.5094 
G01 X6.0169 Y14.5516 
G01 X6.0059 Y14.5914 
G01 X6.0055 Y14.5940 
G01 X6.0055 Y14.6351 
G01 X5.9431 Y22.3748 
G01 X5.9427 Y22.4171 
G01 X5.9424 Y22.4586 
G01 X5.9427 Y22.4612 
G01 X5.9534 Y22.5009 
G01 X5.9638 Y22.5409 
G01 X5.9853 Y22.5790 
G01 X6.0057 Y22.6150 
G01 X6.0332 Y22.6430 
G01 X6.0332 Y23.7570 
G01 X5.9570 Y23.8332 
G01 X4.8430 Y23.8332 
G01 X4.7668 Y23.7570 
G01 X4.7668 Y22.6430 
G01 X4.7743 Y22.6354 
G01 X4.8038 Y22.6064 
G01 X4.8259 Y22.5688 
G01 X4.8469 Y22.5331 
G01 X4.8586 Y22.4910 
G01 X4.8696 Y22.4511 
G01 X4.8700 Y22.4485 
G01 X4.8700 Y22.4073 
G01 X4.9323 Y14.6804 
G00 Z1.0000 
G00 X4.7768 Y22.6729 
G01 Z-0.2300 F254.00 
G01 X4.7768 Y23.7271 F508.00 
G01 X4.7951 Y23.7712 
G01 X4.8288 Y23.8049 
G01 X4.8729 Y23.8232 
G01 X5.9271 Y23.8232 
G01 X5.9712 Y23.8049 
G01 X6.0049 Y23.7712 
G01 X6.0232 Y23.7271 
G01 X6.0232 Y22.6729 
G01 X6.0049 Y22.6288 
G01 X5.9712 Y22.5951 
G01 X5.9314 Y22.5786 
G01 X5.9982 Y14.3033 
G01 X6.4754 Y14.3033 
G01 X6.6715 Y14.2643 
G01 X6.8563 Y14.1878 
G01 X7.0226 Y14.0767 
G01 X7.1640 Y13.9352 
G01 X7.2751 Y13.7689 
G01 X7.3517 Y13.5842 
G01 X7.3907 Y13.3880 
G01 X7.3907 Y13.1880 
G01 X7.3517 Y12.9918 
G01 X7.2751 Y12.8071 
G01 X7.1640 Y12.6408 
G01 X7.0226 Y12.4993 
G01 X6.8563 Y12.3882 
G01 X6.6715 Y12.3117 
G01 X6.4754 Y12.2727 
G01 X4.4846 Y12.2727 
G01 X4.2885 Y12.3117 
G01 X4.1037 Y12.3882 
G01 X3.9374 Y12.4993 
G01 X3.7960 Y12.6408 
G01 X3.6849 Y12.8071 
G01 X3.6083 Y12.9918 
G01 X3.5693 Y13.1880 
G01 X3.5693 Y13.3880 
G01 X3.6083 Y13.5842 
G01 X3.6849 Y13.7689 
G01 X3.7960 Y13.9352 
G01 X3.9374 Y14.0767 
G01 X4.1037 Y14.1878 
G01 X4.2885 Y14.2643 
G01 X4.4846 Y14.3033 
G01 X4.9454 Y14.3033 
G01 X4.8786 Y22.5768 
G01 X4.8729 Y22.5768 
G01 X4.8288 Y22.5951 
G01 X4.7951 Y22.6288 
G01 X4.7768 Y22.6729 
G00 Z1.0000 
G00 X46.9809 Y38.3251 
G01 Z-0.2300 F254.00 
G01 X47.0920 Y38.2509 F508.00 
G01 X47.0254 Y38.3175 
G01 X46.8919 Y38.3620 
G01 X46.9809 Y38.3251 
G00 Z1.0000 
G00 X47.3998 Y2.0937 
G01 Z-0.2300 F254.00 
G01 X47.2887 Y1.9274 F508.00 
G01 X47.1472 Y1.7860 
G01 X46.9809 Y1.6749 
G01 X46.7962 Y1.5983 
G01 X46.6000 Y1.5593 
G01 X46.4000 Y1.5593 
G01 X46.2038 Y1.5983 
G01 X46.1053 Y1.6391 
G01 X46.2180 Y1.5264 
G01 X46.7858 Y1.5264 
G01 X46.8229 Y1.5279 
G01 X46.8963 Y1.5395 
G01 X46.9670 Y1.5624 
G01 X47.0332 Y1.5962 
G01 X47.0934 Y1.6399 
G01 X47.1207 Y1.6651 
G01 X47.3016 Y1.8460 
G01 X47.3475 Y1.9874 
G01 X47.4197 Y2.1290 
G01 X47.4736 Y2.2032 
G01 X47.4736 Y2.2719 
G01 X47.3998 Y2.0937 
G00 Z1.0000 
G00 X47.3076 Y5.1601 
G01 Z-0.2300 F254.00 
G01 X47.2475 Y5.2038 F508.00 
G01 X47.1812 Y5.2376 
G01 X47.1106 Y5.2605 
G01 X47.0372 Y5.2721 
G01 X47.0000 Y5.2736 
G01 X46.9605 Y5.2736 
G01 X46.9809 Y5.2651 
G01 X47.1472 Y5.1540 
G01 X47.2887 Y5.0126 
G01 X47.3998 Y4.8463 
G01 X47.4736 Y4.6681 
G01 X47.4736 Y4.8000 
G01 X47.4721 Y4.8372 
G01 X47.4605 Y4.9106 
G01 X47.4376 Y4.9812 
G01 X47.4038 Y5.0475 
G01 X47.3601 Y5.1076 
G01 X47.3076 Y5.1601 
G00 Z1.0000 
G00 X24.8353 Y20.6160 
G01 Z-0.2300 F254.00 
G01 X24.4832 Y20.6160 F508.00 
G01 X24.4832 Y20.6020 
G01 X24.8221 Y20.6020 
G01 X24.9368 Y20.6202 
G01 X25.0473 Y20.6561 
G01 X25.1508 Y20.7088 
G01 X25.2448 Y20.7771 
G01 X25.3269 Y20.8592 
G01 X25.3952 Y20.9532 
G01 X25.4276 Y21.0168 
G01 X25.4138 Y21.0168 
G01 X25.4056 Y20.9971 
G01 X25.3264 Y20.8785 
G01 X25.2255 Y20.7776 
G01 X25.1069 Y20.6984 
G01 X24.9752 Y20.6438 
G01 X24.8353 Y20.6160 
G00 Z1.0000 
G00 X30.2008 Y33.2188 
G01 Z-0.2300 F254.00 
G01 X30.2948 Y33.2871 F508.00 
G01 X30.3769 Y33.3692 
G01 X30.4452 Y33.4632 
G01 X30.4979 Y33.5667 
G01 X30.5338 Y33.6772 
G01 X30.5520 Y33.7919 
G01 X30.5520 Y34.1308 
G01 X30.5380 Y34.1308 
G01 X30.5380 Y33.7787 
G01 X30.5102 Y33.6388 
G01 X30.4556 Y33.5071 
G01 X30.3764 Y33.3885 
G01 X30.2755 Y33.2876 
G01 X30.1569 Y33.2084 
G01 X30.1372 Y33.2002 
G01 X30.1372 Y33.1864 
G01 X30.2008 Y33.2188 
G00 Z1.0000 
G00 X15.8003 Y8.6382 
G01 Z-0.2300 F254.00 
G01 X15.9120 Y8.9080 F508.00 
G01 X15.9120 Y9.2000 
G01 X15.8003 Y9.4698 
G01 X15.5938 Y9.6763 
G01 X15.3240 Y9.7880 
G01 X13.8240 Y9.7880 
G01 X13.5542 Y9.6763 
G01 X13.3477 Y9.4698 
G01 X13.2360 Y9.2000 
G01 X13.2360 Y8.9080 
G01 X13.3477 Y8.6382 
G01 X13.5542 Y8.4317 
G01 X13.8240 Y8.3200 
G01 X15.3240 Y8.3200 
G01 X15.5938 Y8.4317 
G01 X15.8003 Y8.6382 
G00 Z1.0000 
G00 X13.8987 Y9.7780 
G01 Z-0.2300 F254.00 
G01 X15.2493 Y9.7780 F508.00 
G01 X15.3892 Y9.7502 
G01 X15.5209 Y9.6956 
G01 X15.6395 Y9.6164 
G01 X15.7404 Y9.5155 
G01 X15.8196 Y9.3969 
G01 X15.8742 Y9.2652 
G01 X15.9020 Y9.1253 
G01 X15.9020 Y8.9827 
G01 X15.8742 Y8.8428 
G01 X15.8196 Y8.7111 
G01 X15.7404 Y8.5925 
G01 X15.6395 Y8.4916 
G01 X15.5209 Y8.4124 
G01 X15.3892 Y8.3578 
G01 X15.2493 Y8.3300 
G01 X13.8987 Y8.3300 
G01 X13.7588 Y8.3578 
G01 X13.6271 Y8.4124 
G01 X13.5085 Y8.4916 
G01 X13.4076 Y8.5925 
G01 X13.3284 Y8.7111 
G01 X13.2738 Y8.8428 
G01 X13.2460 Y8.9827 
G01 X13.2460 Y9.1253 
G01 X13.2738 Y9.2652 
G01 X13.3284 Y9.3969 
G01 X13.4076 Y9.5155 
G01 X13.5085 Y9.6164 
G01 X13.6271 Y9.6956 
G01 X13.7588 Y9.7502 
G01 X13.8987 Y9.7780 
G00 Z1.0000 
G00 X29.2511 Y35.5388 
G01 Z-0.2300 F254.00 
G01 X29.1828 Y35.4448 F508.00 
G01 X29.1301 Y35.3413 
G01 X29.0942 Y35.2308 
G01 X29.0760 Y35.1161 
G01 X29.0760 Y34.7772 
G01 X29.0900 Y34.7772 
G01 X29.0900 Y35.1293 
G01 X29.1178 Y35.2692 
G01 X29.1724 Y35.4009 
G01 X29.2516 Y35.5195 
G01 X29.3525 Y35.6204 
G01 X29.4711 Y35.6996 
G01 X29.4908 Y35.7078 
G01 X29.4908 Y35.7216 
G01 X29.4272 Y35.6892 
G01 X29.3332 Y35.6209 
G01 X29.2511 Y35.5388 
G00 Z1.0000 
G00 X29.0760 Y33.7919 
G01 Z-0.2300 F254.00 
G01 X29.0942 Y33.6772 F508.00 
G01 X29.1301 Y33.5667 
G01 X29.1828 Y33.4632 
G01 X29.2511 Y33.3692 
G01 X29.3332 Y33.2871 
G01 X29.4272 Y33.2188 
G01 X29.4908 Y33.1864 
G01 X29.4908 Y33.2002 
G01 X29.4711 Y33.2084 
G01 X29.3525 Y33.2876 
G01 X29.2516 Y33.3885 
G01 X29.1724 Y33.5071 
G01 X29.1178 Y33.6388 
G01 X29.0900 Y33.7787 
G01 X29.0900 Y34.1308 
G01 X29.0760 Y34.1308 
G01 X29.0760 Y33.7919 
G00 Z1.0000 
G00 X22.9144 Y21.6829 
G01 Z-0.2300 F254.00 
G01 X22.9936 Y21.8015 F508.00 
G01 X23.0945 Y21.9024 
G01 X23.2131 Y21.9816 
G01 X23.3448 Y22.0362 
G01 X23.4847 Y22.0640 
G01 X23.8368 Y22.0640 
G01 X23.8368 Y22.0780 
G01 X23.4979 Y22.0780 
G01 X23.3832 Y22.0598 
G01 X23.2727 Y22.0239 
G01 X23.1692 Y21.9712 
G01 X23.0752 Y21.9029 
G01 X22.9931 Y21.8208 
G01 X22.9248 Y21.7268 
G01 X22.8924 Y21.6632 
G01 X22.9062 Y21.6632 
G01 X22.9144 Y21.6829 
G00 Z1.0000 
G00 X24.8353 Y22.0640 
G01 Z-0.2300 F254.00 
G01 X24.9752 Y22.0362 F508.00 
G01 X25.1069 Y21.9816 
G01 X25.2255 Y21.9024 
G01 X25.3264 Y21.8015 
G01 X25.4056 Y21.6829 
G01 X25.4138 Y21.6632 
G01 X25.4276 Y21.6632 
G01 X25.3952 Y21.7268 
G01 X25.3269 Y21.8208 
G01 X25.2448 Y21.9029 
G01 X25.1508 Y21.9712 
G01 X25.0473 Y22.0239 
G01 X24.9368 Y22.0598 
G01 X24.8221 Y22.0780 
G01 X24.4832 Y22.0780 
G01 X24.4832 Y22.0640 
G01 X24.8353 Y22.0640 
G00 Z1.0000 
G00 X23.4847 Y20.6160 
G01 Z-0.2300 F254.00 
G01 X23.3448 Y20.6438 F508.00 
G01 X23.2131 Y20.6984 
G01 X23.0945 Y20.7776 
G01 X22.9936 Y20.8785 
G01 X22.9144 Y20.9971 
G01 X22.9062 Y21.0168 
G01 X22.8924 Y21.0168 
G01 X22.9248 Y20.9532 
G01 X22.9931 Y20.8592 
G01 X23.0752 Y20.7771 
G01 X23.1692 Y20.7088 
G01 X23.2727 Y20.6561 
G01 X23.3832 Y20.6202 
G01 X23.4979 Y20.6020 
G01 X23.8368 Y20.6020 
G01 X23.8368 Y20.6160 
G01 X23.4847 Y20.6160 
G00 Z1.0000 
G00 X30.7556 Y24.7075 
G01 Z-0.2300 F254.00 
G01 X30.6429 Y24.7254 F508.00 
G01 X30.5858 Y24.7276 
G01 X28.9641 Y24.7276 
G01 X28.8949 Y24.7462 
G01 X28.8327 Y24.7820 
G01 X28.7820 Y24.8327 
G01 X27.6802 Y25.9345 
G01 X27.6383 Y25.9733 
G01 X27.5460 Y26.0404 
G01 X27.4442 Y26.0922 
G01 X27.3356 Y26.1275 
G01 X27.2229 Y26.1454 
G01 X27.1658 Y26.1476 
G01 X25.4348 Y26.1476 
G01 X25.4056 Y26.0771 
G01 X25.3264 Y25.9585 
G01 X25.2858 Y25.9179 
G01 X25.4265 Y26.0117 
G01 X25.4327 Y26.0180 
G01 X25.4562 Y26.0315 
G01 X25.4787 Y26.0465 
G01 X25.4872 Y26.0494 
G01 X25.4949 Y26.0538 
G01 X25.5210 Y26.0608 
G01 X25.5467 Y26.0695 
G01 X25.5556 Y26.0701 
G01 X25.5641 Y26.0724 
G01 X25.5912 Y26.0724 
G01 X25.6183 Y26.0741 
G01 X25.6270 Y26.0724 
G01 X27.4359 Y26.0724 
G01 X27.5051 Y26.0538 
G01 X27.5673 Y26.0180 
G01 X27.6180 Y25.9673 
G01 X28.9128 Y24.6724 
G01 X30.8359 Y24.6724 
G01 X30.8949 Y24.6566 
G01 X30.8642 Y24.6722 
G01 X30.7556 Y24.7075 
G00 Z1.0000 
G00 X61.4466 Y6.5679 
G01 Z-0.2300 F254.00 
G01 X61.4465 Y6.5678 F508.00 
G01 X61.4357 Y6.5273 
G01 X61.4245 Y6.4857 
G01 X61.4035 Y6.4493 
G01 X61.3820 Y6.4120 
G01 X61.3516 Y6.3816 
G01 X60.8520 Y5.8821 
G01 X60.8520 Y4.9459 
G01 X61.5139 Y4.2840 
G01 X62.4501 Y4.2840 
G01 X63.1120 Y4.9459 
G01 X63.1120 Y5.8821 
G01 X62.6440 Y6.3501 
G01 X62.6138 Y6.3803 
G01 X62.5839 Y6.4101 
G01 X62.5622 Y6.4478 
G01 X62.5414 Y6.4838 
G01 X62.5302 Y6.5254 
G01 X62.5193 Y6.5660 
G01 X62.5193 Y6.6094 
G01 X62.5193 Y6.6511 
G01 X62.5358 Y27.2114 
G01 X62.5358 Y27.2542 
G01 X62.5468 Y27.2952 
G01 X62.5578 Y27.3364 
G01 X62.5791 Y27.3733 
G01 X62.6003 Y27.4101 
G01 X62.6294 Y27.4391 
G01 X62.6332 Y27.4430 
G01 X62.6332 Y28.5570 
G01 X62.5570 Y28.6332 
G01 X61.4430 Y28.6332 
G01 X61.3668 Y28.5570 
G01 X61.3668 Y27.4430 
G01 X61.3984 Y27.4114 
G01 X61.4204 Y27.3733 
G01 X61.4409 Y27.3377 
G01 X61.4522 Y27.2958 
G01 X61.4630 Y27.2555 
G01 X61.4630 Y27.2121 
G01 X61.4630 Y27.1704 
G01 X61.4466 Y6.6108 
G01 X61.4466 Y6.5679 
G00 Z1.0000 
G00 X61.3768 Y27.4729 
G01 Z-0.2300 F254.00 
G01 X61.3768 Y28.5271 F508.00 
G01 X61.3951 Y28.5712 
G01 X61.4288 Y28.6049 
G01 X61.4729 Y28.6232 
G01 X62.5271 Y28.6232 
G01 X62.5712 Y28.6049 
G01 X62.6049 Y28.5712 
G01 X62.6232 Y28.5271 
G01 X62.6232 Y27.4729 
G01 X62.6049 Y27.4288 
G01 X62.5712 Y27.3951 
G01 X62.5271 Y27.3768 
G01 X62.5092 Y6.4707 
G01 X63.1020 Y5.8779 
G01 X63.1020 Y4.9501 
G01 X62.4459 Y4.2940 
G01 X61.5181 Y4.2940 
G01 X60.8620 Y4.9501 
G01 X60.8620 Y5.8779 
G01 X61.4564 Y6.4724 
G01 X61.4731 Y27.3768 
G01 X61.4288 Y27.3951 
G01 X61.3951 Y27.4288 
G01 X61.3768 Y27.4729 
G00 Z1.0000 
G00 X30.5520 Y35.1161 
G01 Z-0.2300 F254.00 
G01 X30.5338 Y35.2308 F508.00 
G01 X30.4979 Y35.3413 
G01 X30.4452 Y35.4448 
G01 X30.3769 Y35.5388 
G01 X30.2948 Y35.6209 
G01 X30.2008 Y35.6892 
G01 X30.1372 Y35.7216 
G01 X30.1372 Y35.7078 
G01 X30.1569 Y35.6996 
G01 X30.2755 Y35.6204 
G01 X30.3764 Y35.5195 
G01 X30.4556 Y35.4009 
G01 X30.5102 Y35.2692 
G01 X30.5380 Y35.1293 
G01 X30.5380 Y34.7772 
G01 X30.5520 Y34.7772 
G01 X30.5520 Y35.1161 
G00 Z1.0000 
G00 X13.3477 Y17.0898 
G01 Z-0.2300 F254.00 
G01 X13.2360 Y16.8200 F508.00 
G01 X13.2360 Y16.5280 
G01 X13.3477 Y16.2582 
G01 X13.5542 Y16.0517 
G01 X13.8240 Y15.9400 
G01 X15.3240 Y15.9400 
G01 X15.5938 Y16.0517 
G01 X15.8003 Y16.2582 
G01 X15.9120 Y16.5280 
G01 X15.9120 Y16.8200 
G01 X15.8003 Y17.0898 
G01 X15.5938 Y17.2963 
G01 X15.3240 Y17.4080 
G01 X13.8240 Y17.4080 
G01 X13.5542 Y17.2963 
G01 X13.3477 Y17.0898 
G00 Z1.0000 
G00 X13.8987 Y17.3980 
G01 Z-0.2300 F254.00 
G01 X15.2493 Y17.3980 F508.00 
G01 X15.3892 Y17.3702 
G01 X15.5209 Y17.3156 
G01 X15.6395 Y17.2364 
G01 X15.7404 Y17.1355 
G01 X15.8196 Y17.0169 
G01 X15.8742 Y16.8852 
G01 X15.9020 Y16.7453 
G01 X15.9020 Y16.6027 
G01 X15.8742 Y16.4628 
G01 X15.8196 Y16.3311 
G01 X15.7404 Y16.2125 
G01 X15.6395 Y16.1116 
G01 X15.5209 Y16.0324 
G01 X15.3892 Y15.9778 
G01 X15.2493 Y15.9500 
G01 X13.8987 Y15.9500 
G01 X13.7588 Y15.9778 
G01 X13.6271 Y16.0324 
G01 X13.5085 Y16.1116 
G01 X13.4076 Y16.2125 
G01 X13.3284 Y16.3311 
G01 X13.2738 Y16.4628 
G01 X13.2460 Y16.6027 
G01 X13.2460 Y16.7453 
G01 X13.2738 Y16.8852 
G01 X13.3284 Y17.0169 
G01 X13.4076 Y17.1355 
G01 X13.5085 Y17.2364 
G01 X13.6271 Y17.3156 
G01 X13.7588 Y17.3702 
G01 X13.8987 Y17.3980 
G00 Z1.0000 
G00 X13.3477 Y22.1698 
G01 Z-0.2300 F254.00 
G01 X13.2360 Y21.9000 F508.00 
G01 X13.2360 Y21.6080 
G01 X13.3477 Y21.3382 
G01 X13.5542 Y21.1317 
G01 X13.8240 Y21.0200 
G01 X15.3240 Y21.0200 
G01 X15.5938 Y21.1317 
G01 X15.8003 Y21.3382 
G01 X15.9120 Y21.6080 
G01 X15.9120 Y21.9000 
G01 X15.8003 Y22.1698 
G01 X15.5938 Y22.3763 
G01 X15.3240 Y22.4880 
G01 X13.8240 Y22.4880 
G01 X13.5542 Y22.3763 
G01 X13.3477 Y22.1698 
G00 Z1.0000 
G00 X13.8987 Y22.4780 
G01 Z-0.2300 F254.00 
G01 X15.2493 Y22.4780 F508.00 
G01 X15.3892 Y22.4502 
G01 X15.5209 Y22.3956 
G01 X15.6395 Y22.3164 
G01 X15.7404 Y22.2155 
G01 X15.8196 Y22.0969 
G01 X15.8742 Y21.9652 
G01 X15.9020 Y21.8253 
G01 X15.9020 Y21.6827 
G01 X15.8742 Y21.5428 
G01 X15.8196 Y21.4111 
G01 X15.7404 Y21.2925 
G01 X15.6395 Y21.1916 
G01 X15.5209 Y21.1124 
G01 X15.3892 Y21.0578 
G01 X15.2493 Y21.0300 
G01 X13.8987 Y21.0300 
G01 X13.7588 Y21.0578 
G01 X13.6271 Y21.1124 
G01 X13.5085 Y21.1916 
G01 X13.4076 Y21.2925 
G01 X13.3284 Y21.4111 
G01 X13.2738 Y21.5428 
G01 X13.2460 Y21.6827 
G01 X13.2460 Y21.8253 
G01 X13.2738 Y21.9652 
G01 X13.3284 Y22.0969 
G01 X13.4076 Y22.2155 
G01 X13.5085 Y22.3164 
G01 X13.6271 Y22.3956 
G01 X13.7588 Y22.4502 
G01 X13.8987 Y22.4780 
G00 Z1.0000 
G00 X13.3477 Y27.2498 
G01 Z-0.2300 F254.00 
G01 X13.2360 Y26.9800 F508.00 
G01 X13.2360 Y26.6880 
G01 X13.3477 Y26.4182 
G01 X13.5542 Y26.2117 
G01 X13.8240 Y26.1000 
G01 X15.3240 Y26.1000 
G01 X15.5938 Y26.2117 
G01 X15.8003 Y26.4182 
G01 X15.9120 Y26.6880 
G01 X15.9120 Y26.9800 
G01 X15.8003 Y27.2498 
G01 X15.5938 Y27.4563 
G01 X15.3240 Y27.5680 
G01 X13.8240 Y27.5680 
G01 X13.5542 Y27.4563 
G01 X13.3477 Y27.2498 
G00 Z1.0000 
G00 X13.8987 Y27.5580 
G01 Z-0.2300 F254.00 
G01 X15.2493 Y27.5580 F508.00 
G01 X15.3892 Y27.5302 
G01 X15.5209 Y27.4756 
G01 X15.6395 Y27.3964 
G01 X15.7404 Y27.2955 
G01 X15.8196 Y27.1769 
G01 X15.8742 Y27.0452 
G01 X15.9020 Y26.9053 
G01 X15.9020 Y26.7627 
G01 X15.8742 Y26.6228 
G01 X15.8196 Y26.4911 
G01 X15.7404 Y26.3725 
G01 X15.6395 Y26.2716 
G01 X15.5209 Y26.1924 
G01 X15.3892 Y26.1378 
G01 X15.2493 Y26.1100 
G01 X13.8987 Y26.1100 
G01 X13.7588 Y26.1378 
G01 X13.6271 Y26.1924 
G01 X13.5085 Y26.2716 
G01 X13.4076 Y26.3725 
G01 X13.3284 Y26.4911 
G01 X13.2738 Y26.6228 
G01 X13.2460 Y26.7627 
G01 X13.2460 Y26.9053 
G01 X13.2738 Y27.0452 
G01 X13.3284 Y27.1769 
G01 X13.4076 Y27.2955 
G01 X13.5085 Y27.3964 
G01 X13.6271 Y27.4756 
G01 X13.7588 Y27.5302 
G01 X13.8987 Y27.5580 
G00 Z1.0000 
G00 X66.7123 Y35.9480 
G01 Z-0.2300 F254.00 
G01 X66.0480 Y35.2837 F508.00 
G01 X66.0480 Y35.1840 
G01 X66.0620 Y35.1840 
G01 X66.0620 Y35.2779 
G01 X66.7181 Y35.9340 
G01 X66.8120 Y35.9340 
G01 X66.8120 Y35.9480 
G01 X66.7123 Y35.9480 
G00 Z1.0000 
G00 X68.3160 Y34.4440 
G01 Z-0.2300 F254.00 
G01 X68.3020 Y34.4440 F508.00 
G01 X68.3020 Y34.3501 
G01 X67.6459 Y33.6940 
G01 X67.5520 Y33.6940 
G01 X67.5520 Y33.6800 
G01 X67.6517 Y33.6800 
G01 X68.3160 Y34.3443 
G01 X68.3160 Y34.4440 
G00 Z1.0000 
G00 X68.3160 Y35.2837 
G01 Z-0.2300 F254.00 
G01 X67.6517 Y35.9480 F508.00 
G01 X67.5520 Y35.9480 
G01 X67.5520 Y35.9340 
G01 X67.6459 Y35.9340 
G01 X68.3020 Y35.2779 
G01 X68.3020 Y35.1840 
G01 X68.3160 Y35.1840 
G01 X68.3160 Y35.2837 
G00 Z1.0000 
G00 X66.0480 Y34.3443 
G01 Z-0.2300 F254.00 
G01 X66.7123 Y33.6800 F508.00 
G01 X66.8120 Y33.6800 
G01 X66.8120 Y33.6940 
G01 X66.7181 Y33.6940 
G01 X66.0620 Y34.3501 
G01 X66.0620 Y34.4440 
G01 X66.0480 Y34.4440 
G01 X66.0480 Y34.3443 
G00 Z1.0000 
G00 X39.8760 Y10.2415 
G01 Z-0.2300 F254.00 
G01 X39.8760 Y10.7585 F508.00 
G01 X40.2415 Y11.1240 
G01 X40.7585 Y11.1240 
G01 X41.1240 Y10.7585 
G01 X41.1240 Y10.2415 
G01 X41.0509 Y10.1685 
G01 X41.0624 Y10.1330 
G01 X41.0962 Y10.0668 
G01 X41.1399 Y10.0066 
G01 X41.1651 Y9.9793 
G01 X45.9353 Y5.2092 
G01 X46.0191 Y5.2651 
G01 X46.0753 Y5.2884 
G01 X45.9968 Y5.3095 
G01 X45.8768 Y5.3788 
G01 X45.7788 Y5.4768 
G01 X44.4309 Y6.8247 
G01 X44.3843 Y6.8697 
G01 X44.3820 Y6.8736 
G01 X44.3788 Y6.8768 
G01 X44.3463 Y6.9330 
G01 X44.3130 Y6.9886 
G01 X44.3117 Y6.9929 
G01 X44.3095 Y6.9968 
G01 X44.2927 Y7.0595 
G01 X44.2748 Y7.1219 
G01 X44.2748 Y7.1264 
G01 X44.2736 Y7.1307 
G01 X44.2736 Y7.1956 
G01 X44.2725 Y7.2604 
G01 X44.2736 Y7.2648 
G01 X44.2736 Y7.2693 
G01 X44.2904 Y7.3320 
G01 X44.4736 Y8.0648 
G01 X44.4736 Y8.0693 
G01 X44.4904 Y8.1320 
G01 X44.5061 Y8.1949 
G01 X44.5083 Y8.1988 
G01 X44.5095 Y8.2032 
G01 X44.5419 Y8.2594 
G01 X44.5734 Y8.3161 
G01 X44.5765 Y8.3193 
G01 X44.5788 Y8.3232 
G01 X44.6247 Y8.3692 
G01 X44.6697 Y8.4157 
G01 X44.6736 Y8.4180 
G01 X45.2420 Y8.9865 
G01 X45.2988 Y9.0465 
G01 X45.4018 Y9.1757 
G01 X45.4897 Y9.3156 
G01 X45.5614 Y9.4645 
G01 X45.6160 Y9.6205 
G01 X45.6528 Y9.7816 
G01 X45.6713 Y9.9458 
G01 X45.6736 Y10.0284 
G01 X45.6736 Y11.2000 
G01 X45.6711 Y11.2889 
G01 X45.6514 Y11.4656 
G01 X45.6123 Y11.6391 
G01 X45.5541 Y11.8071 
G01 X45.4777 Y11.9677 
G01 X45.3840 Y12.1188 
G01 X45.2741 Y12.2586 
G01 X45.1494 Y12.3853 
G01 X45.0114 Y12.4975 
G01 X44.8618 Y12.5936 
G01 X44.7025 Y12.6726 
G01 X44.6198 Y12.7054 
G01 X43.5202 Y13.1056 
G01 X42.5073 Y13.4736 
G01 X42.3472 Y13.4736 
G01 X42.0438 Y13.5104 
G01 X41.7470 Y13.5836 
G01 X41.4612 Y13.6920 
G01 X41.1906 Y13.8340 
G01 X40.9391 Y14.0076 
G01 X40.7103 Y14.2103 
G01 X40.5076 Y14.4391 
G01 X40.3340 Y14.6906 
G01 X40.1920 Y14.9612 
G01 X40.0836 Y15.2470 
G01 X40.0104 Y15.5438 
G01 X39.9736 Y15.8472 
G01 X39.9736 Y16.1439 
G01 X39.8760 Y16.2415 
G01 X39.8760 Y16.7585 
G01 X40.2415 Y17.1240 
G01 X40.7585 Y17.1240 
G01 X41.1240 Y16.7585 
G01 X41.1240 Y16.2415 
G01 X41.0264 Y16.1439 
G01 X41.0264 Y16.0000 
G01 X41.0291 Y15.9110 
G01 X41.0505 Y15.7344 
G01 X41.0931 Y15.5616 
G01 X41.1562 Y15.3952 
G01 X41.2389 Y15.2376 
G01 X41.3400 Y15.0912 
G01 X41.4580 Y14.9580 
G01 X41.5912 Y14.8400 
G01 X41.7376 Y14.7389 
G01 X41.8952 Y14.6562 
G01 X42.0616 Y14.5931 
G01 X42.2344 Y14.5505 
G01 X42.4110 Y14.5291 
G01 X42.5000 Y14.5264 
G01 X42.5537 Y14.5264 
G01 X42.5764 Y14.5304 
G01 X42.6227 Y14.5264 
G01 X42.6693 Y14.5264 
G01 X42.6915 Y14.5204 
G01 X42.7145 Y14.5185 
G01 X42.7582 Y14.5026 
G01 X42.8032 Y14.4905 
G01 X42.8231 Y14.4790 
G01 X43.8801 Y14.0953 
G01 X44.9151 Y13.7183 
G01 X44.9593 Y13.7022 
G01 X44.9802 Y13.6946 
G01 X45.0453 Y13.6709 
G01 X45.1188 Y13.6441 
G01 X45.3832 Y13.5130 
G01 X45.6314 Y13.3534 
G01 X45.8604 Y13.1672 
G01 X46.0674 Y12.9569 
G01 X46.2498 Y12.7249 
G01 X46.4054 Y12.4741 
G01 X46.5322 Y12.2076 
G01 X46.6287 Y11.9287 
G01 X46.6937 Y11.6409 
G01 X46.7264 Y11.3476 
G01 X46.7264 Y9.8865 
G01 X46.6946 Y9.6046 
G01 X46.6315 Y9.3279 
G01 X46.5378 Y9.0601 
G01 X46.4146 Y8.8044 
G01 X46.2637 Y8.5642 
G01 X46.0868 Y8.3423 
G01 X46.0354 Y8.2910 
G01 X45.4753 Y7.7309 
G01 X45.3830 Y7.3615 
G01 X46.4180 Y6.3264 
G01 X47.1201 Y6.3264 
G01 X47.3574 Y6.2888 
G01 X47.5859 Y6.2146 
G01 X47.8000 Y6.1055 
G01 X47.9944 Y5.9643 
G01 X48.1643 Y5.7944 
G01 X48.3055 Y5.6000 
G01 X48.4146 Y5.3859 
G01 X48.4888 Y5.1574 
G01 X48.5264 Y4.9201 
G01 X48.5264 Y1.9307 
G01 X48.4905 Y1.7968 
G01 X48.4212 Y1.6768 
G01 X48.3264 Y1.5820 
G01 X48.3264 Y1.5307 
G01 X48.2905 Y1.3968 
G01 X48.2212 Y1.2768 
G01 X48.1232 Y1.1788 
G01 X47.8161 Y0.8717 
G01 X47.7802 Y0.8357 
G01 X47.5858 Y0.6945 
G01 X47.3717 Y0.5854 
G01 X47.1432 Y0.5112 
G01 X46.9059 Y0.4736 
G01 X45.9307 Y0.4736 
G01 X45.7968 Y0.5095 
G01 X45.6768 Y0.5788 
G01 X45.5788 Y0.6768 
G01 X43.4997 Y2.7559 
G01 X43.4507 Y2.8049 
G01 X43.4234 Y2.8301 
G01 X43.3632 Y2.8738 
G01 X43.2970 Y2.9076 
G01 X43.2263 Y2.9305 
G01 X43.1529 Y2.9421 
G01 X43.1158 Y2.9436 
G01 X42.5153 Y2.9436 
G01 X42.5153 Y2.4746 
G01 X42.4763 Y2.2785 
G01 X42.3998 Y2.0937 
G01 X42.2887 Y1.9274 
G01 X42.1472 Y1.7860 
G01 X41.9809 Y1.6749 
G01 X41.7962 Y1.5983 
G01 X41.6000 Y1.5593 
G01 X41.4000 Y1.5593 
G01 X41.2038 Y1.5983 
G01 X41.0191 Y1.6749 
G01 X40.8528 Y1.7860 
G01 X40.7113 Y1.9274 
G01 X40.6002 Y2.0937 
G01 X40.5237 Y2.2785 
G01 X40.4847 Y2.4746 
G01 X40.4847 Y4.4654 
G01 X40.5237 Y4.6615 
G01 X40.6002 Y4.8463 
G01 X40.7113 Y5.0126 
G01 X40.8528 Y5.1540 
G01 X41.0191 Y5.2651 
G01 X41.2038 Y5.3417 
G01 X41.4000 Y5.3807 
G01 X41.6000 Y5.3807 
G01 X41.7962 Y5.3417 
G01 X41.9809 Y5.2651 
G01 X42.1472 Y5.1540 
G01 X42.2887 Y5.0126 
G01 X42.3998 Y4.8463 
G01 X42.4763 Y4.6615 
G01 X42.5153 Y4.4654 
G01 X42.5153 Y3.9964 
G01 X43.2359 Y3.9964 
G01 X43.4732 Y3.9588 
G01 X43.7017 Y3.8846 
G01 X43.9158 Y3.7755 
G01 X44.1102 Y3.6343 
G01 X44.1951 Y3.5493 
G01 X44.2441 Y3.5003 
G01 X45.5645 Y2.1800 
G01 X45.5237 Y2.2785 
G01 X45.4847 Y2.4746 
G01 X45.4847 Y4.1709 
G01 X40.3717 Y9.2839 
G01 X40.3357 Y9.3198 
G01 X40.1945 Y9.5142 
G01 X40.0854 Y9.7283 
G01 X40.0112 Y9.9568 
G01 X39.9830 Y10.1345 
G01 X39.8760 Y10.2415 
G00 Z1.0000 
G00 X24.8353 Y23.1560 
G01 Z-0.2300 F254.00 
G01 X23.4847 Y23.1560 F508.00 
G01 X23.3448 Y23.1838 
G01 X23.2382 Y23.2280 
G01 X17.1474 Y17.1372 
G01 X17.1474 Y13.2141 
G01 X17.1288 Y13.1449 
G01 X17.0930 Y13.0827 
G01 X15.8570 Y11.8467 
G01 X15.8742 Y11.8052 
G01 X15.9020 Y11.6653 
G01 X15.9020 Y11.5227 
G01 X15.8742 Y11.3828 
G01 X15.8196 Y11.2511 
G01 X15.7404 Y11.1325 
G01 X15.6395 Y11.0316 
G01 X15.5209 Y10.9524 
G01 X15.3892 Y10.8978 
G01 X15.2493 Y10.8700 
G01 X13.8987 Y10.8700 
G01 X13.7588 Y10.8978 
G01 X13.6271 Y10.9524 
G01 X13.5085 Y11.0316 
G01 X13.4076 Y11.1325 
G01 X13.3284 Y11.2511 
G01 X13.2738 Y11.3828 
G01 X13.2460 Y11.5227 
G01 X13.2460 Y11.6653 
G01 X13.2738 Y11.8052 
G01 X13.3284 Y11.9369 
G01 X13.4076 Y12.0555 
G01 X13.5085 Y12.1564 
G01 X13.6271 Y12.2356 
G01 X13.7588 Y12.2902 
G01 X13.8987 Y12.3180 
G01 X15.2493 Y12.3180 
G01 X15.3892 Y12.2902 
G01 X15.4887 Y12.2489 
G01 X16.6026 Y13.3628 
G01 X16.6026 Y17.2859 
G01 X16.6212 Y17.3551 
G01 X16.6570 Y17.4173 
G01 X16.7077 Y17.4680 
G01 X22.8741 Y23.6343 
G01 X22.8598 Y23.6688 
G01 X22.8320 Y23.8087 
G01 X22.8320 Y23.9513 
G01 X22.8598 Y24.0912 
G01 X22.9144 Y24.2229 
G01 X22.9936 Y24.3415 
G01 X23.0945 Y24.4424 
G01 X23.2131 Y24.5216 
G01 X23.3448 Y24.5762 
G01 X23.4847 Y24.6040 
G01 X24.8353 Y24.6040 
G01 X24.9752 Y24.5762 
G01 X25.1069 Y24.5216 
G01 X25.2255 Y24.4424 
G01 X25.3264 Y24.3415 
G01 X25.4056 Y24.2229 
G01 X25.4602 Y24.0912 
G01 X25.4880 Y23.9513 
G01 X25.4880 Y23.8087 
G01 X25.4602 Y23.6688 
G01 X25.4056 Y23.5371 
G01 X25.3264 Y23.4185 
G01 X25.2255 Y23.3176 
G01 X25.1069 Y23.2384 
G01 X24.9752 Y23.1838 
G01 X24.8353 Y23.1560 
G00 Z1.0000 
G00 X24.8353 Y15.5360 
G01 Z-0.2300 F254.00 
G01 X23.7966 Y15.5360 F508.00 
G01 X23.7133 Y15.3723 
G01 X23.5955 Y15.2103 
G01 X23.5501 Y15.1649 
G01 X22.2724 Y13.8872 
G01 X22.2724 Y11.7661 
G01 X22.2411 Y11.5683 
G01 X22.1792 Y11.3778 
G01 X22.0883 Y11.1993 
G01 X21.9705 Y11.0373 
G01 X21.9251 Y10.9919 
G01 X21.8024 Y10.8692 
G01 X21.8384 Y10.8333 
G01 X21.8384 Y10.1867 
G01 X21.3813 Y9.7296 
G01 X20.7347 Y9.7296 
G01 X20.2776 Y10.1867 
G01 X20.2776 Y10.8333 
G01 X20.7347 Y11.2904 
G01 X21.3813 Y11.2904 
G01 X21.4172 Y11.2544 
G01 X21.5145 Y11.3518 
G01 X21.5533 Y11.3937 
G01 X21.6204 Y11.4860 
G01 X21.6722 Y11.5878 
G01 X21.7075 Y11.6964 
G01 X21.7254 Y11.8091 
G01 X21.7276 Y11.8662 
G01 X21.7276 Y14.0359 
G01 X21.7462 Y14.1051 
G01 X21.7820 Y14.1673 
G01 X21.8327 Y14.2180 
G01 X23.1395 Y15.5248 
G01 X23.1783 Y15.5667 
G01 X23.2152 Y15.6175 
G01 X23.0945 Y15.6976 
G01 X22.9936 Y15.7985 
G01 X22.9144 Y15.9171 
G01 X22.8598 Y16.0488 
G01 X22.8320 Y16.1887 
G01 X22.8320 Y16.3313 
G01 X22.8598 Y16.4712 
G01 X22.9144 Y16.6029 
G01 X22.9936 Y16.7215 
G01 X23.0945 Y16.8224 
G01 X23.2131 Y16.9016 
G01 X23.3448 Y16.9562 
G01 X23.4847 Y16.9840 
G01 X24.8353 Y16.9840 
G01 X24.9752 Y16.9562 
G01 X25.1069 Y16.9016 
G01 X25.2255 Y16.8224 
G01 X25.3264 Y16.7215 
G01 X25.4056 Y16.6029 
G01 X25.4602 Y16.4712 
G01 X25.4880 Y16.3313 
G01 X25.4880 Y16.1887 
G01 X25.4602 Y16.0488 
G01 X25.4056 Y15.9171 
G01 X25.3264 Y15.7985 
G01 X25.2255 Y15.6976 
G01 X25.1069 Y15.6184 
G01 X24.9752 Y15.5638 
G01 X24.8353 Y15.5360 
G00 Z1.0000 
G00 X26.8760 Y19.7415 
G01 Z-0.2300 F254.00 
G01 X26.8760 Y20.2585 F508.00 
G01 X26.8995 Y20.2819 
G01 X26.3975 Y22.5768 
G01 X26.2729 Y22.5768 
G01 X26.2288 Y22.5951 
G01 X26.1951 Y22.6288 
G01 X26.1768 Y22.6729 
G01 X26.1768 Y23.7271 
G01 X26.1951 Y23.7712 
G01 X26.2288 Y23.8049 
G01 X26.2729 Y23.8232 
G01 X27.3271 Y23.8232 
G01 X27.3712 Y23.8049 
G01 X27.4049 Y23.7712 
G01 X27.4232 Y23.7271 
G01 X27.4232 Y22.8144 
G01 X27.9426 Y20.4398 
G01 X28.1240 Y20.2585 
G01 X28.1240 Y19.7415 
G01 X27.7585 Y19.3760 
G01 X27.2415 Y19.3760 
G01 X26.8760 Y19.7415 
G00 Z1.0000 
G00 X18.3726 Y8.9167 
G01 Z-0.2300 F254.00 
G01 X18.3726 Y9.5633 F508.00 
G01 X18.8297 Y10.0204 
G01 X19.4763 Y10.0204 
G01 X19.9334 Y9.5633 
G01 X19.9474 Y9.5632 
G01 X19.9474 Y9.5690 
G01 X19.4820 Y10.0344 
G01 X19.1715 Y10.0344 
G01 X19.0893 Y10.0564 
G01 X19.0156 Y10.0990 
G01 X18.9554 Y10.1591 
G01 X18.9129 Y10.2328 
G01 X18.8908 Y10.3150 
G01 X18.8908 Y10.4001 
G01 X18.9129 Y10.4823 
G01 X18.9554 Y10.5560 
G01 X19.0156 Y10.6162 
G01 X20.2824 Y11.8830 
G01 X20.2824 Y16.7917 
G01 X20.3044 Y16.8739 
G01 X20.3470 Y16.9476 
G01 X20.3686 Y16.9692 
G01 X21.6881 Y18.2887 
G01 X21.6974 Y18.3017 
G01 X21.7180 Y18.3186 
G01 X21.7369 Y18.3375 
G01 X21.7508 Y18.3455 
G01 X21.7613 Y18.3542 
G01 X21.7646 Y18.3584 
G01 X21.7941 Y18.3811 
G01 X21.8229 Y18.4048 
G01 X21.8278 Y18.4070 
G01 X21.8321 Y18.4102 
G01 X21.8666 Y18.4245 
G01 X21.9005 Y18.4399 
G01 X21.9058 Y18.4408 
G01 X21.9792 Y18.4712 
G01 X21.9836 Y18.4743 
G01 X22.0184 Y18.4874 
G01 X22.0529 Y18.5017 
G01 X22.0582 Y18.5024 
G01 X22.0632 Y18.5043 
G01 X22.1003 Y18.5079 
G01 X22.1373 Y18.5128 
G01 X22.1426 Y18.5121 
G01 X22.1562 Y18.5134 
G01 X22.1717 Y18.5176 
G01 X22.1983 Y18.5176 
G01 X22.2249 Y18.5202 
G01 X22.2407 Y18.5176 
G01 X22.7090 Y18.5176 
G01 X22.7912 Y18.4956 
G01 X22.8649 Y18.4530 
G01 X22.9251 Y18.3928 
G01 X23.1402 Y18.1777 
G01 X23.4100 Y18.0660 
G01 X24.9100 Y18.0660 
G01 X25.1798 Y18.1777 
G01 X25.2426 Y18.2405 
G01 X25.2545 Y18.2564 
G01 X25.2725 Y18.2705 
G01 X25.2887 Y18.2867 
G01 X25.3059 Y18.2966 
G01 X25.3215 Y18.3088 
G01 X25.3426 Y18.3178 
G01 X25.3624 Y18.3292 
G01 X25.3816 Y18.3344 
G01 X25.3998 Y18.3421 
G01 X25.4225 Y18.3453 
G01 X25.4446 Y18.3513 
G01 X25.4644 Y18.3513 
G01 X25.4841 Y18.3540 
G01 X25.5068 Y18.3513 
G01 X25.5297 Y18.3513 
G01 X25.5489 Y18.3461 
G01 X25.5625 Y18.3469 
G01 X25.5912 Y18.3410 
G01 X25.6204 Y18.3374 
G01 X25.6327 Y18.3324 
G01 X25.6458 Y18.3297 
G01 X25.6721 Y18.3166 
G01 X25.6993 Y18.3056 
G01 X25.7100 Y18.2976 
G01 X25.7219 Y18.2916 
G01 X25.7438 Y18.2721 
G01 X25.7673 Y18.2544 
G01 X25.7755 Y18.2439 
G01 X27.3745 Y16.8226 
G01 X27.3828 Y16.8178 
G01 X27.4062 Y16.7944 
G01 X27.4309 Y16.7725 
G01 X27.4362 Y16.7645 
G01 X27.4900 Y16.7106 
G01 X27.5659 Y16.7151 
G01 X27.5752 Y16.7176 
G01 X27.6083 Y16.7176 
G01 X27.6413 Y16.7195 
G01 X27.6507 Y16.7176 
G01 X30.6690 Y16.7176 
G01 X30.6786 Y16.7196 
G01 X30.7114 Y16.7176 
G01 X30.7443 Y16.7176 
G01 X30.7538 Y16.7151 
G01 X30.7636 Y16.7145 
G01 X30.7947 Y16.7041 
G01 X30.8223 Y16.6967 
G01 X30.8277 Y16.6981 
G01 X30.8365 Y16.7025 
G01 X30.8687 Y16.7091 
G01 X30.9004 Y16.7176 
G01 X30.9102 Y16.7176 
G01 X30.9157 Y16.7187 
G01 X30.9371 Y16.7377 
G01 X30.9603 Y16.7609 
G01 X30.9688 Y16.7658 
G01 X30.9761 Y16.7723 
G01 X31.0055 Y16.7870 
G01 X31.0340 Y16.8035 
G01 X31.0435 Y16.8060 
G01 X31.1368 Y16.8527 
G01 X31.1423 Y16.8571 
G01 X31.1748 Y16.8717 
G01 X31.2066 Y16.8876 
G01 X31.2135 Y16.8890 
G01 X31.2200 Y16.8919 
G01 X31.2551 Y16.8975 
G01 X31.2824 Y16.9031 
G01 X31.3211 Y16.9345 
G01 X31.3477 Y16.9581 
G01 X31.3540 Y16.9613 
G01 X31.3595 Y16.9657 
G01 X31.3920 Y16.9803 
G01 X31.4366 Y17.0025 
G01 X31.4529 Y17.0251 
G01 X31.4725 Y17.0548 
G01 X31.4778 Y17.0595 
G01 X31.4819 Y17.0652 
G01 X31.5095 Y17.0876 
G01 X31.5361 Y17.1112 
G01 X31.5425 Y17.1144 
G01 X34.1776 Y19.2555 
G01 X34.1960 Y19.2738 
G01 X34.2105 Y19.2822 
G01 X34.2236 Y19.2928 
G01 X34.2472 Y19.3034 
G01 X34.2696 Y19.3163 
G01 X34.2859 Y19.3207 
G01 X34.3013 Y19.3276 
G01 X34.3269 Y19.3316 
G01 X34.3518 Y19.3384 
G01 X34.3687 Y19.3384 
G01 X34.3853 Y19.3410 
G01 X34.4111 Y19.3384 
G01 X34.4370 Y19.3384 
G01 X34.4532 Y19.3340 
G01 X34.4700 Y19.3323 
G01 X34.4942 Y19.3230 
G01 X34.5192 Y19.3163 
G01 X34.5337 Y19.3079 
G01 X34.5495 Y19.3019 
G01 X34.5704 Y19.2867 
G01 X34.5928 Y19.2738 
G01 X34.6048 Y19.2619 
G01 X34.6184 Y19.2520 
G01 X34.6347 Y19.2319 
G01 X34.6530 Y19.2136 
G01 X34.6614 Y19.1990 
G01 X34.6721 Y19.1859 
G01 X34.6826 Y19.1623 
G01 X34.6956 Y19.1399 
G01 X34.6999 Y19.1236 
G01 X34.7068 Y19.1083 
G01 X34.7109 Y19.0827 
G01 X34.7176 Y19.0577 
G01 X34.7176 Y19.0409 
G01 X34.7203 Y19.0242 
G01 X34.7176 Y18.9985 
G01 X34.7176 Y13.8830 
G01 X36.1407 Y12.4599 
G01 X36.1706 Y12.4300 
G01 X36.2008 Y12.3998 
G01 X36.2219 Y12.3633 
G01 X36.2434 Y12.3261 
G01 X36.2546 Y12.2843 
G01 X36.2654 Y12.2439 
G01 X36.2654 Y12.2014 
G01 X36.2654 Y12.1588 
G01 X36.2547 Y12.1187 
G01 X36.2434 Y12.0766 
G01 X36.2220 Y12.0395 
G01 X36.2151 Y12.0276 
G01 X36.0960 Y11.7400 
G01 X36.0970 Y11.7000 
G01 X36.0960 Y11.6958 
G01 X36.0960 Y11.6915 
G01 X36.0861 Y11.6545 
G01 X36.0771 Y11.6172 
G01 X36.0751 Y11.6134 
G01 X36.0740 Y11.6093 
G01 X36.0548 Y11.5761 
G01 X36.0365 Y11.5424 
G01 X36.0336 Y11.5393 
G01 X36.0314 Y11.5356 
G01 X36.0043 Y11.5085 
G01 X35.9779 Y11.4807 
G01 X35.9743 Y11.4785 
G01 X35.9712 Y11.4754 
G01 X35.9381 Y11.4563 
G01 X35.9054 Y11.4362 
G01 X35.9013 Y11.4350 
G01 X35.8976 Y11.4329 
G01 X35.8605 Y11.4229 
G01 X35.8238 Y11.4121 
G01 X35.8195 Y11.4120 
G01 X35.8154 Y11.4108 
G01 X35.7770 Y11.4108 
G01 X35.7387 Y11.4098 
G01 X35.7345 Y11.4108 
G01 X35.7302 Y11.4108 
G01 X35.6932 Y11.4208 
G01 X35.6560 Y11.4297 
G01 X35.6522 Y11.4318 
G01 X35.6480 Y11.4329 
G01 X35.6149 Y11.4520 
G01 X35.5812 Y11.4703 
G01 X35.5781 Y11.4733 
G01 X35.5744 Y11.4754 
G01 X35.5473 Y11.5025 
G01 X35.5195 Y11.5289 
G01 X35.5172 Y11.5326 
G01 X35.5142 Y11.5356 
G01 X35.4950 Y11.5688 
G01 X35.4226 Y11.6870 
G01 X35.4070 Y11.7073 
G01 X35.4004 Y11.7231 
G01 X35.3915 Y11.7377 
G01 X35.3842 Y11.7622 
G01 X35.3667 Y11.8047 
G01 X35.3499 Y11.8176 
G01 X35.3394 Y11.8312 
G01 X35.3270 Y11.8429 
G01 X35.3136 Y11.8648 
G01 X35.2980 Y11.8851 
G01 X35.2915 Y11.9009 
G01 X35.2885 Y11.9057 
G01 X35.2774 Y11.9188 
G01 X35.2664 Y11.9418 
G01 X35.2530 Y11.9637 
G01 X35.2481 Y11.9801 
G01 X35.2408 Y11.9956 
G01 X35.2369 Y12.0164 
G01 X35.2071 Y12.0513 
G01 X35.1885 Y12.0690 
G01 X35.1796 Y12.0836 
G01 X35.1685 Y12.0966 
G01 X35.1574 Y12.1197 
G01 X35.1334 Y12.1588 
G01 X35.1148 Y12.1690 
G01 X35.1024 Y12.1807 
G01 X35.0883 Y12.1904 
G01 X35.0717 Y12.2099 
G01 X35.0531 Y12.2275 
G01 X35.0441 Y12.2421 
G01 X35.0405 Y12.2464 
G01 X35.0274 Y12.2575 
G01 X35.0129 Y12.2786 
G01 X34.9963 Y12.2981 
G01 X34.9889 Y12.3136 
G01 X34.9792 Y12.3277 
G01 X34.9722 Y12.3477 
G01 X34.9372 Y12.3775 
G01 X34.9161 Y12.3920 
G01 X34.9050 Y12.4050 
G01 X34.8920 Y12.4161 
G01 X34.8775 Y12.4372 
G01 X34.8477 Y12.4722 
G01 X34.8277 Y12.4792 
G01 X34.8136 Y12.4889 
G01 X34.7981 Y12.4963 
G01 X34.7786 Y12.5129 
G01 X34.7575 Y12.5274 
G01 X34.7464 Y12.5405 
G01 X34.7421 Y12.5441 
G01 X34.7275 Y12.5531 
G01 X34.7099 Y12.5717 
G01 X34.6904 Y12.5883 
G01 X34.6807 Y12.6024 
G01 X34.6690 Y12.6148 
G01 X34.6589 Y12.6334 
G01 X34.6197 Y12.6574 
G01 X34.5966 Y12.6685 
G01 X34.5835 Y12.6796 
G01 X34.5690 Y12.6885 
G01 X34.5513 Y12.7071 
G01 X34.5164 Y12.7369 
G01 X34.4956 Y12.7408 
G01 X34.4801 Y12.7481 
G01 X34.4637 Y12.7530 
G01 X34.4418 Y12.7664 
G01 X34.4188 Y12.7774 
G01 X34.4057 Y12.7885 
G01 X34.4009 Y12.7915 
G01 X34.3851 Y12.7980 
G01 X34.3648 Y12.8136 
G01 X34.3429 Y12.8270 
G01 X34.3312 Y12.8394 
G01 X34.3176 Y12.8499 
G01 X34.3047 Y12.8667 
G01 X34.2622 Y12.8842 
G01 X34.2377 Y12.8915 
G01 X34.2231 Y12.9004 
G01 X34.2073 Y12.9070 
G01 X34.1870 Y12.9226 
G01 X34.1478 Y12.9466 
G01 X34.1266 Y12.9472 
G01 X34.1102 Y12.9520 
G01 X34.0932 Y12.9542 
G01 X34.0696 Y12.9641 
G01 X34.0450 Y12.9713 
G01 X34.0304 Y12.9803 
G01 X34.0252 Y12.9824 
G01 X34.0085 Y12.9864 
G01 X33.9860 Y12.9986 
G01 X33.9624 Y13.0084 
G01 X33.9488 Y13.0189 
G01 X33.9338 Y13.0270 
G01 X33.9184 Y13.0416 
G01 X33.8737 Y13.0523 
G01 X33.8483 Y13.0557 
G01 X33.8325 Y13.0622 
G01 X33.8159 Y13.0662 
G01 X33.7934 Y13.0785 
G01 X33.7509 Y13.0960 
G01 X33.7299 Y13.0933 
G01 X33.7130 Y13.0955 
G01 X33.6958 Y13.0951 
G01 X33.6709 Y13.1010 
G01 X33.6455 Y13.1044 
G01 X33.6297 Y13.1109 
G01 X33.6242 Y13.1122 
G01 X33.6072 Y13.1136 
G01 X33.5830 Y13.1221 
G01 X33.5581 Y13.1281 
G01 X33.5431 Y13.1363 
G01 X33.5269 Y13.1420 
G01 X33.5095 Y13.1540 
G01 X33.4637 Y13.1576 
G01 X33.4381 Y13.1569 
G01 X33.4214 Y13.1609 
G01 X33.4044 Y13.1623 
G01 X33.3803 Y13.1708 
G01 X33.3356 Y13.1815 
G01 X33.3153 Y13.1755 
G01 X33.2981 Y13.1751 
G01 X33.2813 Y13.1720 
G01 X33.2558 Y13.1740 
G01 X33.2302 Y13.1733 
G01 X33.2150 Y13.1770 
G01 X33.1880 Y13.1770 
G01 X33.1756 Y13.1803 
G01 X33.1628 Y13.1813 
G01 X33.1346 Y13.1913 
G01 X33.1263 Y13.1935 
G01 X33.0500 Y13.1935 
G01 X33.0374 Y13.1912 
G01 X33.0076 Y13.1935 
G01 X32.9778 Y13.1935 
G01 X32.9653 Y13.1968 
G01 X32.8893 Y13.2028 
G01 X32.8808 Y13.2012 
G01 X32.8519 Y13.1935 
G01 X32.8391 Y13.1935 
G01 X32.8265 Y13.1912 
G01 X32.7967 Y13.1935 
G01 X31.7033 Y13.1935 
G01 X31.6736 Y13.1912 
G01 X31.6609 Y13.1935 
G01 X31.6481 Y13.1935 
G01 X31.6192 Y13.2012 
G01 X31.6107 Y13.2028 
G01 X31.5347 Y13.1968 
G01 X31.5222 Y13.1935 
G01 X31.4924 Y13.1935 
G01 X31.4626 Y13.1912 
G01 X31.4500 Y13.1935 
G01 X31.3309 Y13.1935 
G01 X31.3267 Y13.1925 
G01 X31.2884 Y13.1935 
G01 X31.2668 Y13.1935 
G01 X31.1980 Y13.1770 
G01 X31.1738 Y13.1684 
G01 X31.1568 Y13.1671 
G01 X31.1401 Y13.1631 
G01 X31.1145 Y13.1638 
G01 X31.0617 Y13.1596 
G01 X31.0279 Y13.1471 
G01 X30.9964 Y13.1340 
G01 X30.9879 Y13.1329 
G01 X30.9798 Y13.1300 
G01 X30.9459 Y13.1274 
G01 X30.9121 Y13.1229 
G01 X30.8611 Y13.1029 
G01 X30.8386 Y13.0907 
G01 X30.8220 Y13.0867 
G01 X30.8062 Y13.0802 
G01 X30.7808 Y13.0768 
G01 X30.7293 Y13.0645 
G01 X30.6979 Y13.0468 
G01 X30.6688 Y13.0290 
G01 X30.6606 Y13.0266 
G01 X30.6530 Y13.0225 
G01 X30.6199 Y13.0145 
G01 X30.5872 Y13.0048 
G01 X30.5400 Y12.9771 
G01 X30.5197 Y12.9615 
G01 X30.5039 Y12.9549 
G01 X30.4893 Y12.9460 
G01 X30.4648 Y12.9387 
G01 X30.4158 Y12.9185 
G01 X30.3876 Y12.8961 
G01 X30.3616 Y12.8740 
G01 X30.3539 Y12.8703 
G01 X30.3471 Y12.8651 
G01 X30.3156 Y12.8520 
G01 X30.2848 Y12.8373 
G01 X30.2426 Y12.8026 
G01 X30.2249 Y12.7840 
G01 X30.2103 Y12.7751 
G01 X30.1973 Y12.7640 
G01 X30.1742 Y12.7529 
G01 X30.1291 Y12.7253 
G01 X30.1046 Y12.6987 
G01 X30.0825 Y12.6728 
G01 X30.0754 Y12.6680 
G01 X30.0695 Y12.6617 
G01 X30.0404 Y12.6439 
G01 X30.0123 Y12.6246 
G01 X29.9761 Y12.5837 
G01 X29.9616 Y12.5626 
G01 X29.9485 Y12.5515 
G01 X29.9374 Y12.5384 
G01 X29.9163 Y12.5239 
G01 X29.8761 Y12.4895 
G01 X29.8561 Y12.4595 
G01 X29.8383 Y12.4305 
G01 X29.8320 Y12.4246 
G01 X29.8272 Y12.4175 
G01 X29.8013 Y12.3954 
G01 X29.7765 Y12.3719 
G01 X29.7471 Y12.3258 
G01 X29.7360 Y12.3027 
G01 X29.7249 Y12.2897 
G01 X29.7160 Y12.2751 
G01 X29.6974 Y12.2574 
G01 X29.6630 Y12.2172 
G01 X29.6480 Y12.1844 
G01 X29.6349 Y12.1529 
G01 X29.6297 Y12.1461 
G01 X29.6260 Y12.1384 
G01 X29.6039 Y12.1124 
G01 X29.5831 Y12.0854 
G01 X29.5613 Y12.0352 
G01 X29.5540 Y12.0107 
G01 X29.5450 Y11.9961 
G01 X29.5385 Y11.9803 
G01 X29.5229 Y11.9600 
G01 X29.4952 Y11.9148 
G01 X29.4855 Y11.8801 
G01 X29.4775 Y11.8470 
G01 X29.4734 Y11.8394 
G01 X29.4710 Y11.8312 
G01 X29.4532 Y11.8021 
G01 X29.4369 Y11.7722 
G01 X29.4232 Y11.7192 
G01 X29.4198 Y11.6938 
G01 X29.4133 Y11.6780 
G01 X29.4093 Y11.6614 
G01 X29.3971 Y11.6388 
G01 X29.3768 Y11.5899 
G01 X29.3726 Y11.5541 
G01 X29.3699 Y11.5202 
G01 X29.3671 Y11.5121 
G01 X29.3660 Y11.5036 
G01 X29.3529 Y11.4721 
G01 X29.3415 Y11.4399 
G01 X29.3362 Y11.3855 
G01 X29.3369 Y11.3599 
G01 X29.3329 Y11.3432 
G01 X29.3316 Y11.3262 
G01 X29.3230 Y11.3020 
G01 X29.3065 Y11.2332 
G01 X29.3065 Y11.2116 
G01 X29.3075 Y11.1733 
G01 X29.3065 Y11.1691 
G01 X29.3065 Y11.0500 
G01 X29.3088 Y11.0374 
G01 X29.3065 Y11.0076 
G01 X29.3065 Y10.9778 
G01 X29.3032 Y10.9653 
G01 X29.2972 Y10.8893 
G01 X29.2988 Y10.8808 
G01 X29.3065 Y10.8519 
G01 X29.3065 Y10.8391 
G01 X29.3088 Y10.8264 
G01 X29.3065 Y10.7967 
G01 X29.3065 Y10.7042 
G01 X29.3087 Y10.6733 
G01 X29.3065 Y10.6618 
G01 X29.3065 Y10.6502 
G01 X29.2985 Y10.6202 
G01 X29.2977 Y10.6162 
G01 X29.3035 Y10.5354 
G01 X29.3065 Y10.5241 
G01 X29.3065 Y10.4931 
G01 X29.3087 Y10.4621 
G01 X29.3065 Y10.4507 
G01 X29.3065 Y10.2911 
G01 X29.3082 Y10.2834 
G01 X29.3065 Y10.2486 
G01 X29.3065 Y10.2404 
G01 X29.3082 Y10.2328 
G01 X29.3067 Y10.2013 
G01 X29.3088 Y10.1735 
G01 X29.3065 Y10.1609 
G01 X29.3065 Y10.1481 
G01 X29.2988 Y10.1192 
G01 X29.2972 Y10.1107 
G01 X29.3032 Y10.0347 
G01 X29.3065 Y10.0222 
G01 X29.3065 Y9.9924 
G01 X29.3088 Y9.9626 
G01 X29.3065 Y9.9500 
G01 X29.3065 Y9.8309 
G01 X29.3075 Y9.8267 
G01 X29.3065 Y9.7884 
G01 X29.3065 Y9.7668 
G01 X29.3230 Y9.6980 
G01 X29.3316 Y9.6738 
G01 X29.3329 Y9.6568 
G01 X29.3369 Y9.6401 
G01 X29.3362 Y9.6145 
G01 X29.3404 Y9.5617 
G01 X29.3529 Y9.5279 
G01 X29.3660 Y9.4964 
G01 X29.3671 Y9.4879 
G01 X29.3699 Y9.4798 
G01 X29.3726 Y9.4459 
G01 X29.3771 Y9.4121 
G01 X29.3971 Y9.3611 
G01 X29.4093 Y9.3386 
G01 X29.4133 Y9.3220 
G01 X29.4198 Y9.3062 
G01 X29.4232 Y9.2808 
G01 X29.4355 Y9.2293 
G01 X29.4532 Y9.1979 
G01 X29.4710 Y9.1688 
G01 X29.4734 Y9.1606 
G01 X29.4775 Y9.1530 
G01 X29.4855 Y9.1199 
G01 X29.4952 Y9.0872 
G01 X29.5229 Y9.0400 
G01 X29.5385 Y9.0197 
G01 X29.5450 Y9.0039 
G01 X29.5540 Y8.9893 
G01 X29.5613 Y8.9648 
G01 X29.5815 Y8.9158 
G01 X29.6039 Y8.8876 
G01 X29.6260 Y8.8616 
G01 X29.6297 Y8.8539 
G01 X29.6349 Y8.8471 
G01 X29.6480 Y8.8156 
G01 X29.6627 Y8.7848 
G01 X29.6974 Y8.7426 
G01 X29.7160 Y8.7249 
G01 X29.7249 Y8.7103 
G01 X29.7360 Y8.6973 
G01 X29.7471 Y8.6742 
G01 X29.7747 Y8.6291 
G01 X29.8012 Y8.6046 
G01 X29.8272 Y8.5825 
G01 X29.8320 Y8.5754 
G01 X29.8383 Y8.5695 
G01 X29.8561 Y8.5405 
G01 X29.8754 Y8.5124 
G01 X29.9163 Y8.4761 
G01 X29.9374 Y8.4616 
G01 X29.9485 Y8.4485 
G01 X29.9616 Y8.4374 
G01 X29.9761 Y8.4163 
G01 X30.0104 Y8.3761 
G01 X30.0404 Y8.3561 
G01 X30.0695 Y8.3383 
G01 X30.0754 Y8.3320 
G01 X30.0825 Y8.3272 
G01 X30.1046 Y8.3013 
G01 X30.1281 Y8.2765 
G01 X30.1742 Y8.2471 
G01 X30.1973 Y8.2360 
G01 X30.2103 Y8.2249 
G01 X30.2249 Y8.2160 
G01 X30.2426 Y8.1974 
G01 X30.2828 Y8.1630 
G01 X30.3156 Y8.1480 
G01 X30.3471 Y8.1349 
G01 X30.3539 Y8.1297 
G01 X30.3616 Y8.1260 
G01 X30.3876 Y8.1039 
G01 X30.4146 Y8.0831 
G01 X30.4648 Y8.0613 
G01 X30.4893 Y8.0540 
G01 X30.5039 Y8.0450 
G01 X30.5197 Y8.0385 
G01 X30.5400 Y8.0229 
G01 X30.5852 Y7.9952 
G01 X30.6199 Y7.9855 
G01 X30.6530 Y7.9775 
G01 X30.6606 Y7.9734 
G01 X30.6688 Y7.9710 
G01 X30.6979 Y7.9532 
G01 X30.7278 Y7.9369 
G01 X30.7808 Y7.9232 
G01 X30.8062 Y7.9198 
G01 X30.8220 Y7.9133 
G01 X30.8386 Y7.9093 
G01 X30.8611 Y7.8971 
G01 X30.9101 Y7.8768 
G01 X30.9459 Y7.8726 
G01 X30.9798 Y7.8699 
G01 X30.9879 Y7.8671 
G01 X30.9964 Y7.8660 
G01 X31.0279 Y7.8529 
G01 X31.0601 Y7.8415 
G01 X31.0671 Y7.8367 
G01 X31.0751 Y7.8334 
G01 X31.0884 Y7.8231 
G01 X31.1085 Y7.8164 
G01 X31.1126 Y7.8143 
G01 X31.1457 Y7.7915 
G01 X32.3110 Y7.0147 
G01 X32.3388 Y6.9986 
G01 X32.3463 Y6.9911 
G01 X32.3551 Y6.9853 
G01 X32.3763 Y6.9611 
G01 X32.3990 Y6.9384 
G01 X32.4043 Y6.9293 
G01 X32.4113 Y6.9214 
G01 X32.4255 Y6.8926 
G01 X32.4416 Y6.8647 
G01 X32.4443 Y6.8545 
G01 X32.4490 Y6.8451 
G01 X32.4553 Y6.8136 
G01 X32.4636 Y6.7825 
G01 X32.4636 Y6.7720 
G01 X32.4657 Y6.7616 
G01 X32.4636 Y6.7295 
G01 X32.4636 Y6.2285 
G01 X32.4661 Y6.2147 
G01 X32.4636 Y6.1861 
G01 X32.4636 Y6.1574 
G01 X32.4600 Y6.1439 
G01 X32.4588 Y6.1299 
G01 X32.4490 Y6.1029 
G01 X32.4416 Y6.0752 
G01 X32.4346 Y6.0631 
G01 X32.4298 Y6.0499 
G01 X32.4134 Y6.0263 
G01 X32.3990 Y6.0015 
G01 X32.3891 Y5.9916 
G01 X32.3811 Y5.9801 
G01 X32.3592 Y5.9616 
G01 X32.3388 Y5.9413 
G01 X32.3267 Y5.9343 
G01 X29.1050 Y3.2213 
G01 X29.0847 Y3.2010 
G01 X29.0726 Y3.1940 
G01 X29.0619 Y3.1850 
G01 X29.0359 Y3.1728 
G01 X29.0110 Y3.1584 
G01 X28.9975 Y3.1548 
G01 X28.9848 Y3.1489 
G01 X28.9566 Y3.1438 
G01 X28.9288 Y3.1364 
G01 X28.9148 Y3.1364 
G01 X28.9011 Y3.1339 
G01 X28.8724 Y3.1364 
G01 X11.5550 Y3.1364 
G01 X11.5130 Y3.1363 
G01 X11.4717 Y3.1472 
G01 X11.4307 Y3.1581 
G01 X11.3936 Y3.1794 
G01 X11.3569 Y3.2004 
G01 X11.3268 Y3.2304 
G01 X7.2949 Y7.2397 
G01 X7.2651 Y7.2694 
G01 X7.2349 Y7.2993 
G01 X7.2136 Y7.3361 
G01 X7.1922 Y7.3729 
G01 X7.1809 Y7.4144 
G01 X7.1699 Y7.4551 
G01 X7.1698 Y7.4982 
G01 X7.1697 Y7.5402 
G01 X7.1805 Y7.5811 
G01 X7.1915 Y7.6224 
G01 X7.2126 Y7.6592 
G01 X7.2338 Y7.6962 
G01 X7.2446 Y7.7072 
G01 X7.4007 Y8.0840 
G01 X7.4007 Y8.4920 
G01 X7.2446 Y8.8688 
G01 X6.9562 Y9.1572 
G01 X6.5793 Y9.3133 
G01 X4.3807 Y9.3133 
G01 X4.0038 Y9.1572 
G01 X3.7154 Y8.8688 
G01 X3.5593 Y8.4920 
G01 X3.5593 Y8.0840 
G01 X3.7154 Y7.7072 
G01 X4.0038 Y7.4187 
G01 X4.3807 Y7.2626 
G01 X5.6167 Y7.2626 
G01 X5.6587 Y7.2628 
G01 X5.7000 Y7.2518 
G01 X5.7410 Y7.2410 
G01 X5.7780 Y7.2197 
G01 X5.8148 Y7.1986 
G01 X5.8449 Y7.1686 
G01 X10.7908 Y2.2504 
G01 X10.8206 Y2.2208 
G01 X10.8509 Y2.1907 
G01 X10.8967 Y2.1447 
G01 X10.9557 Y2.1205 
G01 X10.9953 Y2.1042 
G01 X11.0340 Y2.0883 
G01 X11.0940 Y2.0633 
G01 X11.1577 Y2.0635 
G01 X11.2001 Y2.0636 
G01 X11.2424 Y2.0637 
G01 X29.1347 Y2.0636 
G01 X29.1484 Y2.0661 
G01 X29.1771 Y2.0636 
G01 X29.2058 Y2.0636 
G01 X29.2193 Y2.0600 
G01 X29.2605 Y2.0564 
G01 X29.2759 Y2.0613 
G01 X29.2833 Y2.0617 
G01 X29.2905 Y2.0636 
G01 X29.3067 Y2.0636 
G01 X29.3449 Y2.0794 
G01 X29.3567 Y2.0870 
G01 X29.3841 Y2.0956 
G01 X29.4106 Y2.1066 
G01 X29.4245 Y2.1085 
G01 X29.4639 Y2.1210 
G01 X29.4762 Y2.1314 
G01 X29.4830 Y2.1345 
G01 X29.4889 Y2.1391 
G01 X29.5038 Y2.1453 
G01 X29.5331 Y2.1745 
G01 X29.5411 Y2.1860 
G01 X29.5630 Y2.2045 
G01 X29.5834 Y2.2248 
G01 X29.5955 Y2.2318 
G01 X31.8130 Y4.0992 
G01 X31.8416 Y4.1246 
G01 X31.8455 Y4.1265 
G01 X31.8489 Y4.1294 
G01 X31.8834 Y4.1456 
G01 X31.9176 Y4.1627 
G01 X31.9219 Y4.1636 
G01 X31.9259 Y4.1655 
G01 X31.9635 Y4.1722 
G01 X32.0010 Y4.1799 
G01 X32.0054 Y4.1796 
G01 X32.0097 Y4.1804 
G01 X32.0478 Y4.1771 
G01 X32.0859 Y4.1749 
G01 X32.0901 Y4.1735 
G01 X32.0945 Y4.1731 
G01 X32.1304 Y4.1601 
G01 X32.1667 Y4.1481 
G01 X32.1704 Y4.1456 
G01 X32.1745 Y4.1441 
G01 X32.2058 Y4.1223 
G01 X32.2378 Y4.1013 
G01 X32.2407 Y4.0980 
G01 X32.2443 Y4.0955 
G01 X32.2689 Y4.0662 
G01 X32.2943 Y4.0376 
G01 X32.2963 Y4.0337 
G01 X32.2991 Y4.0304 
G01 X32.3153 Y3.9958 
G01 X32.3325 Y3.9616 
G01 X32.3334 Y3.9573 
G01 X32.3352 Y3.9533 
G01 X32.3419 Y3.9157 
G01 X32.3496 Y3.8782 
G01 X32.3494 Y3.8738 
G01 X32.3501 Y3.8695 
G01 X32.3469 Y3.8314 
G01 X32.3113 Y3.2259 
G01 X32.3113 Y3.1928 
G01 X32.3088 Y3.1835 
G01 X32.3082 Y3.1739 
G01 X32.2978 Y3.1425 
G01 X32.2892 Y3.1106 
G01 X32.2844 Y3.1023 
G01 X32.2814 Y3.0932 
G01 X32.2632 Y3.0655 
G01 X32.2467 Y3.0369 
G01 X32.2399 Y3.0301 
G01 X32.2346 Y3.0221 
G01 X32.2099 Y3.0001 
G01 X32.1668 Y2.9570 
G01 X32.1668 Y1.8430 
G01 X32.2430 Y1.7668 
G01 X33.3570 Y1.7668 
G01 X33.4332 Y1.8430 
G01 X33.4332 Y2.9631 
G01 X33.4201 Y2.9892 
G01 X33.4036 Y3.0178 
G01 X33.4011 Y3.0271 
G01 X33.3968 Y3.0357 
G01 X33.3901 Y3.0681 
G01 X33.3816 Y3.1000 
G01 X33.3816 Y3.1096 
G01 X33.3796 Y3.1191 
G01 X33.3816 Y3.1520 
G01 X33.3816 Y3.1851 
G01 X33.3841 Y3.1944 
G01 X33.5252 Y5.5932 
G01 X33.5236 Y5.6049 
G01 X33.5276 Y5.6355 
G01 X33.5295 Y5.6663 
G01 X33.5332 Y5.6776 
G01 X33.5347 Y5.6893 
G01 X33.5364 Y5.6933 
G01 X33.5364 Y5.7347 
G01 X33.5339 Y5.7484 
G01 X33.5364 Y5.7771 
G01 X33.5364 Y5.8058 
G01 X33.5400 Y5.8193 
G01 X33.5442 Y5.8679 
G01 X33.5403 Y5.8791 
G01 X33.5395 Y5.8909 
G01 X33.5364 Y5.9023 
G01 X33.5364 Y5.9332 
G01 X33.5342 Y5.9640 
G01 X33.5364 Y5.9756 
G01 X33.5364 Y7.1050 
G01 X33.5343 Y7.1368 
G01 X33.5364 Y7.1475 
G01 X33.5364 Y7.1583 
G01 X33.5446 Y7.1891 
G01 X33.5469 Y7.2006 
G01 X33.5447 Y7.2115 
G01 X33.5364 Y7.2426 
G01 X33.5364 Y7.2531 
G01 X33.5343 Y7.2634 
G01 X33.5364 Y7.2955 
G01 X33.5364 Y7.3067 
G01 X33.5319 Y7.3176 
G01 X33.5178 Y7.3461 
G01 X33.5157 Y7.3567 
G01 X33.5115 Y7.3668 
G01 X33.5074 Y7.3983 
G01 X33.5053 Y7.4086 
G01 X33.4932 Y7.4256 
G01 X33.4915 Y7.4300 
G01 X33.4889 Y7.4339 
G01 X33.4767 Y7.4698 
G01 X33.4634 Y7.5054 
G01 X33.4630 Y7.5100 
G01 X33.4615 Y7.5145 
G01 X33.4589 Y7.5523 
G01 X33.4553 Y7.5901 
G01 X33.4561 Y7.5947 
G01 X33.4558 Y7.5994 
G01 X33.4632 Y7.6366 
G01 X33.4694 Y7.6740 
G01 X33.4714 Y7.6783 
G01 X33.4723 Y7.6829 
G01 X33.4891 Y7.7170 
G01 X33.5048 Y7.7514 
G01 X33.5078 Y7.7550 
G01 X33.5099 Y7.7593 
G01 X33.5349 Y7.7878 
G01 X33.5590 Y7.8170 
G01 X33.5628 Y7.8197 
G01 X33.5659 Y7.8233 
G01 X33.5974 Y7.8444 
G01 X33.6283 Y7.8664 
G01 X33.6327 Y7.8680 
G01 X33.6366 Y7.8706 
G01 X33.6725 Y7.8829 
G01 X33.7193 Y7.9003 
G01 X33.7400 Y7.9110 
G01 X33.7590 Y7.9151 
G01 X33.7772 Y7.9219 
G01 X33.8004 Y7.9241 
G01 X33.8487 Y7.9346 
G01 X33.8601 Y7.9450 
G01 X33.8774 Y7.9539 
G01 X33.8932 Y7.9652 
G01 X33.9150 Y7.9733 
G01 X33.9357 Y7.9840 
G01 X33.9404 Y7.9858 
G01 X33.9631 Y7.9912 
G01 X33.9849 Y7.9994 
G01 X34.0042 Y8.0012 
G01 X34.0231 Y8.0058 
G01 X34.0385 Y8.0054 
G01 X34.0819 Y8.0291 
G01 X34.1009 Y8.0427 
G01 X34.1191 Y8.0495 
G01 X34.1362 Y8.0588 
G01 X34.1588 Y8.0643 
G01 X34.2051 Y8.0815 
G01 X34.2149 Y8.0934 
G01 X34.2308 Y8.1047 
G01 X34.2449 Y8.1181 
G01 X34.2653 Y8.1293 
G01 X34.2843 Y8.1428 
G01 X34.2887 Y8.1452 
G01 X34.3103 Y8.1538 
G01 X34.3307 Y8.1650 
G01 X34.3496 Y8.1696 
G01 X34.3677 Y8.1768 
G01 X34.3830 Y8.1786 
G01 X34.4226 Y8.2083 
G01 X34.4394 Y8.2243 
G01 X34.4565 Y8.2337 
G01 X34.4720 Y8.2453 
G01 X34.4937 Y8.2540 
G01 X34.5371 Y8.2777 
G01 X34.5451 Y8.2908 
G01 X34.5592 Y8.3043 
G01 X34.5712 Y8.3196 
G01 X34.5898 Y8.3335 
G01 X34.6067 Y8.3496 
G01 X34.6107 Y8.3525 
G01 X34.6309 Y8.3642 
G01 X34.6496 Y8.3782 
G01 X34.6676 Y8.3854 
G01 X34.6844 Y8.3951 
G01 X34.6993 Y8.3991 
G01 X34.7342 Y8.4340 
G01 X34.7486 Y8.4524 
G01 X34.7642 Y8.4640 
G01 X34.7779 Y8.4778 
G01 X34.7981 Y8.4894 
G01 X34.8377 Y8.5190 
G01 X34.8438 Y8.5332 
G01 X34.8558 Y8.5485 
G01 X34.8655 Y8.5653 
G01 X34.8820 Y8.5818 
G01 X34.8964 Y8.6001 
G01 X34.8999 Y8.6036 
G01 X34.9182 Y8.6180 
G01 X34.9347 Y8.6345 
G01 X34.9515 Y8.6442 
G01 X34.9668 Y8.6562 
G01 X34.9810 Y8.6623 
G01 X35.0106 Y8.7019 
G01 X35.0222 Y8.7221 
G01 X35.0360 Y8.7358 
G01 X35.0476 Y8.7514 
G01 X35.0659 Y8.7658 
G01 X35.1009 Y8.8007 
G01 X35.1049 Y8.8156 
G01 X35.1146 Y8.8324 
G01 X35.1218 Y8.8504 
G01 X35.1358 Y8.8691 
G01 X35.1474 Y8.8893 
G01 X35.1504 Y8.8933 
G01 X35.1665 Y8.9102 
G01 X35.1804 Y8.9288 
G01 X35.1957 Y8.9408 
G01 X35.2092 Y8.9549 
G01 X35.2223 Y8.9629 
G01 X35.2460 Y9.0063 
G01 X35.2547 Y9.0280 
G01 X35.2663 Y9.0435 
G01 X35.2756 Y9.0606 
G01 X35.2917 Y9.0774 
G01 X35.3214 Y9.1170 
G01 X35.3232 Y9.1323 
G01 X35.3304 Y9.1504 
G01 X35.3350 Y9.1693 
G01 X35.3462 Y9.1897 
G01 X35.3548 Y9.2113 
G01 X35.3572 Y9.2157 
G01 X35.3707 Y9.2347 
G01 X35.3819 Y9.2551 
G01 X35.3953 Y9.2692 
