(.../EAGLE-7.6.0/ulp/pcb-gcode.ulp)
(Copyright 2005 - 2012 by John Johnson)
(See readme.txt for licensing terms.)
(This file generated from the board:)
(.../Projetos/Estágio2/PCB/placa.brd)
(Current profile is .../EAGLE-7.6.0/ulp/profiles/generic.pp  )
(This file generated 19/03/2017 19:19)
(Settings from pcb-machine.h)
(  Tool Size)
(0.2000 )
(Z Axis Settings)
(  High     Up        Down     Drill)
(1.0000 	1.0000 	-0.2300 	-2.0000 )
(spindle on time = 3.0000)
(milling depth = -2.0000)
(text depth = -0.1270)
(tool change at 20.0000 20.0000 30.0000 )
(feed rate xy = F508.00 )
(feed rate z  = F254.00 )
(Settings from pcb-defaults.h)
(isolate min = 0.0200)
(isolate max = 0.5000)
(isolate step = 0.1000)
(Generated bottom outlines, bottom drill, )
(Unit of measure: mm)
( Tool|       Size       |  Min Sub |  Max Sub |   Count )
( T03  0.400mm 0.0157in 0.0157in 0.0157in )
( T04  0.500mm 0.0197in 0.0197in 0.0197in )
( T05  0.600mm 0.0236in 0.0236in 0.0236in )
( T07  0.800mm 0.0315in 0.0315in 0.0315in )
( T08  0.900mm 0.0354in 0.0320in 0.0354in )
( T09  1.000mm 0.0394in 0.0394in 0.0394in )
( T11  3.000mm 0.1181in 0.1181in 0.1339in )
(Metric Mode)
G21
(Absolute Coordinates)
G90
M05
G00 Z30.0000 
G00 X20.0000 Y20.0000 
M06 T03  ; 0.4000 
G01 Z0.0000 F254.00 
M06 T01  ; 0.4000 
G00 Z1.0000 
M03
G04 P3.000000
G00 Z1.000000
G00 X40.5000 Y10.5000 
G01 Z-2.0000 F254.00 
G01 Z1.000000
(R1.0000  P1.000000)
(G00 Z1.000000)
G00 X40.5000 Y16.5000 
G01 Z-2.000000
G01 Z1.000000
(G00 Z1.000000)
G00 X40.5000 Y23.5000 
G01 Z-2.000000
G01 Z1.000000
(G00 Z1.000000)
G00 X40.5000 Y29.5000 
G01 Z-2.000000
G01 Z1.000000
(G00 Z1.000000)
G00 X27.5000 Y20.0000 
G01 Z-2.000000
G01 Z1.000000
(G00 Z1.000000)
G00 X30.5000 Y10.5000 
G01 Z-2.000000
G01 Z1.000000
(G00 Z1.000000)
G00 X30.5000 Y29.5000 
G01 Z-2.000000
G01 Z1.000000
M05
G00 Z30.0000 
M06 T04  ; 0.5000 
G01 Z0.0000 F254.00 
M06 T02  ; 0.5000 
G00 Z1.0000 
M03
G04 P3.000000
G00 Z1.000000
G00 X32.8000 Y2.4000 
G01 Z-2.0000 F254.00 
G01 Z1.000000
(R1.0000  P1.000000)
(G00 Z1.000000)
G00 X34.6000 Y36.6000 
G01 Z-2.000000
G01 Z1.000000
(G00 Z1.000000)
G00 X5.4000 Y23.2000 
G01 Z-2.000000
G01 Z1.000000
(G00 Z1.000000)
G00 X57.0000 Y2.4000 
G01 Z-2.000000
G01 Z1.000000
(G00 Z1.000000)
G00 X62.0000 Y28.0000 
G01 Z-2.000000
G01 Z1.000000
(G00 Z1.000000)
G00 X6.4000 Y27.8000 
G01 Z-2.000000
G01 Z1.000000
(G00 Z1.000000)
G00 X12.2000 Y36.6000 
G01 Z-2.000000
G01 Z1.000000
(G00 Z1.000000)
G00 X26.8000 Y23.2000 
G01 Z-2.000000
G01 Z1.000000
M05
G00 Z30.0000 
M06 T05  ; 0.6000 
G01 Z0.0000 F254.00 
M06 T03  ; 0.6000 
G00 Z1.0000 
M03
G04 P3.000000
G00 Z1.000000
G00 X37.4340 Y31.9140 
G01 Z-2.0000 F254.00 
G01 Z1.000000
(R1.0000  P1.000000)
(G00 Z1.000000)
G00 X37.4340 Y6.5140 
G01 Z-2.000000
G01 Z1.000000
(G00 Z1.000000)
G00 X37.4340 Y9.0540 
G01 Z-2.000000
G01 Z1.000000
(G00 Z1.000000)
G00 X37.4340 Y11.5940 
G01 Z-2.000000
G01 Z1.000000
(G00 Z1.000000)
G00 X37.4340 Y14.1340 
G01 Z-2.000000
G01 Z1.000000
(G00 Z1.000000)
G00 X37.4340 Y16.6740 
G01 Z-2.000000
G01 Z1.000000
(G00 Z1.000000)
G00 X37.4340 Y19.2140 
G01 Z-2.000000
G01 Z1.000000
(G00 Z1.000000)
G00 X37.4340 Y21.7540 
G01 Z-2.000000
G01 Z1.000000
(G00 Z1.000000)
G00 X37.4340 Y24.2940 
G01 Z-2.000000
G01 Z1.000000
(G00 Z1.000000)
G00 X37.4340 Y26.8340 
G01 Z-2.000000
G01 Z1.000000
(G00 Z1.000000)
G00 X37.4340 Y29.3740 
G01 Z-2.000000
G01 Z1.000000
(G00 Z1.000000)
G00 X14.5740 Y31.9140 
G01 Z-2.000000
G01 Z1.000000
(G00 Z1.000000)
G00 X14.5740 Y6.5140 
G01 Z-2.000000
G01 Z1.000000
(G00 Z1.000000)
G00 X14.5740 Y9.0540 
G01 Z-2.000000
G01 Z1.000000
(G00 Z1.000000)
G00 X14.5740 Y11.5940 
G01 Z-2.000000
G01 Z1.000000
(G00 Z1.000000)
G00 X14.5740 Y14.1340 
G01 Z-2.000000
G01 Z1.000000
(G00 Z1.000000)
G00 X14.5740 Y16.6740 
G01 Z-2.000000
G01 Z1.000000
(G00 Z1.000000)
G00 X14.5740 Y19.2140 
G01 Z-2.000000
G01 Z1.000000
(G00 Z1.000000)
G00 X14.5740 Y21.7540 
G01 Z-2.000000
G01 Z1.000000
(G00 Z1.000000)
G00 X14.5740 Y24.2940 
G01 Z-2.000000
G01 Z1.000000
(G00 Z1.000000)
G00 X14.5740 Y26.8340 
G01 Z-2.000000
G01 Z1.000000
(G00 Z1.000000)
G00 X14.5740 Y29.3740 
G01 Z-2.000000
G01 Z1.000000
(G00 Z1.000000)
G00 X22.1940 Y34.4540 
G01 Z-2.000000
G01 Z1.000000
(G00 Z1.000000)
G00 X24.1600 Y13.7200 
G01 Z-2.000000
G01 Z1.000000
(G00 Z1.000000)
G00 X24.1600 Y16.2600 
G01 Z-2.000000
G01 Z1.000000
(G00 Z1.000000)
G00 X24.1600 Y18.8000 
G01 Z-2.000000
G01 Z1.000000
(G00 Z1.000000)
G00 X24.1600 Y21.3400 
G01 Z-2.000000
G01 Z1.000000
(G00 Z1.000000)
G00 X24.1600 Y23.8800 
G01 Z-2.000000
G01 Z1.000000
(G00 Z1.000000)
G00 X24.1600 Y26.4200 
G01 Z-2.000000
G01 Z1.000000
(G00 Z1.000000)
G00 X24.7340 Y34.4540 
G01 Z-2.000000
G01 Z1.000000
(G00 Z1.000000)
G00 X27.2740 Y34.4540 
G01 Z-2.000000
G01 Z1.000000
(G00 Z1.000000)
G00 X29.8140 Y34.4540 
G01 Z-2.000000
G01 Z1.000000
M05
G00 Z30.0000 
M06 T07  ; 0.8000 
G01 Z0.0000 F254.00 
M06 T04  ; 0.8000 
G00 Z1.0000 
M03
G04 P3.000000
G00 Z1.000000
G00 X19.1530 Y9.2400 
G01 Z-2.0000 F254.00 
G01 Z1.000000
(R1.0000  P1.000000)
(G00 Z1.000000)
G00 X21.0580 Y7.9700 
G01 Z-2.000000
G01 Z1.000000
(G00 Z1.000000)
G00 X21.0580 Y10.5100 
G01 Z-2.000000
G01 Z1.000000
(G00 Z1.000000)
G00 X23.7310 Y9.1660 
G01 Z-2.000000
G01 Z1.000000
(G00 Z1.000000)
G00 X25.6360 Y7.8960 
G01 Z-2.000000
G01 Z1.000000
(G00 Z1.000000)
G00 X25.6360 Y10.4360 
G01 Z-2.000000
G01 Z1.000000
M05
G00 Z30.0000 
M06 T08  ; 0.9000 
G01 Z0.0000 F254.00 
M06 T05  ; 0.9000 
G00 Z1.0000 
M03
G04 P3.000000
G00 Z1.000000
G00 X51.7820 Y34.8140 
G01 Z-2.0000 F254.00 
G01 Z1.000000
(R1.0000  P1.000000)
(G00 Z1.000000)
G00 X56.9820 Y5.4140 
G01 Z-2.000000
G01 Z1.000000
(G00 Z1.000000)
G00 X61.9820 Y5.4140 
G01 Z-2.000000
G01 Z1.000000
(G00 Z1.000000)
G00 X67.1820 Y34.8140 
G01 Z-2.000000
G01 Z1.000000
M05
G00 Z30.0000 
M06 T09  ; 1.0000 
G01 Z0.0000 F254.00 
M06 T06  ; 1.0000 
G00 Z1.0000 
M03
G04 P3.000000
G00 Z1.000000
G00 X41.5000 Y3.4700 
G01 Z-2.0000 F254.00 
G01 Z1.000000
(R1.0000  P1.000000)
(G00 Z1.000000)
G00 X41.5000 Y36.5300 
G01 Z-2.000000
G01 Z1.000000
(G00 Z1.000000)
G00 X46.5000 Y3.4700 
G01 Z-2.000000
G01 Z1.000000
(G00 Z1.000000)
G00 X46.5000 Y36.5300 
G01 Z-2.000000
G01 Z1.000000
(G00 Z1.000000)
G00 X5.4800 Y3.2880 
G01 Z-2.000000
G01 Z1.000000
(G00 Z1.000000)
G00 X5.4800 Y8.2880 
G01 Z-2.000000
G01 Z1.000000
(G00 Z1.000000)
G00 X5.4800 Y13.2880 
G01 Z-2.000000
G01 Z1.000000
(G00 Z1.000000)
G00 X6.4600 Y31.6280 
G01 Z-2.000000
G01 Z1.000000
(G00 Z1.000000)
G00 X6.4600 Y36.6280 
G01 Z-2.000000
G01 Z1.000000
M05
G00 Z30.0000 
M06 T11  ; 3.0000 
G01 Z0.0000 F254.00 
M06 T07  ; 3.0000 
G00 Z1.0000 
M03
G04 P3.000000
G00 Z1.000000
G00 X33.0000 Y10.5000 
G01 Z-2.0000 F254.00 
G01 Z1.000000
(R1.0000  P1.000000)
(G00 Z1.000000)
G00 X33.0000 Y29.5000 
G01 Z-2.000000
G01 Z1.000000
(G00 Z1.000000)
G00 X43.0000 Y10.5000 
G01 Z-2.000000
G01 Z1.000000
(G00 Z1.000000)
G00 X43.0000 Y16.5000 
G01 Z-2.000000
G01 Z1.000000
(G00 Z1.000000)
G00 X43.0000 Y23.5000 
G01 Z-2.000000
G01 Z1.000000
(G00 Z1.000000)
G00 X43.0000 Y29.5000 
G01 Z-2.000000
G01 Z1.000000
(G00 Z1.000000)
G00 X30.0000 Y20.0000 
G01 Z-2.000000
G01 Z1.000000
T01 
M05
M02
