(.../EAGLE-7.6.0/ulp/pcb-gcode.ulp)
(Copyright 2005 - 2012 by John Johnson)
(See readme.txt for licensing terms.)
(This file generated from the board:)
(.../Projetos/Estágio1/PCB/Plugar/placa.brd)
(Current profile is .../EAGLE-7.6.0/ulp/profiles/generic.pp  )
(This file generated 23/02/2017 09:28)
(Settings from pcb-machine.h)
(  Tool Size)
(0.2000 )
(Z Axis Settings)
(  High     Up        Down     Drill)
(12.7000 	2.5400 	-0.1778 	-0.8128 )
(spindle on time = 3.0000)
(milling depth = -0.2540)
(text depth = -0.1270)
(tool change at 12.7000 15.2400 25.4000 )
(feed rate xy = F508.00 )
(feed rate z  = F254.00 )
(Settings from pcb-defaults.h)
(isolate min = 0.0254)
(isolate max = 0.5080)
(isolate step = 0.1270)
(Generated bottom outlines, bottom drill, )
(Unit of measure: mm)
( Tool|       Size       |  Min Sub |  Max Sub |   Count )
( T01  3.400mm 0.1339in 0.0000in 0.0000in )
( T02  0.500mm 0.0197in 0.0000in 0.0000in )
( T03  0.600mm 0.0236in 0.0000in 0.0000in )
( T04  0.700mm 0.0276in 0.0000in 0.0000in )
( T05  0.813mm 0.0320in 0.0000in 0.0000in )
( T06  1.000mm 0.0394in 0.0000in 0.0000in )
( T07  1.194mm 0.0470in 0.0000in 0.0000in )
(Metric Mode)
G21
(Absolute Coordinates)
G90
M05
G00 Z25.4000 
G00 X12.7000 Y15.2400 
M06 T01  ; 3.4000 
G01 Z0.0000 F254.00 
M06 T01  ; 3.4000 
G00 Z2.5400 
M03
G04 P3.000000
G00 Z2.540000
G00 X57.0000 Y19.4920 
G01 Z-0.8128 F254.00 
G01 Z2.540000
(R2.5400  P1.000000)
(G00 Z2.540000)
G00 X60.0000 Y9.9920 
G01 Z-0.812800
G01 Z2.540000
(G00 Z2.540000)
G00 X60.0000 Y28.9920 
G01 Z-0.812800
G01 Z2.540000
(G00 Z2.540000)
G00 X22.0000 Y19.4920 
G01 Z-0.812800
G01 Z2.540000
(G00 Z2.540000)
G00 X25.0000 Y9.9920 
G01 Z-0.812800
G01 Z2.540000
(G00 Z2.540000)
G00 X25.0000 Y28.9920 
G01 Z-0.812800
G01 Z2.540000
M05
G00 Z25.4000 
M06 T02  ; 0.5000 
G01 Z0.0000 F254.00 
M06 T02  ; 0.5000 
G00 Z2.5400 
M03
G04 P3.000000
G00 Z2.540000
G00 X54.5000 Y19.4920 
G01 Z-0.8128 F254.00 
G01 Z2.540000
(R2.5400  P1.000000)
(G00 Z2.540000)
G00 X57.5000 Y9.9920 
G01 Z-0.812800
G01 Z2.540000
(G00 Z2.540000)
G00 X57.5000 Y28.9920 
G01 Z-0.812800
G01 Z2.540000
(G00 Z2.540000)
G00 X19.5000 Y19.4920 
G01 Z-0.812800
G01 Z2.540000
(G00 Z2.540000)
G00 X22.5000 Y9.9920 
G01 Z-0.812800
G01 Z2.540000
(G00 Z2.540000)
G00 X22.5000 Y28.9920 
G01 Z-0.812800
G01 Z2.540000
M05
G00 Z25.4000 
M06 T03  ; 0.6000 
G01 Z0.0000 F254.00 
M06 T03  ; 0.6000 
G00 Z2.5400 
M03
G04 P3.000000
G00 Z2.540000
G00 X34.7980 Y6.6040 
G01 Z-0.8128 F254.00 
G01 Z2.540000
(R2.5400  P1.000000)
(G00 Z2.540000)
G00 X35.0520 Y21.5900 
G01 Z-0.812800
G01 Z2.540000
M05
G00 Z25.4000 
M06 T04  ; 0.7000 
G01 Z0.0000 F254.00 
M06 T04  ; 0.7000 
G00 Z2.5400 
M03
G04 P3.000000
G00 Z2.540000
G00 X43.5740 Y32.9140 
G01 Z-0.8128 F254.00 
G01 Z2.540000
(R2.5400  P1.000000)
(G00 Z2.540000)
G00 X43.5740 Y7.5140 
G01 Z-0.812800
G01 Z2.540000
(G00 Z2.540000)
G00 X43.5740 Y10.0540 
G01 Z-0.812800
G01 Z2.540000
(G00 Z2.540000)
G00 X43.5740 Y12.5940 
G01 Z-0.812800
G01 Z2.540000
(G00 Z2.540000)
G00 X43.5740 Y15.1340 
G01 Z-0.812800
G01 Z2.540000
(G00 Z2.540000)
G00 X43.5740 Y17.6740 
G01 Z-0.812800
G01 Z2.540000
(G00 Z2.540000)
G00 X43.5740 Y20.2140 
G01 Z-0.812800
G01 Z2.540000
(G00 Z2.540000)
G00 X43.5740 Y22.7540 
G01 Z-0.812800
G01 Z2.540000
(G00 Z2.540000)
G00 X43.5740 Y25.2940 
G01 Z-0.812800
G01 Z2.540000
(G00 Z2.540000)
G00 X43.5740 Y27.8340 
G01 Z-0.812800
G01 Z2.540000
(G00 Z2.540000)
G00 X43.5740 Y30.3740 
G01 Z-0.812800
G01 Z2.540000
(G00 Z2.540000)
G00 X51.1600 Y13.2120 
G01 Z-0.812800
G01 Z2.540000
(G00 Z2.540000)
G00 X51.1600 Y15.7520 
G01 Z-0.812800
G01 Z2.540000
(G00 Z2.540000)
G00 X51.1600 Y18.2920 
G01 Z-0.812800
G01 Z2.540000
(G00 Z2.540000)
G00 X51.1600 Y20.8320 
G01 Z-0.812800
G01 Z2.540000
(G00 Z2.540000)
G00 X51.1600 Y23.3720 
G01 Z-0.812800
G01 Z2.540000
(G00 Z2.540000)
G00 X51.1600 Y25.9120 
G01 Z-0.812800
G01 Z2.540000
(G00 Z2.540000)
G00 X51.1940 Y35.4540 
G01 Z-0.812800
G01 Z2.540000
(G00 Z2.540000)
G00 X53.7340 Y35.4540 
G01 Z-0.812800
G01 Z2.540000
(G00 Z2.540000)
G00 X56.2740 Y35.4540 
G01 Z-0.812800
G01 Z2.540000
(G00 Z2.540000)
G00 X58.8140 Y35.4540 
G01 Z-0.812800
G01 Z2.540000
(G00 Z2.540000)
G00 X66.4340 Y32.9140 
G01 Z-0.812800
G01 Z2.540000
(G00 Z2.540000)
G00 X66.4340 Y7.5140 
G01 Z-0.812800
G01 Z2.540000
(G00 Z2.540000)
G00 X66.4340 Y10.0540 
G01 Z-0.812800
G01 Z2.540000
(G00 Z2.540000)
G00 X66.4340 Y12.5940 
G01 Z-0.812800
G01 Z2.540000
(G00 Z2.540000)
G00 X66.4340 Y15.1340 
G01 Z-0.812800
G01 Z2.540000
(G00 Z2.540000)
G00 X66.4340 Y17.6740 
G01 Z-0.812800
G01 Z2.540000
(G00 Z2.540000)
G00 X66.4340 Y20.2140 
G01 Z-0.812800
G01 Z2.540000
(G00 Z2.540000)
G00 X66.4340 Y22.7540 
G01 Z-0.812800
G01 Z2.540000
(G00 Z2.540000)
G00 X66.4340 Y25.2940 
G01 Z-0.812800
G01 Z2.540000
(G00 Z2.540000)
G00 X66.4340 Y27.8340 
G01 Z-0.812800
G01 Z2.540000
(G00 Z2.540000)
G00 X66.4340 Y30.3740 
G01 Z-0.812800
G01 Z2.540000
(G00 Z2.540000)
G00 X16.1600 Y13.2120 
G01 Z-0.812800
G01 Z2.540000
(G00 Z2.540000)
G00 X16.1600 Y15.7520 
G01 Z-0.812800
G01 Z2.540000
(G00 Z2.540000)
G00 X16.1600 Y18.2920 
G01 Z-0.812800
G01 Z2.540000
(G00 Z2.540000)
G00 X16.1600 Y20.8320 
G01 Z-0.812800
G01 Z2.540000
(G00 Z2.540000)
G00 X16.1600 Y23.3720 
G01 Z-0.812800
G01 Z2.540000
(G00 Z2.540000)
G00 X16.1600 Y25.9120 
G01 Z-0.812800
G01 Z2.540000
M05
G00 Z25.4000 
M06 T05  ; 0.8128 
G01 Z0.0000 F254.00 
M06 T05  ; 0.8128 
G00 Z2.5400 
M03
G04 P3.000000
G00 Z2.540000
G00 X36.8960 Y4.3640 
G01 Z-0.8128 F254.00 
G01 Z2.540000
(R2.5400  P1.000000)
(G00 Z2.540000)
G00 X36.9700 Y8.9420 
G01 Z-0.812800
G01 Z2.540000
(G00 Z2.540000)
G00 X38.1660 Y6.2690 
G01 Z-0.812800
G01 Z2.540000
(G00 Z2.540000)
G00 X38.2400 Y10.8470 
G01 Z-0.812800
G01 Z2.540000
(G00 Z2.540000)
G00 X39.4360 Y4.3640 
G01 Z-0.812800
G01 Z2.540000
(G00 Z2.540000)
G00 X39.5100 Y8.9420 
G01 Z-0.812800
G01 Z2.540000
M05
G00 Z25.4000 
M06 T06  ; 1.0000 
G01 Z0.0000 F254.00 
M06 T06  ; 1.0000 
G00 Z2.5400 
M03
G04 P3.000000
G00 Z2.540000
G00 X15.8180 Y5.1860 
G01 Z-0.8128 F254.00 
G01 Z2.540000
(R2.5400  P1.000000)
(G00 Z2.540000)
G00 X21.0180 Y34.5860 
G01 Z-0.812800
G01 Z2.540000
(G00 Z2.540000)
G00 X26.0180 Y34.5860 
G01 Z-0.812800
G01 Z2.540000
(G00 Z2.540000)
G00 X31.2180 Y5.1860 
G01 Z-0.812800
G01 Z2.540000
M05
G00 Z25.4000 
M06 T07  ; 1.1938 
G01 Z0.0000 F254.00 
M06 T07  ; 1.1938 
G00 Z2.5400 
M03
G04 P3.000000
G00 Z2.540000
G00 X5.5200 Y8.7120 
G01 Z-0.8128 F254.00 
G01 Z2.540000
(R2.5400  P1.000000)
(G00 Z2.540000)
G00 X5.5200 Y13.7120 
G01 Z-0.812800
G01 Z2.540000
(G00 Z2.540000)
G00 X5.5200 Y18.7120 
G01 Z-0.812800
G01 Z2.540000
(G00 Z2.540000)
G00 X5.5400 Y33.3720 
G01 Z-0.812800
G01 Z2.540000
(G00 Z2.540000)
G00 X5.5400 Y28.3720 
G01 Z-0.812800
G01 Z2.540000
T01 
G00 Z12.7000 
M05
M02
