(.../EAGLE-7.6.0/ulp/pcb-gcode.ulp)
(Copyright 2005 - 2012 by John Johnson)
(See readme.txt for licensing terms.)
(This file generated from the board:)
(.../Projetos/Estágio1/PCB/Plugar/placa.brd)
(Current profile is .../EAGLE-7.6.0/ulp/profiles/generic.pp  )
(This file generated 23/02/2017 09:27)
(Settings from pcb-machine.h)
(  Tool Size)
(0.2000 )
(Z Axis Settings)
(  High     Up        Down     Drill)
(12.7000 	2.5400 	-0.1778 	-0.8128 )
(spindle on time = 3.0000)
(milling depth = -0.2540)
(text depth = -0.1270)
(tool change at 12.7000 15.2400 25.4000 )
(feed rate xy = F508.00 )
(feed rate z  = F254.00 )
(Settings from pcb-defaults.h)
(isolate min = 0.0254)
(isolate max = 0.5080)
(isolate step = 0.1270)
(Generated bottom outlines, bottom drill, )
(Unit of measure: mm)
(Metric Mode)
G21
(Absolute Coordinates)
G90
G00 X0.0000 Y0.0000 
M03
G04 P3.000000
G00 Z2.5400 
G00 X14.6894 Y4.7185 
G01 Z-0.1778 F254.00 
G01 X15.3505 Y4.0574 F508.00 
G01 X15.4426 Y4.0574 
G01 X15.4426 Y4.0606 
G01 X15.3518 Y4.0606 
G01 X14.6926 Y4.7198 
G01 X14.6926 Y4.8106 
G01 X14.6894 Y4.8106 
G01 X14.6894 Y4.7185 
G00 Z2.5400 
G00 X16.9466 Y5.6535 
G01 Z-0.1778 F254.00 
G01 X16.2855 Y6.3146 F508.00 
G01 X16.1934 Y6.3146 
G01 X16.1934 Y6.3114 
G01 X16.2842 Y6.3114 
G01 X16.9434 Y5.6522 
G01 X16.9434 Y5.5614 
G01 X16.9466 Y5.5614 
G01 X16.9466 Y5.6535 
G00 Z2.5400 
G00 X16.9434 Y4.8106 
G01 Z-0.1778 F254.00 
G01 X16.9434 Y4.7198 F508.00 
G01 X16.2842 Y4.0606 
G01 X16.1934 Y4.0606 
G01 X16.1934 Y4.0574 
G01 X16.2855 Y4.0574 
G01 X16.9466 Y4.7185 
G01 X16.9466 Y4.8106 
G01 X16.9434 Y4.8106 
G00 Z2.5400 
G00 X17.4174 Y23.0434 
G01 Z-0.1778 F254.00 
G01 X17.4113 Y23.0287 F508.00 
G00 Z2.5400 
G00 X17.2413 Y22.8132 
G01 Z-0.1778 F254.00 
G01 X17.3228 Y22.8947 F508.00 
G01 X17.3906 Y22.9880 
G01 X17.4095 Y23.0252 
G01 X17.3306 Y22.9070 
G01 X17.2290 Y22.8054 
G01 X17.1108 Y22.7265 
G01 X17.1480 Y22.7454 
G01 X17.2413 Y22.8132 
G00 Z2.5400 
G00 X16.8217 Y22.6394 
G01 Z-0.1778 F254.00 
G01 X16.9355 Y22.6574 F508.00 
G01 X16.9752 Y22.6703 
G01 X16.8358 Y22.6426 
G01 X16.4886 Y22.6426 
G01 X16.4886 Y22.6394 
G01 X16.8217 Y22.6394 
G00 Z2.5400 
G00 X15.4983 Y22.6394 
G01 Z-0.1778 F254.00 
G01 X15.8314 Y22.6394 F508.00 
G01 X15.8314 Y22.6426 
G01 X15.4842 Y22.6426 
G01 X15.3448 Y22.6703 
G01 X15.3844 Y22.6574 
G01 X15.4983 Y22.6394 
G00 Z2.5400 
G00 X14.9087 Y23.0287 
G01 Z-0.1778 F254.00 
G01 X14.9026 Y23.0434 F508.00 
G01 X14.9012 Y23.0434 
G01 X14.9087 Y23.0287 
G00 Z2.5400 
G00 X14.9026 Y23.7006 
G01 Z-0.1778 F254.00 
G01 X14.9087 Y23.7153 F508.00 
G00 Z2.5400 
G00 X15.0787 Y23.9308 
G01 Z-0.1778 F254.00 
G01 X14.9972 Y23.8493 F508.00 
G01 X14.9294 Y23.7560 
G01 X14.9105 Y23.7188 
G01 X14.9894 Y23.8370 
G01 X15.0910 Y23.9386 
G01 X15.2092 Y24.0175 
G01 X15.1720 Y23.9986 
G01 X15.0787 Y23.9308 
G00 Z2.5400 
G00 X15.4983 Y24.1046 
G01 Z-0.1778 F254.00 
G01 X15.3844 Y24.0866 F508.00 
G01 X15.3448 Y24.0737 
G01 X15.4842 Y24.1014 
G01 X15.8314 Y24.1014 
G01 X15.8314 Y24.1046 
G01 X15.4983 Y24.1046 
G00 Z2.5400 
G00 X17.2290 Y23.9386 
G01 Z-0.1778 F254.00 
G01 X17.3306 Y23.8370 F508.00 
G01 X17.4095 Y23.7188 
G01 X17.3906 Y23.7560 
G01 X17.3228 Y23.8493 
G01 X17.2413 Y23.9308 
G01 X17.1480 Y23.9986 
G01 X17.1108 Y24.0175 
G01 X17.2290 Y23.9386 
G00 Z2.5400 
G00 X17.4174 Y23.7006 
G01 Z-0.1778 F254.00 
G01 X17.4188 Y23.7006 F508.00 
G01 X17.4113 Y23.7153 
G01 X17.4174 Y23.7006 
G00 Z2.5400 
G00 X16.9789 Y24.0725 
G01 Z-0.1778 F254.00 
G01 X17.1073 Y24.0193 F508.00 
G01 X17.0452 Y24.0509 
G01 X16.9789 Y24.0725 
G00 Z2.5400 
G00 X16.4886 Y24.1014 
G01 Z-0.1778 F254.00 
G01 X16.8358 Y24.1014 F508.00 
G01 X16.9752 Y24.0737 
G01 X16.9356 Y24.0866 
G01 X16.8217 Y24.1046 
G01 X16.4886 Y24.1046 
G01 X16.4886 Y24.1014 
G00 Z2.5400 
G00 X15.2127 Y24.0193 
G01 Z-0.1778 F254.00 
G01 X15.3411 Y24.0725 F508.00 
G01 X15.2748 Y24.0509 
G01 X15.2127 Y24.0193 
G00 Z2.5400 
G00 X14.9972 Y22.8947 
G01 Z-0.1778 F254.00 
G01 X15.0787 Y22.8132 F508.00 
G01 X15.1720 Y22.7454 
G01 X15.2092 Y22.7265 
G01 X15.0910 Y22.8054 
G01 X14.9894 Y22.9070 
G01 X14.9105 Y23.0252 
G01 X14.9294 Y22.9880 
G01 X14.9972 Y22.8947 
G00 Z2.5400 
G00 X15.3411 Y22.6715 
G01 Z-0.1778 F254.00 
G01 X15.2127 Y22.7247 F508.00 
G01 X15.2748 Y22.6931 
G01 X15.3411 Y22.6715 
G00 Z2.5400 
G00 X17.1073 Y22.7247 
G01 Z-0.1778 F254.00 
G01 X16.9789 Y22.6715 F508.00 
G01 X17.0452 Y22.6931 
G01 X17.1073 Y22.7247 
G00 Z2.5400 
G00 X15.3505 Y6.3146 
G01 Z-0.1778 F254.00 
G01 X14.6894 Y5.6535 F508.00 
G01 X14.6894 Y5.5614 
G01 X14.6926 Y5.5614 
G01 X14.6926 Y5.6522 
G01 X15.3518 Y6.3114 
G01 X15.4426 Y6.3114 
G01 X15.4426 Y6.3146 
G01 X15.3505 Y6.3146 
G00 Z2.5400 
G00 X17.4241 Y25.4710 
G01 Z-0.1778 F254.00 
G01 X17.5426 Y25.7571 F508.00 
G01 X17.5426 Y26.0669 
G01 X17.4241 Y26.3530 
G01 X17.2050 Y26.5721 
G01 X16.9189 Y26.6906 
G01 X15.4011 Y26.6906 
G01 X15.1150 Y26.5721 
G01 X14.8959 Y26.3530 
G01 X14.7774 Y26.0669 
G01 X14.7774 Y25.7571 
G01 X14.8959 Y25.4710 
G01 X15.1150 Y25.2519 
G01 X15.4011 Y25.1334 
G01 X16.9189 Y25.1334 
G01 X17.2050 Y25.2519 
G01 X17.4241 Y25.4710 
G00 Z2.5400 
G00 X16.8358 Y25.1826 
G01 Z-0.1778 F254.00 
G01 X15.4842 Y25.1826 F508.00 
G01 X15.3432 Y25.2106 
G01 X15.2105 Y25.2656 
G01 X15.0910 Y25.3454 
G01 X14.9894 Y25.4470 
G01 X14.9096 Y25.5665 
G01 X14.8546 Y25.6992 
G01 X14.8266 Y25.8402 
G01 X14.8266 Y25.9838 
G01 X14.8546 Y26.1248 
G01 X14.9096 Y26.2575 
G01 X14.9894 Y26.3770 
G01 X15.0910 Y26.4786 
G01 X15.2105 Y26.5584 
G01 X15.3432 Y26.6134 
G01 X15.4842 Y26.6414 
G01 X16.8358 Y26.6414 
G01 X16.9768 Y26.6134 
G01 X17.1095 Y26.5584 
G01 X17.2290 Y26.4786 
G01 X17.3306 Y26.3770 
G01 X17.4104 Y26.2575 
G01 X17.4654 Y26.1248 
G01 X17.4934 Y25.9838 
G01 X17.4934 Y25.8402 
G01 X17.4654 Y25.6992 
G01 X17.4104 Y25.5665 
G01 X17.3306 Y25.4470 
G01 X17.2290 Y25.3454 
G01 X17.1095 Y25.2656 
G01 X16.9768 Y25.2106 
G01 X16.8358 Y25.1826 
G00 Z2.5400 
G00 X52.4174 Y23.0434 
G01 Z-0.1778 F254.00 
G01 X52.4113 Y23.0287 F508.00 
G00 Z2.5400 
G00 X52.2413 Y22.8132 
G01 Z-0.1778 F254.00 
G01 X52.3228 Y22.8947 F508.00 
G01 X52.3906 Y22.9880 
G01 X52.4095 Y23.0252 
G01 X52.3306 Y22.9070 
G01 X52.2290 Y22.8054 
G01 X52.1108 Y22.7265 
G01 X52.1480 Y22.7454 
G01 X52.2413 Y22.8132 
G00 Z2.5400 
G00 X51.8217 Y22.6394 
G01 Z-0.1778 F254.00 
G01 X51.9356 Y22.6574 F508.00 
G01 X51.9752 Y22.6703 
G01 X51.8358 Y22.6426 
G01 X51.4886 Y22.6426 
G01 X51.4886 Y22.6394 
G01 X51.8217 Y22.6394 
G00 Z2.5400 
G00 X50.4983 Y22.6394 
G01 Z-0.1778 F254.00 
G01 X50.8314 Y22.6394 F508.00 
G01 X50.8314 Y22.6426 
G01 X50.4842 Y22.6426 
G01 X50.3448 Y22.6703 
G01 X50.3844 Y22.6574 
G01 X50.4983 Y22.6394 
G00 Z2.5400 
G00 X49.9087 Y23.0287 
G01 Z-0.1778 F254.00 
G01 X49.9026 Y23.0434 F508.00 
G01 X49.9012 Y23.0434 
G01 X49.9087 Y23.0287 
G00 Z2.5400 
G00 X49.9026 Y23.7006 
G01 Z-0.1778 F254.00 
G01 X49.9087 Y23.7153 F508.00 
G00 Z2.5400 
G00 X50.0787 Y23.9308 
G01 Z-0.1778 F254.00 
G01 X49.9972 Y23.8493 F508.00 
G01 X49.9294 Y23.7560 
G01 X49.9105 Y23.7188 
G01 X49.9894 Y23.8370 
G01 X50.0910 Y23.9386 
G01 X50.2092 Y24.0175 
G01 X50.1720 Y23.9986 
G01 X50.0787 Y23.9308 
G00 Z2.5400 
G00 X50.4983 Y24.1046 
G01 Z-0.1778 F254.00 
G01 X50.3844 Y24.0866 F508.00 
G01 X50.3448 Y24.0737 
G01 X50.4842 Y24.1014 
G01 X50.8314 Y24.1014 
G01 X50.8314 Y24.1046 
G01 X50.4983 Y24.1046 
G00 Z2.5400 
G00 X51.8217 Y24.1046 
G01 Z-0.1778 F254.00 
G01 X51.4886 Y24.1046 F508.00 
G01 X51.4886 Y24.1014 
G01 X51.8358 Y24.1014 
G01 X51.9752 Y24.0737 
G01 X51.9356 Y24.0866 
G01 X51.8217 Y24.1046 
G00 Z2.5400 
G00 X52.2413 Y23.9308 
G01 Z-0.1778 F254.00 
G01 X52.1480 Y23.9986 F508.00 
G01 X52.1108 Y24.0175 
G01 X52.2290 Y23.9386 
G01 X52.3306 Y23.8370 
G01 X52.4095 Y23.7188 
G01 X52.3906 Y23.7560 
G01 X52.3228 Y23.8493 
G01 X52.2413 Y23.9308 
G00 Z2.5400 
G00 X52.4174 Y23.7006 
G01 Z-0.1778 F254.00 
G01 X52.4188 Y23.7006 F508.00 
G01 X52.4113 Y23.7153 
G01 X52.4174 Y23.7006 
G00 Z2.5400 
G00 X51.9789 Y24.0725 
G01 Z-0.1778 F254.00 
G01 X52.1073 Y24.0193 F508.00 
G01 X52.0452 Y24.0509 
G01 X51.9789 Y24.0725 
G00 Z2.5400 
G00 X50.2127 Y24.0193 
G01 Z-0.1778 F254.00 
G01 X50.3411 Y24.0725 F508.00 
G01 X50.2748 Y24.0509 
G01 X50.2127 Y24.0193 
G00 Z2.5400 
G00 X49.9972 Y22.8947 
G01 Z-0.1778 F254.00 
G01 X50.0787 Y22.8132 F508.00 
G01 X50.1720 Y22.7454 
G01 X50.2092 Y22.7265 
G01 X50.0910 Y22.8054 
G01 X49.9894 Y22.9070 
G01 X49.9105 Y23.0252 
G01 X49.9294 Y22.9880 
G01 X49.9972 Y22.8947 
G00 Z2.5400 
G00 X50.3411 Y22.6715 
G01 Z-0.1778 F254.00 
G01 X50.2127 Y22.7247 F508.00 
G01 X50.2748 Y22.6931 
G01 X50.3411 Y22.6715 
G00 Z2.5400 
G00 X52.1073 Y22.7247 
G01 Z-0.1778 F254.00 
G01 X51.9789 Y22.6715 F508.00 
G01 X52.0452 Y22.6931 
G01 X52.1073 Y22.7247 
G00 Z2.5400 
G00 X42.1914 Y7.6689 
G01 Z-0.1778 F254.00 
G01 X42.1914 Y7.3591 F508.00 
G01 X42.3099 Y7.0730 
G01 X42.5290 Y6.8539 
G01 X42.8151 Y6.7354 
G01 X44.3329 Y6.7354 
G01 X44.6190 Y6.8539 
G01 X44.8381 Y7.0730 
G01 X44.9566 Y7.3591 
G01 X44.9566 Y7.6689 
G01 X44.8381 Y7.9550 
G01 X44.6190 Y8.1741 
G01 X44.3329 Y8.2926 
G01 X42.8151 Y8.2926 
G01 X42.5290 Y8.1741 
G01 X42.3099 Y7.9550 
G01 X42.1914 Y7.6689 
G00 Z2.5400 
G00 X42.8982 Y8.2434 
G01 Z-0.1778 F254.00 
G01 X44.2498 Y8.2434 F508.00 
G01 X44.3908 Y8.2154 
G01 X44.5235 Y8.1604 
G01 X44.6430 Y8.0806 
G01 X44.7446 Y7.9790 
G01 X44.8244 Y7.8595 
G01 X44.8794 Y7.7268 
G01 X44.9074 Y7.5858 
G01 X44.9074 Y7.4422 
G01 X44.8794 Y7.3012 
G01 X44.8244 Y7.1685 
G01 X44.7446 Y7.0490 
G01 X44.6430 Y6.9474 
G01 X44.5235 Y6.8676 
G01 X44.3908 Y6.8126 
G01 X44.2498 Y6.7846 
G01 X42.8982 Y6.7846 
G01 X42.7572 Y6.8126 
G01 X42.6245 Y6.8676 
G01 X42.5050 Y6.9474 
G01 X42.4034 Y7.0490 
G01 X42.3236 Y7.1685 
G01 X42.2686 Y7.3012 
G01 X42.2406 Y7.4422 
G01 X42.2406 Y7.5858 
G01 X42.2686 Y7.7268 
G01 X42.3236 Y7.8595 
G01 X42.4034 Y7.9790 
G01 X42.5050 Y8.0806 
G01 X42.6245 Y8.1604 
G01 X42.7572 Y8.2154 
G01 X42.8982 Y8.2434 
G00 Z2.5400 
G00 X59.4613 Y36.4013 
G01 Z-0.1778 F254.00 
G01 X59.5145 Y36.2729 F508.00 
G01 X59.4929 Y36.3392 
G01 X59.4613 Y36.4013 
G00 Z2.5400 
G00 X59.5145 Y34.6351 
G01 Z-0.1778 F254.00 
G01 X59.4613 Y34.5067 F508.00 
G01 X59.4929 Y34.5688 
G01 X59.5145 Y34.6351 
G00 Z2.5400 
G00 X59.2913 Y34.2912 
G01 Z-0.1778 F254.00 
G01 X59.3728 Y34.3727 F508.00 
G01 X59.4406 Y34.4660 
G01 X59.4595 Y34.5032 
G01 X59.3806 Y34.3850 
G01 X59.2790 Y34.2834 
G01 X59.1608 Y34.2045 
G01 X59.1980 Y34.2234 
G01 X59.2913 Y34.2912 
G00 Z2.5400 
G00 X58.1667 Y34.5067 
G01 Z-0.1778 F254.00 
G01 X58.1135 Y34.6351 F508.00 
G01 X58.1351 Y34.5688 
G01 X58.1667 Y34.5067 
G00 Z2.5400 
G00 X58.1135 Y36.2729 
G01 Z-0.1778 F254.00 
G01 X58.1667 Y36.4013 F508.00 
G01 X58.1351 Y36.3392 
G01 X58.1135 Y36.2729 
G00 Z2.5400 
G00 X58.0814 Y36.1157 
G01 Z-0.1778 F254.00 
G01 X58.0814 Y35.7826 F508.00 
G01 X58.0846 Y35.7826 
G01 X58.0846 Y36.1298 
G01 X58.1123 Y36.2692 
G01 X58.0994 Y36.2296 
G01 X58.0814 Y36.1157 
G00 Z2.5400 
G00 X58.0814 Y34.7923 
G01 Z-0.1778 F254.00 
G01 X58.0994 Y34.6784 F508.00 
G01 X58.1123 Y34.6388 
G01 X58.0846 Y34.7782 
G01 X58.0846 Y35.1254 
G01 X58.0814 Y35.1254 
G01 X58.0814 Y34.7923 
G00 Z2.5400 
G00 X58.2552 Y34.3727 
G01 Z-0.1778 F254.00 
G01 X58.3367 Y34.2912 F508.00 
G01 X58.4300 Y34.2234 
G01 X58.4672 Y34.2045 
G01 X58.3490 Y34.2834 
G01 X58.2474 Y34.3850 
G01 X58.1685 Y34.5032 
G01 X58.1874 Y34.4660 
G01 X58.2552 Y34.3727 
G00 Z2.5400 
G00 X58.4854 Y34.1966 
G01 Z-0.1778 F254.00 
G01 X58.4707 Y34.2027 F508.00 
G00 Z2.5400 
G00 X59.1573 Y34.2027 
G01 Z-0.1778 F254.00 
G01 X59.1426 Y34.1966 F508.00 
G01 X59.1426 Y34.1952 
G01 X59.1573 Y34.2027 
G00 Z2.5400 
G00 X59.5466 Y34.7923 
G01 Z-0.1778 F254.00 
G01 X59.5466 Y35.1254 F508.00 
G01 X59.5434 Y35.1254 
G01 X59.5434 Y34.7782 
G01 X59.5157 Y34.6388 
G01 X59.5286 Y34.6784 
G01 X59.5466 Y34.7923 
G00 Z2.5400 
G00 X59.5466 Y36.1157 
G01 Z-0.1778 F254.00 
G01 X59.5286 Y36.2296 F508.00 
G01 X59.5157 Y36.2692 
G01 X59.5434 Y36.1298 
G01 X59.5434 Y35.7826 
G01 X59.5466 Y35.7826 
G01 X59.5466 Y36.1157 
G00 Z2.5400 
G00 X38.9487 Y5.9404 
G01 Z-0.1778 F254.00 
G01 X38.4946 Y5.4863 F508.00 
G01 X38.4946 Y5.4800 
G01 X38.6211 Y5.4800 
G01 X38.6821 Y5.4637 
G01 X38.6765 Y5.4843 
G01 X38.6765 Y5.5709 
G01 X38.6980 Y5.6509 
G01 X38.6989 Y5.6544 
G01 X38.7422 Y5.7294 
G01 X38.8034 Y5.7905 
G01 X38.9532 Y5.9404 
G01 X38.9487 Y5.9404 
G00 Z2.5400 
G00 X38.4946 Y7.0562 
G01 Z-0.1778 F254.00 
G01 X38.4946 Y7.0517 F508.00 
G01 X38.9487 Y6.5976 
G01 X38.9532 Y6.5976 
G01 X38.4946 Y7.0562 
G00 Z2.5400 
G00 X67.5030 Y30.9406 
G01 Z-0.1778 F254.00 
G01 X67.6046 Y30.8390 F508.00 
G01 X67.6835 Y30.7208 
G01 X67.6646 Y30.7580 
G01 X67.5968 Y30.8513 
G01 X67.5153 Y30.9328 
G01 X67.4220 Y31.0006 
G01 X67.3848 Y31.0195 
G01 X67.5030 Y30.9406 
G00 Z2.5400 
G00 X67.6853 Y30.7173 
G01 Z-0.1778 F254.00 
G01 X67.6914 Y30.7026 F508.00 
G01 X67.6928 Y30.7026 
G01 X67.6853 Y30.7173 
G00 Z2.5400 
G00 X67.6914 Y30.0454 
G01 Z-0.1778 F254.00 
G01 X67.6853 Y30.0307 F508.00 
G00 Z2.5400 
G00 X65.3650 Y29.8074 
G01 Z-0.1778 F254.00 
G01 X65.2634 Y29.9090 F508.00 
G01 X65.1836 Y30.0285 
G01 X65.1286 Y30.1612 
G01 X65.1006 Y30.3022 
G01 X65.1006 Y30.4458 
G01 X65.1286 Y30.5868 
G01 X65.1836 Y30.7195 
G01 X65.2634 Y30.8390 
G01 X65.3650 Y30.9406 
G01 X65.4832 Y31.0195 
G01 X65.4460 Y31.0006 
G01 X65.3527 Y30.9328 
G01 X65.2712 Y30.8513 
G01 X65.2444 Y30.8143 
G01 X65.2313 Y30.7918 
G01 X65.2190 Y30.7795 
G01 X65.2088 Y30.7654 
G01 X65.1886 Y30.7490 
G01 X65.1702 Y30.7306 
G01 X65.1551 Y30.7219 
G01 X65.1416 Y30.7109 
G01 X65.1178 Y30.7003 
G01 X65.0952 Y30.6873 
G01 X65.0784 Y30.6828 
G01 X65.0625 Y30.6757 
G01 X65.0368 Y30.6717 
G01 X65.0117 Y30.6649 
G01 X64.9943 Y30.6649 
G01 X64.9771 Y30.6622 
G01 X64.9512 Y30.6649 
G01 X64.9251 Y30.6649 
G01 X64.9083 Y30.6694 
G01 X64.8910 Y30.6712 
G01 X64.8667 Y30.6806 
G01 X64.8416 Y30.6873 
G01 X64.8265 Y30.6960 
G01 X64.8103 Y30.7022 
G01 X64.7892 Y30.7176 
G01 X64.7666 Y30.7306 
G01 X64.7543 Y30.7429 
G01 X64.7403 Y30.7531 
G01 X64.7239 Y30.7733 
G01 X64.7054 Y30.7918 
G01 X64.6968 Y30.8068 
G01 X64.6858 Y30.8203 
G01 X64.6752 Y30.8441 
G01 X64.6622 Y30.8667 
G01 X64.6577 Y30.8835 
G01 X64.6506 Y30.8994 
G01 X64.6465 Y30.9251 
G01 X64.6398 Y30.9503 
G01 X64.6398 Y30.9677 
G01 X64.6371 Y30.9848 
G01 X64.6398 Y31.0107 
G01 X64.6398 Y32.2530 
G01 X64.6612 Y32.3331 
G01 X64.6622 Y32.3366 
G01 X64.7054 Y32.4115 
G01 X64.7666 Y32.4727 
G01 X64.8416 Y32.5160 
G01 X64.9251 Y32.5384 
G01 X65.0117 Y32.5384 
G01 X65.0917 Y32.5169 
G01 X65.0952 Y32.5160 
G01 X65.1702 Y32.4727 
G01 X65.2313 Y32.4115 
G01 X65.3890 Y32.2539 
G01 X65.6751 Y32.1354 
G01 X67.1929 Y32.1354 
G01 X67.4790 Y32.2539 
G01 X67.6981 Y32.4730 
G01 X67.8166 Y32.7591 
G01 X67.8166 Y33.0689 
G01 X67.6981 Y33.3550 
G01 X67.4790 Y33.5741 
G01 X67.1929 Y33.6926 
G01 X65.6751 Y33.6926 
G01 X65.3890 Y33.5741 
G01 X65.1563 Y33.3414 
G01 X65.1431 Y33.3242 
G01 X65.1259 Y33.3110 
G01 X65.1105 Y33.2956 
G01 X65.0917 Y33.2847 
G01 X65.0744 Y33.2715 
G01 X65.0544 Y33.2632 
G01 X65.0356 Y33.2523 
G01 X65.0146 Y33.2467 
G01 X64.9945 Y33.2384 
G01 X64.9730 Y33.2356 
G01 X64.9520 Y33.2300 
G01 X64.9303 Y33.2300 
G01 X64.9087 Y33.2271 
G01 X64.8872 Y33.2300 
G01 X64.8655 Y33.2300 
G01 X64.8445 Y33.2356 
G01 X64.8229 Y33.2384 
G01 X64.8029 Y33.2467 
G01 X64.7819 Y33.2523 
G01 X64.7631 Y33.2632 
G01 X64.7430 Y33.2715 
G01 X64.7258 Y33.2847 
G01 X64.7070 Y33.2956 
G01 X64.6916 Y33.3110 
G01 X64.6744 Y33.3242 
G01 X64.6611 Y33.3414 
G01 X64.6458 Y33.3568 
G01 X64.6349 Y33.3756 
G01 X64.6217 Y33.3928 
G01 X64.6134 Y33.4129 
G01 X64.6025 Y33.4317 
G01 X64.5969 Y33.4527 
G01 X64.5823 Y33.4880 
G01 X60.5339 Y37.5364 
G01 X60.4120 Y37.6583 
G01 X60.2731 Y37.7158 
G01 X52.7568 Y37.7158 
G01 X52.6180 Y37.6583 
G01 X51.8357 Y36.8760 
G01 X51.8225 Y36.8588 
G01 X51.8053 Y36.8456 
G01 X51.7899 Y36.8302 
G01 X51.7711 Y36.8193 
G01 X51.7539 Y36.8061 
G01 X51.7338 Y36.7978 
G01 X51.7150 Y36.7869 
G01 X51.6940 Y36.7813 
G01 X51.6739 Y36.7730 
G01 X51.6524 Y36.7702 
G01 X51.6314 Y36.7646 
G01 X51.6097 Y36.7646 
G01 X51.5882 Y36.7617 
G01 X51.5666 Y36.7646 
G01 X51.5449 Y36.7646 
G01 X51.5239 Y36.7702 
G01 X51.5024 Y36.7730 
G01 X51.4823 Y36.7813 
G01 X51.4613 Y36.7869 
G01 X51.4425 Y36.7978 
G01 X51.3489 Y36.8366 
G01 X51.0391 Y36.8366 
G01 X50.7530 Y36.7181 
G01 X50.5339 Y36.4990 
G01 X50.4154 Y36.2129 
G01 X50.4154 Y34.6951 
G01 X50.5339 Y34.4090 
G01 X50.7530 Y34.1899 
G01 X51.0391 Y34.0714 
G01 X51.3489 Y34.0714 
G01 X51.6350 Y34.1899 
G01 X51.8541 Y34.4090 
G01 X51.9726 Y34.6951 
G01 X51.9726 Y35.8515 
G01 X51.9950 Y35.9350 
G01 X52.0383 Y36.0100 
G01 X52.0443 Y36.0160 
G01 X52.3639 Y36.3356 
G01 X52.4190 Y36.3907 
G01 X52.4250 Y36.3967 
G01 X52.4977 Y36.4387 
G01 X52.5835 Y36.4624 
G01 X52.6701 Y36.4624 
G01 X52.6736 Y36.4614 
G01 X52.7536 Y36.4400 
G01 X52.8269 Y36.3977 
G01 X52.8897 Y36.3356 
G01 X52.9317 Y36.2629 
G01 X52.9554 Y36.1771 
G01 X52.9554 Y34.6951 
G01 X53.0739 Y34.4090 
G01 X53.2930 Y34.1899 
G01 X53.5791 Y34.0714 
G01 X53.8889 Y34.0714 
G01 X54.1750 Y34.1899 
G01 X54.3941 Y34.4090 
G01 X54.5126 Y34.6951 
G01 X54.5126 Y36.2129 
G01 X54.3995 Y36.4859 
G01 X54.3886 Y36.5048 
G01 X54.3830 Y36.5258 
G01 X54.3747 Y36.5458 
G01 X54.3719 Y36.5673 
G01 X54.3662 Y36.5883 
G01 X54.3662 Y36.6101 
G01 X54.3634 Y36.6316 
G01 X54.3662 Y36.6531 
G01 X54.3662 Y36.6749 
G01 X54.3719 Y36.6959 
G01 X54.3747 Y36.7174 
G01 X54.3830 Y36.7374 
G01 X54.3886 Y36.7584 
G01 X54.3995 Y36.7773 
G01 X54.4078 Y36.7973 
G01 X54.4210 Y36.8145 
G01 X54.4319 Y36.8334 
G01 X54.4472 Y36.8487 
G01 X54.4605 Y36.8660 
G01 X54.4777 Y36.8792 
G01 X54.4931 Y36.8945 
G01 X54.5119 Y36.9054 
G01 X54.5291 Y36.9186 
G01 X54.5492 Y36.9269 
G01 X54.5680 Y36.9378 
G01 X54.5890 Y36.9434 
G01 X54.6090 Y36.9517 
G01 X54.6306 Y36.9546 
G01 X54.6516 Y36.9602 
G01 X54.6733 Y36.9602 
G01 X54.6948 Y36.9630 
G01 X54.7164 Y36.9602 
G01 X55.2916 Y36.9602 
G01 X55.3132 Y36.9630 
G01 X55.3347 Y36.9602 
G01 X55.3564 Y36.9602 
G01 X55.3774 Y36.9546 
G01 X55.3989 Y36.9517 
G01 X55.4190 Y36.9434 
G01 X55.4400 Y36.9378 
G01 X55.4588 Y36.9269 
G01 X55.4789 Y36.9186 
G01 X55.4961 Y36.9054 
G01 X55.5149 Y36.8945 
G01 X55.5303 Y36.8792 
G01 X55.5475 Y36.8660 
G01 X55.5608 Y36.8487 
G01 X55.5761 Y36.8334 
G01 X55.5870 Y36.8145 
G01 X55.6002 Y36.7973 
G01 X55.6085 Y36.7773 
G01 X55.6194 Y36.7584 
G01 X55.6250 Y36.7374 
G01 X55.6333 Y36.7174 
G01 X55.6361 Y36.6959 
G01 X55.6418 Y36.6749 
G01 X55.6418 Y36.6531 
G01 X55.6446 Y36.6316 
G01 X55.6418 Y36.6101 
G01 X55.6418 Y36.5883 
G01 X55.6361 Y36.5673 
G01 X55.6333 Y36.5458 
G01 X55.6250 Y36.5258 
G01 X55.6194 Y36.5048 
G01 X55.6085 Y36.4859 
G01 X55.4954 Y36.2129 
G01 X55.4954 Y34.6951 
G01 X55.6139 Y34.4090 
G01 X55.8330 Y34.1899 
G01 X56.1191 Y34.0714 
G01 X56.4289 Y34.0714 
G01 X56.7150 Y34.1899 
G01 X56.9341 Y34.4090 
G01 X57.0526 Y34.6951 
G01 X57.0526 Y36.2129 
G01 X56.9395 Y36.4859 
G01 X56.9286 Y36.5048 
G01 X56.9230 Y36.5258 
G01 X56.9147 Y36.5458 
G01 X56.9119 Y36.5673 
G01 X56.9062 Y36.5883 
G01 X56.9062 Y36.6101 
G01 X56.9034 Y36.6316 
G01 X56.9062 Y36.6531 
G01 X56.9062 Y36.6749 
G01 X56.9119 Y36.6959 
G01 X56.9147 Y36.7174 
G01 X56.9230 Y36.7374 
G01 X56.9286 Y36.7584 
G01 X56.9395 Y36.7773 
G01 X56.9478 Y36.7973 
G01 X56.9610 Y36.8145 
G01 X56.9719 Y36.8334 
G01 X56.9872 Y36.8487 
G01 X57.0005 Y36.8660 
G01 X57.0177 Y36.8792 
G01 X57.0331 Y36.8945 
G01 X57.0519 Y36.9054 
G01 X57.0691 Y36.9186 
G01 X57.0892 Y36.9269 
G01 X57.1080 Y36.9378 
G01 X57.1290 Y36.9434 
G01 X57.1490 Y36.9517 
G01 X57.1706 Y36.9546 
G01 X57.1916 Y36.9602 
G01 X57.2133 Y36.9602 
G01 X57.2348 Y36.9630 
G01 X57.2564 Y36.9602 
G01 X57.8932 Y36.9602 
G01 X57.9104 Y36.9629 
G01 X57.9363 Y36.9602 
G01 X57.9623 Y36.9602 
G01 X57.9791 Y36.9557 
G01 X57.9964 Y36.9539 
G01 X58.0207 Y36.9445 
G01 X58.0459 Y36.9378 
G01 X58.0609 Y36.9291 
G01 X58.0772 Y36.9229 
G01 X58.0983 Y36.9076 
G01 X58.1208 Y36.8945 
G01 X58.1331 Y36.8822 
G01 X58.1472 Y36.8720 
G01 X58.1636 Y36.8518 
G01 X58.1820 Y36.8334 
G01 X58.1907 Y36.8183 
G01 X58.2016 Y36.8047 
G01 X58.2122 Y36.7810 
G01 X58.2252 Y36.7584 
G01 X58.2297 Y36.7416 
G01 X58.2368 Y36.7257 
G01 X58.2409 Y36.7000 
G01 X58.2476 Y36.6749 
G01 X58.2476 Y36.6574 
G01 X58.2504 Y36.6403 
G01 X58.2476 Y36.6144 
G01 X58.2476 Y36.5883 
G01 X58.2431 Y36.5715 
G01 X58.2413 Y36.5542 
G01 X58.2320 Y36.5299 
G01 X58.2252 Y36.5048 
G01 X58.2165 Y36.4897 
G01 X58.2103 Y36.4734 
G01 X58.1950 Y36.4524 
G01 X58.1820 Y36.4298 
G01 X58.1685 Y36.4048 
G01 X58.2474 Y36.5230 
G01 X58.3490 Y36.6246 
G01 X58.4685 Y36.7044 
G01 X58.6012 Y36.7594 
G01 X58.7422 Y36.7874 
G01 X58.8858 Y36.7874 
G01 X59.0268 Y36.7594 
G01 X59.1595 Y36.7044 
G01 X59.2790 Y36.6246 
G01 X59.3806 Y36.5230 
G01 X59.4595 Y36.4048 
G01 X59.4475 Y36.4283 
G01 X59.4330 Y36.4524 
G01 X59.4177 Y36.4734 
G01 X59.4115 Y36.4897 
G01 X59.4028 Y36.5048 
G01 X59.3960 Y36.5299 
G01 X59.3867 Y36.5542 
G01 X59.3849 Y36.5715 
G01 X59.3804 Y36.5883 
G01 X59.3804 Y36.6144 
G01 X59.3776 Y36.6403 
G01 X59.3804 Y36.6574 
G01 X59.3804 Y36.6749 
G01 X59.3871 Y36.7000 
G01 X59.3912 Y36.7257 
G01 X59.3983 Y36.7416 
G01 X59.4028 Y36.7584 
G01 X59.4158 Y36.7810 
G01 X59.4264 Y36.8047 
G01 X59.4373 Y36.8183 
G01 X59.4460 Y36.8334 
G01 X59.4644 Y36.8518 
G01 X59.4808 Y36.8720 
G01 X59.4949 Y36.8822 
G01 X59.5072 Y36.8945 
G01 X59.5297 Y36.9076 
G01 X59.5508 Y36.9229 
G01 X59.5671 Y36.9291 
G01 X59.5821 Y36.9378 
G01 X59.6073 Y36.9445 
G01 X59.6316 Y36.9539 
G01 X59.6489 Y36.9557 
G01 X59.6657 Y36.9602 
G01 X59.6917 Y36.9602 
G01 X59.7176 Y36.9629 
G01 X59.7348 Y36.9602 
G01 X59.9487 Y36.9602 
G01 X60.0322 Y36.9378 
G01 X60.1072 Y36.8945 
G01 X60.1683 Y36.8334 
G01 X63.8185 Y33.1832 
G01 X63.8618 Y33.1082 
G01 X63.8842 Y33.0247 
G01 X63.8842 Y16.5053 
G01 X63.8618 Y16.4218 
G01 X63.8185 Y16.3468 
G01 X63.7574 Y16.2857 
G01 X63.1552 Y15.6835 
G01 X63.0802 Y15.6402 
G01 X62.9967 Y15.6178 
G01 X56.5668 Y15.6178 
G01 X56.4280 Y15.5603 
G01 X56.2449 Y15.3772 
G01 X53.0197 Y12.1520 
G01 X52.9622 Y12.0131 
G01 X52.9622 Y10.1553 
G01 X52.9398 Y10.0718 
G01 X52.8965 Y9.9968 
G01 X47.9152 Y5.0155 
G01 X47.8402 Y4.9722 
G01 X47.7567 Y4.9498 
G01 X40.1239 Y4.9498 
G01 X40.0403 Y4.9722 
G01 X39.9654 Y5.0155 
G01 X39.9042 Y5.0766 
G01 X39.7819 Y5.1990 
G01 X38.9618 Y5.1990 
G01 X38.9009 Y5.2153 
G01 X38.9064 Y5.1947 
G01 X38.9064 Y5.1081 
G01 X38.8850 Y5.0281 
G01 X38.8840 Y5.0246 
G01 X38.8408 Y4.9496 
G01 X38.7796 Y4.8885 
G01 X38.6010 Y4.7099 
G01 X38.6010 Y4.0181 
G01 X38.6600 Y3.9591 
G01 X38.6630 Y3.9562 
G01 X38.6807 Y3.9254 
G01 X38.7062 Y3.8812 
G01 X38.7286 Y3.7977 
G01 X38.7286 Y3.7111 
G01 X38.7229 Y3.6897 
G01 X38.7062 Y3.6276 
G01 X38.6630 Y3.5526 
G01 X38.6018 Y3.4915 
G01 X38.5711 Y3.4737 
G01 X38.5269 Y3.4482 
G01 X38.4433 Y3.4258 
G01 X37.8887 Y3.4258 
G01 X37.8051 Y3.4482 
G01 X37.7628 Y3.4726 
G01 X37.7302 Y3.4915 
G01 X37.6690 Y3.5526 
G01 X37.6258 Y3.6276 
G01 X37.6096 Y3.6878 
G01 X37.6034 Y3.7111 
G01 X37.6034 Y3.7977 
G01 X37.6258 Y3.8812 
G01 X37.6502 Y3.9235 
G01 X37.6690 Y3.9562 
G01 X37.7302 Y4.0173 
G01 X37.7310 Y4.7099 
G01 X37.5524 Y4.8885 
G01 X37.4969 Y4.9439 
G01 X37.4912 Y4.9496 
G01 X37.4493 Y5.0223 
G01 X37.4256 Y5.1081 
G01 X37.4256 Y5.1947 
G01 X37.4265 Y5.1982 
G01 X37.4480 Y5.2782 
G01 X37.4903 Y5.3515 
G01 X37.5524 Y5.4143 
G01 X37.6251 Y5.4563 
G01 X37.7109 Y5.4800 
G01 X37.8374 Y5.4800 
G01 X37.8374 Y5.4863 
G01 X37.3802 Y5.9435 
G01 X37.3802 Y6.5945 
G01 X37.8374 Y7.0517 
G01 X37.8374 Y7.0562 
G01 X37.8042 Y7.0230 
G01 X37.7292 Y6.9797 
G01 X37.6457 Y6.9573 
G01 X37.5591 Y6.9573 
G01 X37.5299 Y6.9652 
G01 X37.4756 Y6.9797 
G01 X37.4571 Y6.9903 
G01 X37.4006 Y7.0230 
G01 X37.3395 Y7.0841 
G01 X37.2962 Y7.1591 
G01 X37.2738 Y7.2426 
G01 X37.2738 Y7.9721 
G01 X37.2962 Y8.0557 
G01 X37.3394 Y8.1306 
G01 X37.4006 Y8.1918 
G01 X37.8050 Y8.5961 
G01 X37.8050 Y8.7349 
G01 X37.8274 Y8.8184 
G01 X37.8707 Y8.8934 
G01 X37.9318 Y8.9545 
G01 X38.0068 Y8.9978 
G01 X38.0903 Y9.0202 
G01 X38.3897 Y9.0202 
G01 X38.4732 Y8.9978 
G01 X38.5482 Y8.9545 
G01 X38.6093 Y8.8934 
G01 X38.6526 Y8.8184 
G01 X38.6750 Y8.7349 
G01 X38.6750 Y8.5961 
G01 X39.1641 Y8.1070 
G01 X39.8559 Y8.1070 
G01 X40.3450 Y8.5961 
G01 X40.3450 Y8.9839 
G01 X40.3674 Y9.0674 
G01 X40.4107 Y9.1424 
G01 X40.4301 Y9.1618 
G01 X41.5999 Y10.3316 
G01 X41.6416 Y10.3733 
G01 X41.6610 Y10.3928 
G01 X41.7360 Y10.4360 
G01 X41.8195 Y10.4584 
G01 X41.9061 Y10.4584 
G01 X41.9896 Y10.4360 
G01 X42.0646 Y10.3928 
G01 X42.1257 Y10.3316 
G01 X42.1690 Y10.2566 
G01 X42.1914 Y10.1731 
G01 X42.1914 Y9.8991 
G01 X42.3099 Y9.6130 
G01 X42.5290 Y9.3939 
G01 X42.8151 Y9.2754 
G01 X44.3329 Y9.2754 
G01 X44.6190 Y9.3939 
G01 X44.8381 Y9.6130 
G01 X44.9566 Y9.8991 
G01 X44.9566 Y10.2089 
G01 X44.8381 Y10.4950 
G01 X44.8121 Y10.5210 
G01 X44.7841 Y10.5689 
G01 X44.7680 Y10.5968 
G01 X44.7526 Y10.6544 
G01 X44.7456 Y10.6803 
G01 X44.7456 Y10.7231 
G01 X44.7456 Y10.7668 
G01 X44.7680 Y10.8504 
G01 X44.7902 Y10.8889 
G01 X44.8113 Y10.9254 
G01 X44.8715 Y10.9856 
G01 X44.9195 Y11.0137 
G01 X44.9474 Y11.0298 
G01 X45.0050 Y11.0452 
G01 X45.0309 Y11.0522 
G01 X45.0737 Y11.0522 
G01 X45.1175 Y11.0522 
G01 X46.9131 Y11.0522 
G01 X47.0520 Y11.1097 
G01 X47.2062 Y11.2639 
G01 X49.1859 Y13.2436 
G01 X49.2147 Y13.2725 
G01 X49.2470 Y13.3048 
G01 X49.3220 Y13.3480 
G01 X49.4055 Y13.3704 
G01 X49.4921 Y13.3704 
G01 X49.5756 Y13.3480 
G01 X49.6506 Y13.3048 
G01 X49.7117 Y13.2436 
G01 X49.7550 Y13.1686 
G01 X49.7774 Y13.0851 
G01 X49.7774 Y13.0571 
G01 X49.8959 Y12.7710 
G01 X50.1150 Y12.5519 
G01 X50.4011 Y12.4334 
G01 X51.9189 Y12.4334 
G01 X52.2050 Y12.5519 
G01 X52.4241 Y12.7710 
G01 X52.5426 Y13.0571 
G01 X52.5426 Y13.3669 
G01 X52.4241 Y13.6530 
G01 X52.2050 Y13.8721 
G01 X51.9189 Y13.9906 
G01 X50.6829 Y13.9906 
G01 X50.5994 Y14.0130 
G01 X50.5244 Y14.0563 
G01 X50.4632 Y14.1174 
G01 X50.4200 Y14.1924 
G01 X50.3976 Y14.2759 
G01 X50.3976 Y14.3625 
G01 X50.4200 Y14.4460 
G01 X50.4632 Y14.5210 
G01 X50.5244 Y14.5821 
G01 X50.8500 Y14.9077 
G01 X50.9250 Y14.9510 
G01 X51.0085 Y14.9734 
G01 X51.9189 Y14.9734 
G01 X52.2050 Y15.0919 
G01 X52.4241 Y15.3110 
G01 X52.5426 Y15.5971 
G01 X52.5426 Y15.9069 
G01 X52.4241 Y16.1930 
G01 X52.2050 Y16.4121 
G01 X51.9189 Y16.5306 
G01 X50.4011 Y16.5306 
G01 X50.1150 Y16.4121 
G01 X49.8959 Y16.1930 
G01 X49.7774 Y15.9069 
G01 X49.7774 Y15.5971 
G01 X49.8882 Y15.3295 
G01 X49.8991 Y15.3107 
G01 X49.9047 Y15.2898 
G01 X49.9130 Y15.2697 
G01 X49.9159 Y15.2481 
G01 X49.9215 Y15.2271 
G01 X49.9215 Y15.2054 
G01 X49.9243 Y15.1839 
G01 X49.9215 Y15.1624 
G01 X49.9215 Y15.1406 
G01 X49.9159 Y15.1196 
G01 X49.9130 Y15.0981 
G01 X49.9047 Y15.0780 
G01 X49.8991 Y15.0571 
G01 X49.8882 Y15.0382 
G01 X49.8799 Y15.0182 
G01 X49.8667 Y15.0009 
G01 X49.8558 Y14.9821 
G01 X49.8405 Y14.9668 
G01 X49.8272 Y14.9495 
G01 X49.8100 Y14.9363 
G01 X46.7472 Y11.8735 
G01 X46.6722 Y11.8302 
G01 X46.5887 Y11.8078 
G01 X45.3501 Y11.8078 
G01 X45.2708 Y11.8290 
G01 X45.2666 Y11.8302 
G01 X45.1916 Y11.8735 
G01 X45.1444 Y11.9207 
G01 X45.1304 Y11.9346 
G01 X45.1087 Y11.9723 
G01 X45.0872 Y12.0096 
G01 X45.0690 Y12.0775 
G01 X45.0648 Y12.0931 
G01 X45.0648 Y12.1797 
G01 X45.0860 Y12.2590 
G01 X45.0872 Y12.2632 
G01 X45.1305 Y12.3382 
G01 X45.1916 Y12.3993 
G01 X45.2102 Y12.4179 
G01 X47.5643 Y14.7720 
G01 X47.6218 Y14.9108 
G01 X47.6218 Y16.2607 
G01 X47.6442 Y16.3442 
G01 X47.6875 Y16.4192 
G01 X47.7486 Y16.4803 
G01 X49.1128 Y17.8445 
G01 X49.1878 Y17.8878 
G01 X49.2713 Y17.9102 
G01 X49.7438 Y17.9102 
G01 X49.8274 Y17.8878 
G01 X49.9023 Y17.8445 
G01 X49.9635 Y17.7834 
G01 X50.1150 Y17.6319 
G01 X50.4011 Y17.5134 
G01 X51.9189 Y17.5134 
G01 X52.2050 Y17.6319 
G01 X52.4241 Y17.8510 
G01 X52.5426 Y18.1371 
G01 X52.5426 Y18.4469 
G01 X52.4241 Y18.7330 
G01 X52.2050 Y18.9521 
G01 X51.9189 Y19.0706 
G01 X50.4011 Y19.0706 
G01 X50.1150 Y18.9521 
G01 X49.8943 Y18.7315 
G01 X49.8194 Y18.6882 
G01 X49.7358 Y18.6658 
G01 X48.9468 Y18.6658 
G01 X48.8080 Y18.6083 
G01 X47.0456 Y16.8459 
G01 X46.9237 Y16.7240 
G01 X46.8662 Y16.5851 
G01 X46.8662 Y15.2353 
G01 X46.8438 Y15.1518 
G01 X46.8005 Y15.0768 
G01 X46.7725 Y15.0487 
G01 X45.0432 Y13.3195 
G01 X45.0300 Y13.3022 
G01 X45.0127 Y13.2890 
G01 X44.9974 Y13.2737 
G01 X44.9786 Y13.2628 
G01 X44.9613 Y13.2496 
G01 X44.9413 Y13.2413 
G01 X44.9224 Y13.2304 
G01 X44.9014 Y13.2248 
G01 X44.8814 Y13.2165 
G01 X44.8599 Y13.2136 
G01 X44.8389 Y13.2080 
G01 X44.8171 Y13.2080 
G01 X44.7956 Y13.2052 
G01 X44.7741 Y13.2080 
G01 X44.7523 Y13.2080 
G01 X44.7314 Y13.2136 
G01 X44.7098 Y13.2165 
G01 X44.6898 Y13.2248 
G01 X44.6688 Y13.2304 
G01 X44.6500 Y13.2413 
G01 X44.3329 Y13.3726 
G01 X43.4225 Y13.3726 
G01 X43.3390 Y13.3950 
G01 X43.2640 Y13.4383 
G01 X43.2580 Y13.4443 
G01 X42.9384 Y13.7639 
G01 X42.8833 Y13.8190 
G01 X42.8772 Y13.8250 
G01 X42.8353 Y13.8977 
G01 X42.8116 Y13.9835 
G01 X42.8116 Y14.0701 
G01 X42.8125 Y14.0736 
G01 X42.8340 Y14.1536 
G01 X42.8763 Y14.2269 
G01 X42.9384 Y14.2897 
G01 X43.0111 Y14.3317 
G01 X43.0969 Y14.3554 
G01 X44.3329 Y14.3554 
G01 X44.6190 Y14.4739 
G01 X44.8381 Y14.6930 
G01 X44.9566 Y14.9791 
G01 X44.9566 Y15.2889 
G01 X44.8381 Y15.5750 
G01 X44.6190 Y15.7941 
G01 X44.3329 Y15.9126 
G01 X42.8151 Y15.9126 
G01 X42.5290 Y15.7941 
G01 X42.3099 Y15.5750 
G01 X42.1914 Y15.2889 
G01 X42.1914 Y14.8871 
G01 X42.1690 Y14.8036 
G01 X42.1257 Y14.7286 
G01 X42.0646 Y14.6675 
G01 X41.9896 Y14.6242 
G01 X41.9061 Y14.6018 
G01 X35.8093 Y14.6018 
G01 X35.7258 Y14.6242 
G01 X35.6508 Y14.6675 
G01 X35.5896 Y14.7286 
G01 X33.4880 Y16.8303 
G01 X33.3491 Y16.8878 
G01 X24.0864 Y16.8878 
G01 X24.0629 Y16.8850 
G01 X24.0433 Y16.8878 
G01 X24.0236 Y16.8878 
G01 X24.0007 Y16.8939 
G01 X23.9773 Y16.8973 
G01 X23.9591 Y16.9051 
G01 X23.9400 Y16.9102 
G01 X23.9195 Y16.9220 
G01 X23.8977 Y16.9314 
G01 X23.8822 Y16.9436 
G01 X23.8651 Y16.9535 
G01 X23.8483 Y16.9702 
G01 X23.8297 Y16.9848 
G01 X23.8179 Y17.0007 
G01 X23.8039 Y17.0146 
G01 X23.7921 Y17.0352 
G01 X23.7779 Y17.0541 
G01 X23.7705 Y17.0724 
G01 X23.7606 Y17.0896 
G01 X23.7545 Y17.1124 
G01 X23.7457 Y17.1344 
G01 X23.7434 Y17.1541 
G01 X23.7382 Y17.1731 
G01 X23.7382 Y17.1968 
G01 X23.7354 Y17.2203 
G01 X23.7382 Y17.2399 
G01 X23.7382 Y17.2597 
G01 X23.7444 Y17.2825 
G01 X23.7477 Y17.3060 
G01 X23.7555 Y17.3241 
G01 X23.7606 Y17.3432 
G01 X23.7725 Y17.3637 
G01 X23.7818 Y17.3855 
G01 X23.7940 Y17.4011 
G01 X23.8039 Y17.4182 
G01 X23.8206 Y17.4349 
G01 X23.8353 Y17.4535 
G01 X23.8511 Y17.4654 
G01 X23.8651 Y17.4793 
G01 X23.8837 Y17.4901 
G01 X23.9087 Y17.5226 
G01 X23.9323 Y17.5541 
G01 X23.9354 Y17.5566 
G01 X23.9379 Y17.5597 
G01 X23.9694 Y17.5833 
G01 X24.0003 Y17.6076 
G01 X24.0440 Y17.6640 
G01 X24.0558 Y17.6846 
G01 X24.0698 Y17.6985 
G01 X24.0816 Y17.7143 
G01 X24.1002 Y17.7290 
G01 X24.1493 Y17.7780 
G01 X24.1695 Y17.8143 
G01 X24.1884 Y17.8489 
G01 X24.1911 Y17.8517 
G01 X24.1931 Y17.8552 
G01 X24.2210 Y17.8830 
G01 X24.2481 Y17.9115 
G01 X24.2833 Y17.9735 
G01 X24.2921 Y17.9955 
G01 X24.3039 Y18.0113 
G01 X24.3134 Y18.0287 
G01 X24.3298 Y18.0458 
G01 X24.3713 Y18.1013 
G01 X24.3862 Y18.1401 
G01 X24.4000 Y18.1770 
G01 X24.4023 Y18.1803 
G01 X24.4037 Y18.1839 
G01 X24.4273 Y18.2154 
G01 X24.4502 Y18.2475 
G01 X24.4762 Y18.3139 
G01 X24.4817 Y18.3370 
G01 X24.4912 Y18.3543 
G01 X24.4981 Y18.3728 
G01 X24.5119 Y18.3921 
G01 X24.5451 Y18.4530 
G01 X24.5543 Y18.4935 
G01 X24.5627 Y18.5320 
G01 X24.5645 Y18.5355 
G01 X24.5654 Y18.5393 
G01 X24.5843 Y18.5739 
G01 X24.6023 Y18.6089 
G01 X24.6186 Y18.6783 
G01 X24.6209 Y18.7019 
G01 X24.6278 Y18.7204 
G01 X24.6320 Y18.7397 
G01 X24.6428 Y18.7608 
G01 X24.6671 Y18.8257 
G01 X24.6704 Y18.8672 
G01 X24.6732 Y18.9065 
G01 X24.6745 Y18.9102 
G01 X24.6749 Y18.9141 
G01 X24.6887 Y18.9510 
G01 X24.7015 Y18.9882 
G01 X24.7078 Y19.0593 
G01 X24.7066 Y19.0829 
G01 X24.7108 Y19.1022 
G01 X24.7122 Y19.1219 
G01 X24.7200 Y19.1443 
G01 X24.7346 Y19.2113 
G01 X24.7332 Y19.2155 
G01 X24.7314 Y19.2536 
G01 X24.7284 Y19.2917 
G01 X24.7294 Y19.2968 
G01 X24.7291 Y19.3019 
G01 X24.7372 Y19.3392 
G01 X24.7442 Y19.3768 
G01 X24.7464 Y19.3815 
G01 X24.7472 Y19.3853 
G01 X24.7421 Y19.4499 
G01 X24.7374 Y19.4743 
G01 X24.7388 Y19.4928 
G01 X24.7373 Y19.5114 
G01 X24.7418 Y19.5358 
G01 X24.7462 Y19.5964 
G01 X24.7359 Y19.6176 
G01 X24.7323 Y19.6358 
G01 X24.7261 Y19.6534 
G01 X24.7242 Y19.6781 
G01 X24.7195 Y19.7025 
G01 X24.7197 Y19.7062 
G01 X24.7190 Y19.7093 
G01 X24.7197 Y19.7354 
G01 X24.7176 Y19.7613 
G01 X24.7208 Y19.7784 
G01 X24.7213 Y19.7958 
G01 X24.7287 Y19.8208 
G01 X24.7152 Y19.8786 
G01 X24.7065 Y19.9031 
G01 X24.7051 Y19.9205 
G01 X24.7011 Y19.9374 
G01 X24.7017 Y19.9634 
G01 X24.6971 Y20.0217 
G01 X24.6820 Y20.0440 
G01 X24.6762 Y20.0604 
G01 X24.6679 Y20.0757 
G01 X24.6618 Y20.1010 
G01 X24.6531 Y20.1255 
G01 X24.6528 Y20.1289 
G01 X24.6515 Y20.1320 
G01 X24.6481 Y20.1578 
G01 X24.6420 Y20.1832 
G01 X24.6425 Y20.2006 
G01 X24.6402 Y20.2178 
G01 X24.6436 Y20.2436 
G01 X24.6213 Y20.2985 
G01 X24.6088 Y20.3214 
G01 X24.6048 Y20.3383 
G01 X24.5981 Y20.3544 
G01 X24.5947 Y20.3802 
G01 X24.5811 Y20.4371 
G01 X24.5626 Y20.4567 
G01 X24.5543 Y20.4720 
G01 X24.5437 Y20.4858 
G01 X24.5337 Y20.5099 
G01 X24.5213 Y20.5328 
G01 X24.5205 Y20.5360 
G01 X24.5188 Y20.5389 
G01 X24.5114 Y20.5639 
G01 X24.5014 Y20.5879 
G01 X24.4991 Y20.6052 
G01 X24.4942 Y20.6219 
G01 X24.4935 Y20.6479 
G01 X24.4628 Y20.6987 
G01 X24.4470 Y20.7193 
G01 X24.4403 Y20.7354 
G01 X24.4312 Y20.7502 
G01 X24.4238 Y20.7752 
G01 X24.4015 Y20.8292 
G01 X24.3801 Y20.8457 
G01 X24.3696 Y20.8595 
G01 X24.3569 Y20.8715 
G01 X24.3433 Y20.8937 
G01 X24.3275 Y20.9143 
G01 X24.3262 Y20.9175 
G01 X24.3240 Y20.9201 
G01 X24.3128 Y20.9435 
G01 X24.2992 Y20.9657 
G01 X24.2942 Y20.9824 
G01 X24.2867 Y20.9982 
G01 X24.2820 Y21.0237 
G01 X24.2437 Y21.0691 
G01 X24.2249 Y21.0870 
G01 X24.2158 Y21.1018 
G01 X24.2045 Y21.1151 
G01 X24.1933 Y21.1386 
G01 X24.1627 Y21.1884 
G01 X24.1391 Y21.2014 
G01 X24.1264 Y21.2134 
G01 X24.1121 Y21.2232 
G01 X24.0952 Y21.2430 
G01 X24.0763 Y21.2609 
G01 X24.0745 Y21.2638 
G01 X24.0720 Y21.2660 
G01 X24.0572 Y21.2875 
G01 X24.0403 Y21.3073 
G01 X24.0328 Y21.3230 
G01 X24.0230 Y21.3373 
G01 X24.0143 Y21.3619 
G01 X23.9694 Y21.4007 
G01 X23.9479 Y21.4154 
G01 X23.9366 Y21.4286 
G01 X23.9234 Y21.4399 
G01 X23.9087 Y21.4614 
G01 X23.8707 Y21.5059 
G01 X23.8453 Y21.5150 
G01 X23.8310 Y21.5248 
G01 X23.8153 Y21.5323 
G01 X23.7955 Y21.5492 
G01 X23.7740 Y21.5640 
G01 X23.7718 Y21.5665 
G01 X23.7689 Y21.5683 
G01 X23.7510 Y21.5872 
G01 X23.7312 Y21.6041 
G01 X23.7214 Y21.6184 
G01 X23.7094 Y21.6311 
G01 X23.6970 Y21.6539 
G01 X23.6466 Y21.6853 
G01 X23.6231 Y21.6965 
G01 X23.6098 Y21.7078 
G01 X23.5950 Y21.7169 
G01 X23.5771 Y21.7357 
G01 X23.5326 Y21.7737 
G01 X23.5062 Y21.7787 
G01 X23.4904 Y21.7862 
G01 X23.4737 Y21.7912 
G01 X23.4516 Y21.8048 
G01 X23.4281 Y21.8160 
G01 X23.4255 Y21.8182 
G01 X23.4223 Y21.8195 
G01 X23.4017 Y21.8353 
G01 X23.3795 Y21.8489 
G01 X23.3675 Y21.8616 
G01 X23.3537 Y21.8721 
G01 X23.3379 Y21.8928 
G01 X23.2832 Y21.9158 
G01 X23.2582 Y21.9232 
G01 X23.2434 Y21.9323 
G01 X23.2273 Y21.9390 
G01 X23.2067 Y21.9548 
G01 X23.1568 Y21.9854 
G01 X23.1299 Y21.9862 
G01 X23.1132 Y21.9911 
G01 X23.0959 Y21.9934 
G01 X23.0719 Y22.0034 
G01 X23.0469 Y22.0108 
G01 X23.0440 Y22.0125 
G01 X23.0408 Y22.0133 
G01 X23.0179 Y22.0257 
G01 X22.9938 Y22.0357 
G01 X22.9800 Y22.0463 
G01 X22.9647 Y22.0546 
G01 X22.9458 Y22.0725 
G01 X22.8882 Y22.0867 
G01 X22.8624 Y22.0901 
G01 X22.8463 Y22.0968 
G01 X22.8294 Y22.1008 
G01 X22.8065 Y22.1133 
G01 X22.7525 Y22.1357 
G01 X22.7258 Y22.1322 
G01 X22.7086 Y22.1345 
G01 X22.6912 Y22.1340 
G01 X22.6658 Y22.1401 
G01 X22.6400 Y22.1435 
G01 X22.6369 Y22.1448 
G01 X22.6335 Y22.1451 
G01 X22.6090 Y22.1538 
G01 X22.5837 Y22.1599 
G01 X22.5684 Y22.1682 
G01 X22.5520 Y22.1740 
G01 X22.5305 Y22.1887 
G01 X22.4714 Y22.1937 
G01 X22.4454 Y22.1931 
G01 X22.4285 Y22.1971 
G01 X22.4111 Y22.1985 
G01 X22.3866 Y22.2072 
G01 X22.3292 Y22.2209 
G01 X22.3044 Y22.2136 
G01 X22.3000 Y22.2135 
G01 X22.2957 Y22.2123 
G01 X22.2568 Y22.2123 
G01 X22.2179 Y22.2113 
G01 X22.2136 Y22.2123 
G01 X22.2092 Y22.2123 
G01 X22.1716 Y22.2224 
G01 X22.1396 Y22.2301 
G01 X22.0524 Y22.2301 
G01 X22.0396 Y22.2277 
G01 X22.0093 Y22.2301 
G01 X21.9790 Y22.2301 
G01 X21.9664 Y22.2335 
G01 X21.8772 Y22.2405 
G01 X21.8635 Y22.2380 
G01 X21.8342 Y22.2301 
G01 X21.8211 Y22.2301 
G01 X21.8083 Y22.2277 
G01 X21.7780 Y22.2301 
G01 X20.8641 Y22.2301 
G01 X20.7841 Y22.2515 
G01 X20.7805 Y22.2525 
G01 X20.7056 Y22.2958 
G01 X20.6444 Y22.3569 
G01 X20.6012 Y22.4319 
G01 X20.5788 Y22.5154 
G01 X20.5788 Y22.6020 
G01 X20.6002 Y22.6820 
G01 X20.6012 Y22.6855 
G01 X20.6444 Y22.7605 
G01 X20.7056 Y22.8216 
G01 X21.9769 Y24.0929 
G01 X22.0518 Y24.1362 
G01 X22.1354 Y24.1586 
G01 X32.6074 Y24.1586 
G01 X32.7836 Y24.2316 
G01 X38.3559 Y29.8040 
G01 X38.5064 Y29.9544 
G01 X38.5794 Y30.1306 
G01 X38.5794 Y31.7126 
G01 X38.6018 Y31.7961 
G01 X38.6451 Y31.8711 
G01 X38.7062 Y31.9323 
G01 X40.7729 Y33.9989 
G01 X40.8478 Y34.0422 
G01 X40.9314 Y34.0646 
G01 X42.2694 Y34.0646 
G01 X42.3530 Y34.0422 
G01 X42.3953 Y34.0178 
G01 X42.4279 Y33.9989 
G01 X42.4891 Y33.9378 
G01 X42.5324 Y33.8628 
G01 X42.5548 Y33.7793 
G01 X42.5548 Y33.6927 
G01 X42.5324 Y33.6092 
G01 X42.5080 Y33.5669 
G01 X42.4891 Y33.5342 
G01 X42.4279 Y33.4731 
G01 X42.3099 Y33.3550 
G01 X42.1914 Y33.0689 
G01 X42.1914 Y32.7591 
G01 X42.3099 Y32.4730 
G01 X42.5290 Y32.2539 
G01 X42.8151 Y32.1354 
G01 X44.3329 Y32.1354 
G01 X44.6190 Y32.2539 
G01 X44.8381 Y32.4730 
G01 X44.9566 Y32.7591 
G01 X44.9566 Y32.8634 
G01 X44.9790 Y32.9470 
G01 X45.0222 Y33.0219 
G01 X45.0834 Y33.0831 
G01 X45.1584 Y33.1263 
G01 X45.2419 Y33.1487 
G01 X45.3285 Y33.1487 
G01 X45.4120 Y33.1263 
G01 X45.4870 Y33.0831 
G01 X45.5481 Y33.0219 
G01 X49.6160 Y28.9541 
G01 X49.7664 Y28.8036 
G01 X49.9426 Y28.7306 
G01 X51.2706 Y28.7306 
G01 X51.3541 Y28.7082 
G01 X51.4291 Y28.6649 
G01 X51.4903 Y28.6038 
G01 X53.9549 Y26.1391 
G01 X53.9982 Y26.0641 
G01 X54.0206 Y25.9806 
G01 X54.0206 Y21.8306 
G01 X54.0230 Y21.8004 
G01 X54.0206 Y21.7875 
G01 X54.0206 Y21.7745 
G01 X54.0127 Y21.7452 
G01 X54.0072 Y21.7153 
G01 X54.0016 Y21.7035 
G01 X53.9982 Y21.6909 
G01 X53.9830 Y21.6646 
G01 X53.9700 Y21.6372 
G01 X53.9615 Y21.6273 
G01 X53.9549 Y21.6160 
G01 X53.9406 Y21.6016 
G01 X53.9301 Y21.5864 
G01 X53.9169 Y21.5751 
G01 X53.9056 Y21.5619 
G01 X53.8842 Y21.5471 
G01 X53.8112 Y21.4848 
G01 X53.7955 Y21.4592 
G01 X53.7892 Y21.4532 
G01 X53.7843 Y21.4460 
G01 X53.7614 Y21.4265 
G01 X53.7113 Y21.3447 
G01 X53.7000 Y21.3212 
G01 X53.6887 Y21.3079 
G01 X53.6796 Y21.2931 
G01 X53.6608 Y21.2752 
G01 X53.5985 Y21.2022 
G01 X53.5869 Y21.1745 
G01 X53.5816 Y21.1675 
G01 X53.5779 Y21.1597 
G01 X53.5584 Y21.1369 
G01 X53.5217 Y21.0482 
G01 X53.5143 Y21.0232 
G01 X53.5052 Y21.0084 
G01 X53.4985 Y20.9923 
G01 X53.4827 Y20.9717 
G01 X53.4325 Y20.8899 
G01 X53.4255 Y20.8607 
G01 X53.4214 Y20.8530 
G01 X53.4189 Y20.8446 
G01 X53.4032 Y20.8190 
G01 X53.3808 Y20.7257 
G01 X53.3774 Y20.6999 
G01 X53.3707 Y20.6838 
G01 X53.3667 Y20.6669 
G01 X53.3542 Y20.6440 
G01 X53.3175 Y20.5554 
G01 X53.3152 Y20.5254 
G01 X53.3123 Y20.5172 
G01 X53.3111 Y20.5086 
G01 X53.2996 Y20.4808 
G01 X53.2921 Y20.3852 
G01 X53.2928 Y20.3591 
G01 X53.2887 Y20.3422 
G01 X53.2874 Y20.3249 
G01 X53.2787 Y20.3003 
G01 X53.2616 Y20.2294 
G01 X53.2619 Y20.1895 
G01 X53.2629 Y20.1506 
G01 X53.2619 Y20.1463 
G01 X53.2619 Y20.0445 
G01 X53.2643 Y20.0316 
G01 X53.2619 Y20.0013 
G01 X53.2619 Y19.9710 
G01 X53.2585 Y19.9584 
G01 X53.2515 Y19.8692 
G01 X53.2540 Y19.8555 
G01 X53.2619 Y19.8262 
G01 X53.2619 Y19.8131 
G01 X53.2643 Y19.8003 
G01 X53.2619 Y19.7700 
G01 X53.2619 Y19.7151 
G01 X53.2641 Y19.6836 
G01 X53.2619 Y19.6720 
G01 X53.2619 Y19.6601 
G01 X53.2537 Y19.6297 
G01 X53.2521 Y19.6210 
G01 X53.2588 Y19.5265 
G01 X53.2619 Y19.5150 
G01 X53.2619 Y19.4835 
G01 X53.2641 Y19.4520 
G01 X53.2619 Y19.4404 
G01 X53.2619 Y19.2983 
G01 X53.2636 Y19.2906 
G01 X53.2619 Y19.2552 
G01 X53.2619 Y19.2276 
G01 X53.2619 Y19.2235 
G01 X53.2619 Y19.2198 
G01 X53.2610 Y19.2044 
G01 X53.2628 Y19.1819 
G01 X53.2589 Y19.1613 
G01 X53.2579 Y19.1404 
G01 X53.2512 Y19.1192 
G01 X53.2585 Y19.0256 
G01 X53.2619 Y19.0130 
G01 X53.2619 Y18.9827 
G01 X53.2643 Y18.9524 
G01 X53.2619 Y18.9395 
G01 X53.2619 Y18.8377 
G01 X53.2629 Y18.8334 
G01 X53.2619 Y18.7945 
G01 X53.2619 Y18.7555 
G01 X53.2787 Y18.6837 
G01 X53.2874 Y18.6591 
G01 X53.2887 Y18.6418 
G01 X53.2928 Y18.6248 
G01 X53.2921 Y18.5988 
G01 X53.2996 Y18.5032 
G01 X53.3111 Y18.4754 
G01 X53.3123 Y18.4668 
G01 X53.3152 Y18.4586 
G01 X53.3175 Y18.4286 
G01 X53.3543 Y18.3400 
G01 X53.3667 Y18.3171 
G01 X53.3707 Y18.3002 
G01 X53.3774 Y18.2841 
G01 X53.3808 Y18.2583 
G01 X53.4032 Y18.1650 
G01 X53.4189 Y18.1394 
G01 X53.4214 Y18.1310 
G01 X53.4255 Y18.1233 
G01 X53.4325 Y18.0941 
G01 X53.4827 Y18.0123 
G01 X53.4985 Y17.9917 
G01 X53.5052 Y17.9756 
G01 X53.5143 Y17.9607 
G01 X53.5217 Y17.9358 
G01 X53.5584 Y17.8471 
G01 X53.5779 Y17.8243 
G01 X53.5816 Y17.8165 
G01 X53.5869 Y17.8095 
G01 X53.5985 Y17.7817 
G01 X53.6608 Y17.7088 
G01 X53.6796 Y17.6909 
G01 X53.6887 Y17.6760 
G01 X53.7000 Y17.6628 
G01 X53.7113 Y17.6393 
G01 X53.7614 Y17.5575 
G01 X53.7842 Y17.5380 
G01 X53.7891 Y17.5308 
G01 X53.7955 Y17.5248 
G01 X53.8112 Y17.4992 
G01 X53.8841 Y17.4369 
G01 X53.9056 Y17.4221 
G01 X53.9169 Y17.4089 
G01 X53.9301 Y17.3976 
G01 X53.9449 Y17.3761 
G01 X54.0072 Y17.3032 
G01 X54.0328 Y17.2875 
G01 X54.0388 Y17.2812 
G01 X54.0460 Y17.2762 
G01 X54.0655 Y17.2534 
G01 X54.1473 Y17.2033 
G01 X54.1708 Y17.1920 
G01 X54.1840 Y17.1807 
G01 X54.1989 Y17.1716 
G01 X54.2168 Y17.1528 
G01 X54.2897 Y17.0905 
G01 X54.3175 Y17.0789 
G01 X54.3245 Y17.0736 
G01 X54.3323 Y17.0699 
G01 X54.3551 Y17.0504 
G01 X54.4438 Y17.0137 
G01 X54.4688 Y17.0063 
G01 X54.4836 Y16.9972 
G01 X54.4997 Y16.9905 
G01 X54.5203 Y16.9747 
G01 X54.6021 Y16.9245 
G01 X54.6313 Y16.9175 
G01 X54.6390 Y16.9134 
G01 X54.6474 Y16.9109 
G01 X54.6730 Y16.8952 
G01 X54.7663 Y16.8728 
G01 X54.7921 Y16.8694 
G01 X54.8082 Y16.8627 
G01 X54.8251 Y16.8587 
G01 X54.8480 Y16.8462 
G01 X54.9366 Y16.8095 
G01 X54.9666 Y16.8072 
G01 X54.9748 Y16.8043 
G01 X54.9834 Y16.8031 
G01 X55.0112 Y16.7916 
G01 X55.1068 Y16.7841 
G01 X55.1328 Y16.7848 
G01 X55.1498 Y16.7807 
G01 X55.1671 Y16.7794 
G01 X55.1917 Y16.7707 
G01 X55.2626 Y16.7536 
G01 X55.3025 Y16.7539 
G01 X55.3414 Y16.7549 
G01 X55.3457 Y16.7539 
G01 X55.4475 Y16.7539 
G01 X55.4604 Y16.7563 
G01 X55.4906 Y16.7539 
G01 X55.5210 Y16.7539 
G01 X55.5336 Y16.7505 
G01 X55.6272 Y16.7431 
G01 X55.6484 Y16.7499 
G01 X55.6693 Y16.7509 
G01 X55.6899 Y16.7548 
G01 X55.7124 Y16.7530 
G01 X55.7269 Y16.7537 
G01 X55.7315 Y16.7539 
G01 X55.7348 Y16.7541 
G01 X55.7632 Y16.7539 
G01 X55.7986 Y16.7556 
G01 X55.8063 Y16.7539 
G01 X55.9484 Y16.7539 
G01 X55.9600 Y16.7561 
G01 X55.9915 Y16.7539 
G01 X56.0230 Y16.7539 
G01 X56.0345 Y16.7508 
G01 X56.1290 Y16.7441 
G01 X56.1377 Y16.7457 
G01 X56.1681 Y16.7539 
G01 X56.1800 Y16.7539 
G01 X56.1916 Y16.7561 
G01 X56.2231 Y16.7539 
G01 X56.7769 Y16.7539 
G01 X56.8084 Y16.7561 
G01 X56.8200 Y16.7539 
G01 X56.8319 Y16.7539 
G01 X56.8623 Y16.7457 
G01 X56.8710 Y16.7441 
G01 X56.9655 Y16.7508 
G01 X56.9770 Y16.7539 
G01 X57.0085 Y16.7539 
G01 X57.0400 Y16.7561 
G01 X57.0516 Y16.7539 
G01 X57.1937 Y16.7539 
G01 X57.2014 Y16.7556 
G01 X57.2368 Y16.7539 
G01 X57.2644 Y16.7539 
G01 X57.3477 Y16.7720 
G01 X57.3701 Y16.7798 
G01 X57.3898 Y16.7812 
G01 X57.4091 Y16.7854 
G01 X57.4327 Y16.7842 
G01 X57.5019 Y16.7892 
G01 X57.5410 Y16.8033 
G01 X57.5779 Y16.8171 
G01 X57.5818 Y16.8175 
G01 X57.5855 Y16.8188 
G01 X57.6248 Y16.8216 
G01 X57.6640 Y16.8253 
G01 X57.7312 Y16.8492 
G01 X57.7523 Y16.8600 
G01 X57.7716 Y16.8642 
G01 X57.7901 Y16.8711 
G01 X57.8137 Y16.8734 
G01 X57.8814 Y16.8881 
G01 X57.9181 Y16.9077 
G01 X57.9527 Y16.9266 
G01 X57.9565 Y16.9275 
G01 X57.9600 Y16.9293 
G01 X57.9985 Y16.9377 
G01 X58.0367 Y16.9470 
G01 X58.0999 Y16.9801 
G01 X58.1192 Y16.9939 
G01 X58.1377 Y17.0008 
G01 X58.1550 Y17.0102 
G01 X58.1781 Y17.0158 
G01 X58.2430 Y17.0401 
G01 X58.2766 Y17.0647 
G01 X58.3081 Y17.0883 
G01 X58.3117 Y17.0897 
G01 X58.3150 Y17.0920 
G01 X58.3519 Y17.1058 
G01 X58.3884 Y17.1204 
G01 X58.4462 Y17.1622 
G01 X58.4633 Y17.1786 
G01 X58.4807 Y17.1880 
G01 X58.4965 Y17.1999 
G01 X58.5185 Y17.2087 
G01 X58.5793 Y17.2419 
G01 X58.6090 Y17.2710 
G01 X58.6368 Y17.2989 
G01 X58.6403 Y17.3009 
G01 X58.6431 Y17.3036 
G01 X58.6777 Y17.3224 
G01 X58.7118 Y17.3421 
G01 X58.7630 Y17.3918 
G01 X58.7777 Y17.4104 
G01 X58.7935 Y17.4222 
G01 X58.8074 Y17.4362 
G01 X58.8280 Y17.4480 
G01 X58.8835 Y17.4896 
G01 X58.9087 Y17.5226 
G01 X58.9323 Y17.5541 
G01 X58.9354 Y17.5566 
G01 X58.9379 Y17.5597 
G01 X58.9694 Y17.5833 
G01 X59.0003 Y17.6076 
G01 X59.0440 Y17.6640 
G01 X59.0558 Y17.6846 
G01 X59.0698 Y17.6985 
G01 X59.0816 Y17.7143 
G01 X59.1002 Y17.7290 
G01 X59.1493 Y17.7780 
G01 X59.1695 Y17.8143 
G01 X59.1884 Y17.8489 
G01 X59.1911 Y17.8517 
G01 X59.1931 Y17.8552 
G01 X59.2210 Y17.8830 
G01 X59.2481 Y17.9115 
G01 X59.2833 Y17.9735 
G01 X59.2921 Y17.9955 
G01 X59.3039 Y18.0113 
G01 X59.3134 Y18.0287 
G01 X59.3298 Y18.0458 
G01 X59.3713 Y18.1013 
G01 X59.3862 Y18.1401 
G01 X59.4000 Y18.1770 
G01 X59.4023 Y18.1803 
G01 X59.4037 Y18.1839 
G01 X59.4273 Y18.2154 
G01 X59.4502 Y18.2475 
G01 X59.4762 Y18.3139 
G01 X59.4817 Y18.3370 
G01 X59.4912 Y18.3543 
G01 X59.4981 Y18.3728 
G01 X59.5119 Y18.3921 
G01 X59.5451 Y18.4530 
G01 X59.5543 Y18.4935 
G01 X59.5627 Y18.5320 
G01 X59.5645 Y18.5355 
G01 X59.5654 Y18.5393 
G01 X59.5843 Y18.5739 
G01 X59.6023 Y18.6089 
G01 X59.6186 Y18.6783 
G01 X59.6209 Y18.7019 
G01 X59.6278 Y18.7204 
G01 X59.6320 Y18.7397 
G01 X59.6428 Y18.7608 
G01 X59.6671 Y18.8257 
G01 X59.6704 Y18.8672 
G01 X59.6732 Y18.9065 
G01 X59.6745 Y18.9102 
G01 X59.6749 Y18.9141 
G01 X59.6887 Y18.9510 
G01 X59.7015 Y18.9882 
G01 X59.7078 Y19.0593 
G01 X59.7066 Y19.0829 
G01 X59.7108 Y19.1022 
G01 X59.7122 Y19.1219 
G01 X59.7200 Y19.1443 
G01 X59.7346 Y19.2113 
G01 X59.7332 Y19.2155 
G01 X59.7314 Y19.2536 
G01 X59.7284 Y19.2917 
G01 X59.7294 Y19.2968 
G01 X59.7291 Y19.3019 
G01 X59.7372 Y19.3392 
G01 X59.7442 Y19.3768 
G01 X59.7464 Y19.3815 
G01 X59.7472 Y19.3853 
G01 X59.7421 Y19.4499 
G01 X59.7374 Y19.4743 
G01 X59.7388 Y19.4928 
G01 X59.7373 Y19.5114 
G01 X59.7418 Y19.5358 
G01 X59.7462 Y19.5964 
G01 X59.7359 Y19.6176 
G01 X59.7323 Y19.6358 
G01 X59.7261 Y19.6533 
G01 X59.7242 Y19.6781 
G01 X59.7195 Y19.7025 
G01 X59.7197 Y19.7062 
G01 X59.7190 Y19.7094 
G01 X59.7197 Y19.7354 
G01 X59.7176 Y19.7613 
G01 X59.7208 Y19.7784 
G01 X59.7213 Y19.7959 
G01 X59.7287 Y19.8208 
G01 X59.7152 Y19.8786 
G01 X59.7065 Y19.9031 
G01 X59.7051 Y19.9205 
G01 X59.7011 Y19.9374 
G01 X59.7017 Y19.9634 
G01 X59.6971 Y20.0217 
G01 X59.6820 Y20.0439 
G01 X59.6762 Y20.0603 
G01 X59.6679 Y20.0756 
G01 X59.6618 Y20.1009 
G01 X59.6531 Y20.1255 
G01 X59.6528 Y20.1289 
G01 X59.6515 Y20.1320 
G01 X59.6481 Y20.1578 
G01 X59.6420 Y20.1831 
G01 X59.6425 Y20.2005 
G01 X59.6402 Y20.2178 
G01 X59.6436 Y20.2436 
G01 X59.6213 Y20.2985 
G01 X59.6088 Y20.3214 
G01 X59.6048 Y20.3383 
G01 X59.5981 Y20.3544 
G01 X59.5947 Y20.3802 
G01 X59.5811 Y20.4371 
G01 X59.5626 Y20.4567 
G01 X59.5543 Y20.4720 
G01 X59.5437 Y20.4858 
G01 X59.5338 Y20.5098 
G01 X59.5213 Y20.5327 
G01 X59.5205 Y20.5360 
G01 X59.5188 Y20.5389 
G01 X59.5114 Y20.5639 
G01 X59.5014 Y20.5879 
G01 X59.4991 Y20.6052 
G01 X59.4942 Y20.6219 
G01 X59.4935 Y20.6479 
G01 X59.4628 Y20.6987 
G01 X59.4470 Y20.7193 
G01 X59.4403 Y20.7354 
G01 X59.4312 Y20.7502 
G01 X59.4238 Y20.7752 
G01 X59.4015 Y20.8292 
G01 X59.3801 Y20.8457 
G01 X59.3696 Y20.8595 
G01 X59.3569 Y20.8715 
G01 X59.3433 Y20.8937 
G01 X59.3275 Y20.9143 
G01 X59.3262 Y20.9175 
G01 X59.3240 Y20.9201 
G01 X59.3128 Y20.9435 
G01 X59.2992 Y20.9657 
G01 X59.2942 Y20.9824 
G01 X59.2867 Y20.9982 
G01 X59.2820 Y21.0237 
G01 X59.2437 Y21.0691 
G01 X59.2249 Y21.0870 
G01 X59.2158 Y21.1018 
G01 X59.2045 Y21.1151 
G01 X59.1933 Y21.1386 
G01 X59.1627 Y21.1884 
G01 X59.1391 Y21.2014 
G01 X59.1264 Y21.2134 
G01 X59.1121 Y21.2232 
G01 X59.0952 Y21.2430 
G01 X59.0763 Y21.2609 
G01 X59.0745 Y21.2638 
G01 X59.0720 Y21.2660 
G01 X59.0572 Y21.2875 
G01 X59.0403 Y21.3073 
G01 X59.0328 Y21.3230 
G01 X59.0230 Y21.3373 
G01 X59.0143 Y21.3619 
G01 X58.9694 Y21.4007 
G01 X58.9479 Y21.4154 
G01 X58.9366 Y21.4286 
G01 X58.9234 Y21.4399 
G01 X58.9087 Y21.4614 
G01 X58.8707 Y21.5059 
G01 X58.8453 Y21.5150 
G01 X58.8310 Y21.5248 
G01 X58.8153 Y21.5323 
G01 X58.7955 Y21.5492 
G01 X58.7740 Y21.5640 
G01 X58.7718 Y21.5665 
G01 X58.7689 Y21.5683 
G01 X58.7510 Y21.5872 
G01 X58.7312 Y21.6041 
G01 X58.7214 Y21.6184 
G01 X58.7094 Y21.6311 
G01 X58.6970 Y21.6539 
G01 X58.6466 Y21.6853 
G01 X58.6231 Y21.6965 
G01 X58.6098 Y21.7078 
G01 X58.5950 Y21.7169 
G01 X58.5771 Y21.7357 
G01 X58.5326 Y21.7737 
G01 X58.5062 Y21.7787 
G01 X58.4904 Y21.7862 
G01 X58.4737 Y21.7912 
G01 X58.4516 Y21.8048 
G01 X58.4281 Y21.8160 
G01 X58.4255 Y21.8182 
G01 X58.4223 Y21.8195 
G01 X58.4017 Y21.8353 
G01 X58.3795 Y21.8489 
G01 X58.3675 Y21.8616 
G01 X58.3537 Y21.8721 
G01 X58.3379 Y21.8928 
G01 X58.2832 Y21.9158 
G01 X58.2582 Y21.9232 
G01 X58.2434 Y21.9323 
G01 X58.2273 Y21.9390 
G01 X58.2067 Y21.9548 
G01 X58.1568 Y21.9854 
G01 X58.1299 Y21.9862 
G01 X58.1132 Y21.9911 
G01 X58.0959 Y21.9934 
G01 X58.0719 Y22.0034 
G01 X58.0469 Y22.0108 
G01 X58.0440 Y22.0125 
G01 X58.0408 Y22.0133 
G01 X58.0178 Y22.0258 
G01 X57.9938 Y22.0357 
G01 X57.9800 Y22.0463 
G01 X57.9647 Y22.0546 
G01 X57.9458 Y22.0725 
G01 X57.8882 Y22.0867 
G01 X57.8624 Y22.0901 
G01 X57.8463 Y22.0968 
G01 X57.8294 Y22.1008 
G01 X57.8065 Y22.1133 
G01 X57.7525 Y22.1357 
G01 X57.7258 Y22.1322 
G01 X57.7085 Y22.1345 
G01 X57.6911 Y22.1340 
G01 X57.6658 Y22.1401 
G01 X57.6400 Y22.1435 
G01 X57.6369 Y22.1448 
G01 X57.6335 Y22.1451 
G01 X57.6090 Y22.1538 
G01 X57.5836 Y22.1599 
G01 X57.5683 Y22.1682 
G01 X57.5519 Y22.1740 
G01 X57.5305 Y22.1887 
G01 X57.4714 Y22.1937 
G01 X57.4454 Y22.1931 
G01 X57.4285 Y22.1971 
G01 X57.4111 Y22.1985 
G01 X57.3866 Y22.2072 
G01 X57.3292 Y22.2209 
G01 X57.3044 Y22.2136 
G01 X57.3000 Y22.2135 
G01 X57.2957 Y22.2123 
G01 X57.2568 Y22.2123 
G01 X57.2179 Y22.2113 
G01 X57.2136 Y22.2123 
G01 X57.2092 Y22.2123 
G01 X57.1716 Y22.2224 
G01 X57.1396 Y22.2301 
G01 X57.0524 Y22.2301 
G01 X57.0396 Y22.2277 
G01 X57.0093 Y22.2301 
G01 X56.9790 Y22.2301 
G01 X56.9664 Y22.2335 
G01 X56.8772 Y22.2405 
G01 X56.8635 Y22.2380 
G01 X56.8342 Y22.2301 
G01 X56.8211 Y22.2301 
G01 X56.8083 Y22.2277 
G01 X56.7780 Y22.2301 
G01 X55.7220 Y22.2301 
G01 X55.6917 Y22.2277 
G01 X55.6789 Y22.2301 
G01 X55.6658 Y22.2301 
G01 X55.6365 Y22.2379 
G01 X55.6228 Y22.2405 
G01 X55.5336 Y22.2335 
G01 X55.5210 Y22.2301 
G01 X55.4907 Y22.2301 
G01 X55.4604 Y22.2277 
G01 X55.4475 Y22.2301 
G01 X55.2647 Y22.2301 
G01 X55.1812 Y22.2525 
G01 X55.1062 Y22.2958 
G01 X55.0451 Y22.3569 
G01 X55.0018 Y22.4319 
G01 X54.9794 Y22.5154 
G01 X54.9794 Y26.3674 
G01 X54.9064 Y26.5436 
G01 X54.6947 Y26.7552 
G01 X51.8336 Y29.6164 
G01 X51.6574 Y29.6894 
G01 X50.3294 Y29.6894 
G01 X50.2458 Y29.7118 
G01 X50.1709 Y29.7551 
G01 X50.1097 Y29.8162 
G01 X44.9756 Y34.9504 
G01 X44.7994 Y35.0234 
G01 X40.5446 Y35.0234 
G01 X40.3684 Y34.9504 
G01 X40.1568 Y34.7387 
G01 X37.6936 Y32.2756 
G01 X37.6206 Y32.0994 
G01 X37.6206 Y30.5174 
G01 X37.5982 Y30.4338 
G01 X37.5549 Y30.3589 
G01 X37.4938 Y30.2977 
G01 X32.3791 Y25.1831 
G01 X32.3041 Y25.1398 
G01 X32.2206 Y25.1174 
G01 X21.7486 Y25.1174 
G01 X21.5724 Y25.0444 
G01 X21.4220 Y24.8939 
G01 X21.3608 Y24.8327 
G01 X19.8058 Y23.2777 
G01 X19.7308 Y23.2345 
G01 X19.6473 Y23.2121 
G01 X19.5607 Y23.2121 
G01 X19.4772 Y23.2345 
G01 X19.4022 Y23.2777 
G01 X19.3410 Y23.3389 
G01 X19.2978 Y23.4138 
G01 X19.2754 Y23.4974 
G01 X19.2754 Y26.7654 
G01 X19.2024 Y26.9416 
G01 X17.9480 Y28.1959 
G01 X17.7976 Y28.3464 
G01 X17.6214 Y28.4194 
G01 X13.8746 Y28.4194 
G01 X13.6984 Y28.3464 
G01 X9.3961 Y24.0440 
G01 X9.2456 Y23.8936 
G01 X9.1726 Y23.7174 
G01 X9.1726 Y15.2774 
G01 X9.1502 Y15.1938 
G01 X9.1069 Y15.1189 
G01 X9.0458 Y15.0577 
G01 X8.2451 Y14.2571 
G01 X8.1701 Y14.2138 
G01 X8.0866 Y14.1914 
G01 X7.5419 Y14.1914 
G01 X7.4584 Y14.2138 
G01 X7.3834 Y14.2571 
G01 X7.0214 Y14.6191 
G01 X6.6282 Y14.7819 
G01 X4.4118 Y14.7819 
G01 X4.0186 Y14.6191 
G01 X3.7176 Y14.3181 
G01 X3.5547 Y13.9248 
G01 X3.5547 Y13.4992 
G01 X3.7176 Y13.1059 
G01 X4.0186 Y12.8049 
G01 X4.4118 Y12.6420 
G01 X6.6282 Y12.6420 
G01 X7.0214 Y12.8049 
G01 X7.3222 Y13.1058 
G01 X7.3766 Y13.1601 
G01 X7.3834 Y13.1669 
G01 X7.4561 Y13.2089 
G01 X7.5419 Y13.2326 
G01 X8.4734 Y13.2326 
G01 X8.6496 Y13.3056 
G01 X8.8612 Y13.5172 
G01 X10.0584 Y14.7144 
G01 X10.1314 Y14.8906 
G01 X10.1314 Y23.3306 
G01 X10.1538 Y23.4141 
G01 X10.1971 Y23.4891 
G01 X10.2582 Y23.5503 
G01 X14.1029 Y27.3949 
G01 X14.1778 Y27.4382 
G01 X14.2614 Y27.4606 
G01 X17.2346 Y27.4606 
G01 X17.3181 Y27.4382 
G01 X17.3931 Y27.3949 
G01 X17.4543 Y27.3338 
G01 X18.2509 Y26.5371 
G01 X18.2942 Y26.4621 
G01 X18.3166 Y26.3786 
G01 X18.3166 Y20.6400 
G01 X18.3194 Y20.6185 
G01 X18.3185 Y20.6116 
G01 X18.3188 Y20.6065 
G01 X18.3194 Y20.6015 
G01 X18.3168 Y20.5816 
G01 X18.3166 Y20.5789 
G01 X18.3166 Y20.5485 
G01 X18.3132 Y20.5359 
G01 X18.3122 Y20.5229 
G01 X18.3021 Y20.4943 
G01 X18.3001 Y20.4871 
G01 X18.2921 Y20.3852 
G01 X18.2928 Y20.3591 
G01 X18.2887 Y20.3422 
G01 X18.2874 Y20.3249 
G01 X18.2787 Y20.3003 
G01 X18.2616 Y20.2294 
G01 X18.2619 Y20.1895 
G01 X18.2629 Y20.1506 
G01 X18.2619 Y20.1463 
G01 X18.2619 Y20.0445 
G01 X18.2643 Y20.0316 
G01 X18.2619 Y20.0013 
G01 X18.2619 Y19.9710 
G01 X18.2585 Y19.9584 
G01 X18.2515 Y19.8692 
G01 X18.2540 Y19.8555 
G01 X18.2619 Y19.8262 
G01 X18.2619 Y19.8131 
G01 X18.2643 Y19.8003 
G01 X18.2619 Y19.7700 
G01 X18.2619 Y19.7151 
G01 X18.2641 Y19.6836 
G01 X18.2619 Y19.6720 
G01 X18.2619 Y19.6601 
G01 X18.2537 Y19.6297 
G01 X18.2521 Y19.6210 
G01 X18.2588 Y19.5265 
G01 X18.2619 Y19.5150 
G01 X18.2619 Y19.4835 
G01 X18.2641 Y19.4520 
G01 X18.2619 Y19.4404 
G01 X18.2619 Y19.2983 
G01 X18.2636 Y19.2906 
G01 X18.2619 Y19.2552 
G01 X18.2619 Y19.2276 
G01 X18.2619 Y19.2235 
G01 X18.2619 Y19.2198 
G01 X18.2610 Y19.2044 
G01 X18.2628 Y19.1819 
G01 X18.2589 Y19.1613 
G01 X18.2579 Y19.1404 
G01 X18.2512 Y19.1192 
G01 X18.2585 Y19.0256 
G01 X18.2619 Y19.0130 
G01 X18.2619 Y18.9827 
G01 X18.2643 Y18.9524 
G01 X18.2619 Y18.9396 
G01 X18.2619 Y18.8377 
G01 X18.2629 Y18.8334 
G01 X18.2619 Y18.7945 
G01 X18.2619 Y18.7555 
G01 X18.2799 Y18.6785 
G01 X18.2900 Y18.6408 
G01 X18.2900 Y18.6365 
G01 X18.2910 Y18.6322 
G01 X18.2900 Y18.5933 
G01 X18.2900 Y18.5543 
G01 X18.2889 Y18.5501 
G01 X18.2887 Y18.5458 
G01 X18.2777 Y18.5084 
G01 X18.2676 Y18.4707 
G01 X18.2654 Y18.4670 
G01 X18.2642 Y18.4628 
G01 X18.2438 Y18.4296 
G01 X18.2243 Y18.3958 
G01 X18.2212 Y18.3927 
G01 X18.2190 Y18.3890 
G01 X18.1907 Y18.3622 
G01 X18.1631 Y18.3346 
G01 X18.1594 Y18.3325 
G01 X18.1562 Y18.3295 
G01 X18.1220 Y18.3109 
G01 X18.0882 Y18.2914 
G01 X18.0840 Y18.2903 
G01 X18.0802 Y18.2882 
G01 X18.0423 Y18.2791 
G01 X18.0046 Y18.2690 
G01 X18.0003 Y18.2690 
G01 X17.9960 Y18.2680 
G01 X17.9571 Y18.2690 
G01 X17.9181 Y18.2690 
G01 X17.9139 Y18.2701 
G01 X17.9095 Y18.2702 
G01 X17.8722 Y18.2813 
G01 X17.8345 Y18.2914 
G01 X17.8308 Y18.2936 
G01 X17.8266 Y18.2948 
G01 X17.7934 Y18.3152 
G01 X17.7596 Y18.3347 
G01 X17.7565 Y18.3377 
G01 X17.7528 Y18.3400 
G01 X17.7388 Y18.3548 
G01 X17.6338 Y18.3983 
G01 X17.5980 Y18.4257 
G01 X17.5651 Y18.4509 
G01 X17.5414 Y18.4819 
G01 X17.5125 Y18.5196 
G01 X17.4241 Y18.7330 
G01 X17.2050 Y18.9521 
G01 X16.9189 Y19.0706 
G01 X15.4011 Y19.0706 
G01 X15.1150 Y18.9521 
G01 X14.8959 Y18.7330 
G01 X14.7774 Y18.4469 
G01 X14.7774 Y18.1371 
G01 X14.8959 Y17.8510 
G01 X15.1150 Y17.6319 
G01 X15.4011 Y17.5134 
G01 X16.9189 Y17.5134 
G01 X17.1157 Y17.5949 
G01 X17.1346 Y17.6058 
G01 X17.1556 Y17.6114 
G01 X17.1756 Y17.6197 
G01 X17.1971 Y17.6226 
G01 X17.2181 Y17.6282 
G01 X17.2399 Y17.6282 
G01 X17.2614 Y17.6310 
G01 X17.2829 Y17.6282 
G01 X17.3047 Y17.6282 
G01 X17.3256 Y17.6226 
G01 X17.3472 Y17.6197 
G01 X17.3673 Y17.6114 
G01 X17.3882 Y17.6058 
G01 X17.4070 Y17.5950 
G01 X17.4271 Y17.5866 
G01 X17.4444 Y17.5734 
G01 X17.4632 Y17.5626 
G01 X17.4785 Y17.5472 
G01 X17.4958 Y17.5340 
G01 X17.5090 Y17.5167 
G01 X18.7141 Y16.3116 
G01 X18.8360 Y16.1897 
G01 X18.9748 Y16.1322 
G01 X33.0247 Y16.1322 
G01 X33.1082 Y16.1098 
G01 X33.1832 Y16.0665 
G01 X33.2443 Y16.0054 
G01 X35.2241 Y14.0256 
G01 X35.3460 Y13.9037 
G01 X35.4848 Y13.8462 
G01 X41.6947 Y13.8462 
G01 X41.7782 Y13.8238 
G01 X41.8532 Y13.7805 
G01 X41.8597 Y13.7741 
G01 X42.2240 Y13.4097 
G01 X42.2413 Y13.3965 
G01 X42.2545 Y13.3792 
G01 X42.2698 Y13.3639 
G01 X42.2807 Y13.3451 
G01 X42.2939 Y13.3278 
G01 X42.3022 Y13.3078 
G01 X42.3131 Y13.2889 
G01 X42.3187 Y13.2680 
G01 X42.3270 Y13.2479 
G01 X42.3299 Y13.2264 
G01 X42.3355 Y13.2054 
G01 X42.3355 Y13.1836 
G01 X42.3383 Y13.1621 
G01 X42.3355 Y13.1406 
G01 X42.3355 Y13.1188 
G01 X42.3299 Y13.0979 
G01 X42.3270 Y13.0763 
G01 X42.3187 Y13.0562 
G01 X42.3131 Y13.0353 
G01 X42.3022 Y13.0165 
G01 X42.1914 Y12.7489 
G01 X42.1914 Y12.4391 
G01 X42.2904 Y12.2001 
G01 X42.3005 Y12.1235 
G01 X42.3017 Y12.1143 
G01 X42.3001 Y12.1021 
G01 X42.2904 Y12.0286 
G01 X42.2573 Y11.9486 
G01 X42.2046 Y11.8800 
G01 X42.1877 Y11.8670 
G01 X42.1360 Y11.8273 
G01 X42.0991 Y11.8120 
G01 X42.0560 Y11.7942 
G01 X41.9500 Y11.7503 
G01 X40.0424 Y9.8427 
G01 X39.9674 Y9.7994 
G01 X39.8839 Y9.7770 
G01 X39.0359 Y9.7770 
G01 X38.9558 Y9.7984 
G01 X38.9523 Y9.7994 
G01 X38.8773 Y9.8427 
G01 X38.8162 Y9.9038 
G01 X38.7729 Y9.9788 
G01 X38.7505 Y10.0623 
G01 X38.7505 Y10.1489 
G01 X38.7720 Y10.2289 
G01 X38.7729 Y10.2324 
G01 X38.8162 Y10.3074 
G01 X38.8773 Y10.3685 
G01 X39.0272 Y10.5184 
G01 X39.0227 Y10.5184 
G01 X38.5655 Y10.0612 
G01 X37.9145 Y10.0612 
G01 X37.4542 Y10.5215 
G01 X37.4542 Y11.1725 
G01 X37.9114 Y11.6297 
G01 X37.9114 Y11.6342 
G01 X37.3565 Y11.0793 
G01 X37.2816 Y11.0361 
G01 X37.1980 Y11.0137 
G01 X37.1115 Y11.0137 
G01 X37.0279 Y11.0361 
G01 X36.9530 Y11.0793 
G01 X36.8918 Y11.1405 
G01 X32.9800 Y15.0523 
G01 X32.8411 Y15.1098 
G01 X17.8540 Y15.1098 
G01 X17.8325 Y15.1070 
G01 X17.8110 Y15.1098 
G01 X17.7893 Y15.1098 
G01 X17.7683 Y15.1154 
G01 X17.7467 Y15.1183 
G01 X17.7267 Y15.1266 
G01 X17.7057 Y15.1322 
G01 X17.6869 Y15.1431 
G01 X17.6668 Y15.1514 
G01 X17.6496 Y15.1646 
G01 X17.6308 Y15.1755 
G01 X17.6154 Y15.1908 
G01 X17.5982 Y15.2040 
G01 X17.5849 Y15.2213 
G01 X17.5696 Y15.2366 
G01 X17.5587 Y15.2554 
G01 X17.5455 Y15.2727 
G01 X17.5372 Y15.2928 
G01 X17.5263 Y15.3116 
G01 X17.5207 Y15.3325 
G01 X17.5124 Y15.3526 
G01 X17.5095 Y15.3742 
G01 X17.5039 Y15.3951 
G01 X17.5039 Y15.4169 
G01 X17.5011 Y15.4384 
G01 X17.5039 Y15.4599 
G01 X17.5039 Y15.4817 
G01 X17.5095 Y15.5026 
G01 X17.5124 Y15.5242 
G01 X17.5207 Y15.5443 
G01 X17.5263 Y15.5652 
G01 X17.5372 Y15.5840 
G01 X17.5426 Y15.5971 
G01 X17.5426 Y15.9069 
G01 X17.4241 Y16.1930 
G01 X17.2050 Y16.4121 
G01 X16.9189 Y16.5306 
G01 X15.4011 Y16.5306 
G01 X15.1150 Y16.4121 
G01 X14.8959 Y16.1930 
G01 X14.7774 Y15.9069 
G01 X14.7774 Y15.5971 
G01 X14.8959 Y15.3110 
G01 X15.1150 Y15.0919 
G01 X15.4011 Y14.9734 
G01 X16.3115 Y14.9734 
G01 X16.3950 Y14.9510 
G01 X16.4700 Y14.9077 
G01 X16.5311 Y14.8466 
G01 X16.7956 Y14.5821 
G01 X16.8196 Y14.5581 
G01 X16.8567 Y14.5210 
G01 X16.8765 Y14.4867 
G01 X16.9000 Y14.4461 
G01 X16.9122 Y14.4007 
G01 X16.9224 Y14.3625 
G01 X16.9224 Y14.3195 
G01 X16.9224 Y14.2760 
G01 X16.9123 Y14.2383 
G01 X16.9000 Y14.1924 
G01 X16.8801 Y14.1579 
G01 X16.8568 Y14.1175 
G01 X16.8325 Y14.0932 
G01 X16.7956 Y14.0563 
G01 X16.7613 Y14.0365 
G01 X16.7207 Y14.0130 
G01 X16.6753 Y14.0008 
G01 X16.6371 Y13.9906 
G01 X16.5941 Y13.9906 
G01 X16.5506 Y13.9906 
G01 X15.4011 Y13.9906 
G01 X15.1150 Y13.8721 
G01 X14.8959 Y13.6530 
G01 X14.7774 Y13.3669 
G01 X14.7774 Y13.0571 
G01 X14.8959 Y12.7710 
G01 X15.1150 Y12.5519 
G01 X15.4011 Y12.4334 
G01 X16.9189 Y12.4334 
G01 X17.2050 Y12.5519 
G01 X17.4241 Y12.7710 
G01 X17.5426 Y13.0571 
G01 X17.5426 Y13.3669 
G01 X17.4241 Y13.6530 
G01 X17.3145 Y13.7627 
G01 X17.2571 Y13.8200 
G01 X17.2533 Y13.8238 
G01 X17.2355 Y13.8545 
G01 X17.2100 Y13.8988 
G01 X17.1876 Y13.9823 
G01 X17.1876 Y14.0689 
G01 X17.1886 Y14.0724 
G01 X17.2100 Y14.1524 
G01 X17.2523 Y14.2257 
G01 X17.3144 Y14.2885 
G01 X17.3452 Y14.3063 
G01 X17.3894 Y14.3318 
G01 X17.4729 Y14.3542 
G01 X32.5167 Y14.3542 
G01 X32.6002 Y14.3318 
G01 X32.6752 Y14.2885 
G01 X32.7363 Y14.2274 
G01 X36.7037 Y10.2600 
G01 X36.7469 Y10.1851 
G01 X36.7693 Y10.1015 
G01 X36.7693 Y10.0150 
G01 X36.7469 Y9.9314 
G01 X36.7037 Y9.8565 
G01 X36.6425 Y9.7953 
G01 X36.1806 Y9.3335 
G01 X36.1057 Y9.2902 
G01 X36.0221 Y9.2678 
G01 X33.9608 Y9.2678 
G01 X33.8220 Y9.2103 
G01 X33.7001 Y9.0884 
G01 X33.6389 Y9.0272 
G01 X31.0380 Y6.4263 
G01 X30.9630 Y6.3830 
G01 X30.8795 Y6.3606 
G01 X30.7315 Y6.3606 
G01 X30.0434 Y5.6725 
G01 X30.0434 Y4.6995 
G01 X30.7255 Y4.0173 
G01 X30.7731 Y3.9697 
G01 X30.7867 Y3.9562 
G01 X30.8300 Y3.8812 
G01 X30.8524 Y3.7977 
G01 X30.8524 Y3.7111 
G01 X30.8300 Y3.6276 
G01 X30.7867 Y3.5526 
G01 X30.7255 Y3.4915 
G01 X30.6506 Y3.4482 
G01 X30.5670 Y3.4258 
G01 X28.6973 Y3.4258 
G01 X28.6138 Y3.4482 
G01 X28.5388 Y3.4915 
G01 X28.4776 Y3.5526 
G01 X27.8755 Y4.1548 
G01 X27.8322 Y4.2298 
G01 X27.8098 Y4.3133 
G01 X27.8098 Y6.1007 
G01 X27.8322 Y6.1842 
G01 X27.8755 Y6.2592 
G01 X27.8954 Y6.2791 
G01 X29.0932 Y7.4769 
G01 X29.1345 Y7.5182 
G01 X29.1544 Y7.5381 
G01 X29.2763 Y7.6600 
G01 X29.3338 Y7.7988 
G01 X29.3338 Y11.2511 
G01 X29.2763 Y11.3900 
G01 X27.1380 Y13.5283 
G01 X26.9992 Y13.5858 
G01 X19.4828 Y13.5858 
G01 X19.3440 Y13.5283 
G01 X19.1609 Y13.3452 
G01 X17.1812 Y11.3655 
G01 X17.1062 Y11.3222 
G01 X17.0227 Y11.2998 
G01 X14.9813 Y11.2998 
G01 X14.8978 Y11.3222 
G01 X14.8228 Y11.3655 
G01 X14.7617 Y11.4266 
G01 X14.1595 Y12.0288 
G01 X14.1162 Y12.1038 
G01 X14.0938 Y12.1873 
G01 X14.0938 Y19.5627 
G01 X14.1162 Y19.6462 
G01 X14.1595 Y19.7212 
G01 X14.1634 Y19.7251 
G01 X14.6608 Y20.2225 
G01 X14.7358 Y20.2658 
G01 X14.7512 Y20.2699 
G01 X14.8193 Y20.2882 
G01 X14.9059 Y20.2882 
G01 X14.9721 Y20.2704 
G01 X14.9894 Y20.2658 
G01 X15.0236 Y20.2461 
G01 X15.0644 Y20.2225 
G01 X15.1150 Y20.1719 
G01 X15.4011 Y20.0534 
G01 X16.9189 Y20.0534 
G01 X17.2050 Y20.1719 
G01 X17.4241 Y20.3910 
G01 X17.5426 Y20.6771 
G01 X17.5426 Y20.9869 
G01 X17.4241 Y21.2730 
G01 X17.2050 Y21.4921 
G01 X16.9189 Y21.6106 
G01 X15.4011 Y21.6106 
G01 X15.1150 Y21.4921 
G01 X14.9555 Y21.3326 
G01 X14.8990 Y21.2761 
G01 X14.8943 Y21.2715 
G01 X14.8217 Y21.2295 
G01 X14.7358 Y21.2058 
G01 X14.6568 Y21.2058 
G01 X14.5180 Y21.1483 
G01 X13.5176 Y20.1479 
G01 X13.3957 Y20.0260 
G01 X13.3382 Y19.8871 
G01 X13.3382 Y11.8628 
G01 X13.3957 Y11.7240 
G01 X14.3961 Y10.7236 
G01 X14.5180 Y10.6017 
G01 X14.6568 Y10.5442 
G01 X17.3471 Y10.5442 
G01 X17.4860 Y10.6017 
G01 X19.6488 Y12.7645 
G01 X19.7238 Y12.8078 
G01 X19.8073 Y12.8302 
G01 X21.8745 Y12.8302 
G01 X21.9135 Y12.8312 
G01 X21.9177 Y12.8302 
G01 X21.9221 Y12.8302 
G01 X21.9597 Y12.8201 
G01 X21.9976 Y12.8110 
G01 X22.0014 Y12.8089 
G01 X22.0056 Y12.8078 
G01 X22.0394 Y12.7883 
G01 X22.0736 Y12.7697 
G01 X22.0768 Y12.7667 
G01 X22.0806 Y12.7645 
G01 X22.1081 Y12.7370 
G01 X22.1364 Y12.7102 
G01 X22.1387 Y12.7064 
G01 X22.1418 Y12.7034 
G01 X22.1612 Y12.6696 
G01 X22.1816 Y12.6364 
G01 X22.1828 Y12.6322 
G01 X22.1850 Y12.6284 
G01 X22.1951 Y12.5908 
G01 X22.2062 Y12.5534 
G01 X22.2063 Y12.5491 
G01 X22.2074 Y12.5449 
G01 X22.2074 Y12.5059 
G01 X22.2084 Y12.4669 
G01 X22.2074 Y12.4627 
G01 X22.2074 Y12.4583 
G01 X22.1973 Y12.4207 
G01 X22.1882 Y12.3828 
G01 X22.1861 Y12.3790 
G01 X22.1850 Y12.3748 
G01 X22.1655 Y12.3410 
G01 X22.1469 Y12.3068 
G01 X22.1439 Y12.3036 
G01 X22.1418 Y12.2998 
G01 X22.1142 Y12.2723 
G01 X22.0874 Y12.2440 
G01 X22.0837 Y12.2417 
G01 X22.0806 Y12.2387 
G01 X22.0644 Y12.2293 
G01 X22.0460 Y12.2077 
G01 X22.0388 Y12.2028 
G01 X22.0328 Y12.1965 
G01 X22.0072 Y12.1808 
G01 X21.9449 Y12.1079 
G01 X21.9301 Y12.0864 
G01 X21.9169 Y12.0751 
G01 X21.9056 Y12.0619 
G01 X21.8841 Y12.0471 
G01 X21.8112 Y11.9848 
G01 X21.7955 Y11.9592 
G01 X21.7892 Y11.9532 
G01 X21.7843 Y11.9460 
G01 X21.7614 Y11.9265 
G01 X21.7113 Y11.8447 
G01 X21.7000 Y11.8212 
G01 X21.6887 Y11.8079 
G01 X21.6796 Y11.7931 
G01 X21.6608 Y11.7752 
G01 X21.5985 Y11.7022 
G01 X21.5869 Y11.6745 
G01 X21.5816 Y11.6675 
G01 X21.5779 Y11.6597 
G01 X21.5584 Y11.6369 
G01 X21.5217 Y11.5482 
G01 X21.5143 Y11.5232 
G01 X21.5052 Y11.5084 
G01 X21.4985 Y11.4923 
G01 X21.4827 Y11.4717 
G01 X21.4325 Y11.3899 
G01 X21.4255 Y11.3607 
G01 X21.4214 Y11.3530 
G01 X21.4189 Y11.3446 
G01 X21.4032 Y11.3190 
G01 X21.3808 Y11.2257 
G01 X21.3774 Y11.1999 
G01 X21.3707 Y11.1838 
G01 X21.3667 Y11.1669 
G01 X21.3542 Y11.1440 
G01 X21.3175 Y11.0554 
G01 X21.3152 Y11.0254 
G01 X21.3123 Y11.0172 
G01 X21.3111 Y11.0086 
G01 X21.2996 Y10.9808 
G01 X21.2921 Y10.8852 
G01 X21.2928 Y10.8591 
G01 X21.2887 Y10.8422 
G01 X21.2874 Y10.8249 
G01 X21.2787 Y10.8003 
G01 X21.2616 Y10.7294 
G01 X21.2619 Y10.6895 
G01 X21.2629 Y10.6506 
G01 X21.2619 Y10.6463 
G01 X21.2619 Y10.5445 
G01 X21.2643 Y10.5316 
G01 X21.2619 Y10.5013 
G01 X21.2619 Y10.4710 
G01 X21.2585 Y10.4584 
G01 X21.2515 Y10.3692 
G01 X21.2540 Y10.3555 
G01 X21.2619 Y10.3262 
G01 X21.2619 Y10.3131 
G01 X21.2643 Y10.3003 
G01 X21.2619 Y10.2700 
G01 X21.2619 Y10.2151 
G01 X21.2641 Y10.1836 
G01 X21.2619 Y10.1720 
G01 X21.2619 Y10.1601 
G01 X21.2537 Y10.1297 
G01 X21.2521 Y10.1210 
G01 X21.2588 Y10.0265 
G01 X21.2619 Y10.0150 
G01 X21.2619 Y9.9835 
G01 X21.2641 Y9.9520 
G01 X21.2619 Y9.9404 
G01 X21.2619 Y9.7983 
G01 X21.2636 Y9.7906 
G01 X21.2619 Y9.7552 
G01 X21.2619 Y9.7276 
G01 X21.2619 Y9.7235 
G01 X21.2619 Y9.7198 
G01 X21.2610 Y9.7044 
G01 X21.2628 Y9.6819 
G01 X21.2589 Y9.6613 
G01 X21.2579 Y9.6404 
G01 X21.2512 Y9.6192 
G01 X21.2547 Y9.6041 
G01 X21.2547 Y9.5737 
G01 X21.2571 Y9.5435 
G01 X21.2547 Y9.5306 
G01 X21.2547 Y9.5176 
G01 X21.2469 Y9.4883 
G01 X21.2413 Y9.4584 
G01 X21.2357 Y9.4466 
G01 X21.2323 Y9.4340 
G01 X21.2172 Y9.4077 
G01 X21.2041 Y9.3803 
G01 X21.1956 Y9.3704 
G01 X21.1891 Y9.3590 
G01 X21.1676 Y9.3376 
G01 X21.1479 Y9.3145 
G01 X21.1371 Y9.3071 
G01 X18.5401 Y6.7100 
G01 X18.3896 Y6.5596 
G01 X18.3166 Y6.3834 
G01 X18.3166 Y4.3554 
G01 X18.2942 Y4.2718 
G01 X18.2509 Y4.1969 
G01 X16.8851 Y2.8311 
G01 X16.8101 Y2.7878 
G01 X16.7266 Y2.7654 
G01 X13.4994 Y2.7654 
G01 X13.4158 Y2.7878 
G01 X13.3409 Y2.8311 
G01 X13.2797 Y2.8922 
G01 X7.5510 Y8.6210 
G01 X7.5077 Y8.6959 
G01 X7.4853 Y8.7795 
G01 X7.4853 Y8.9248 
G01 X7.3224 Y9.3181 
G01 X7.0214 Y9.6191 
G01 X6.6282 Y9.7819 
G01 X4.7049 Y9.7819 
G01 X4.6213 Y9.8043 
G01 X4.5464 Y9.8476 
G01 X4.4852 Y9.9088 
G01 X2.8311 Y11.5629 
G01 X2.7878 Y11.6378 
G01 X2.7654 Y11.7214 
G01 X2.7654 Y35.0146 
G01 X2.7878 Y35.0981 
G01 X2.8311 Y35.1731 
G01 X2.8922 Y35.2343 
G01 X3.9429 Y36.2849 
G01 X4.0178 Y36.3282 
G01 X4.1014 Y36.3506 
G01 X20.3714 Y36.3506 
G01 X20.4514 Y36.3292 
G01 X20.4550 Y36.3282 
G01 X20.5299 Y36.2849 
G01 X20.5911 Y36.2238 
G01 X20.6344 Y36.1488 
G01 X20.6568 Y36.0653 
G01 X20.6568 Y35.9787 
G01 X20.6353 Y35.8987 
G01 X20.6344 Y35.8952 
G01 X20.5911 Y35.8202 
G01 X20.5299 Y35.7591 
G01 X19.8434 Y35.0725 
G01 X19.8434 Y34.1822 
G01 X19.8247 Y34.1123 
G01 X19.8210 Y34.0986 
G01 X19.7899 Y34.0447 
G01 X19.7777 Y34.0237 
G01 X19.7427 Y33.9887 
G01 X19.7166 Y33.9625 
G01 X19.7061 Y33.9520 
G01 X19.6711 Y33.9171 
G01 X19.6346 Y33.8960 
G01 X19.5961 Y33.8738 
G01 X19.5508 Y33.8616 
G01 X19.5126 Y33.8514 
G01 X7.5619 Y33.8514 
G01 X7.4819 Y33.8728 
G01 X7.4784 Y33.8738 
G01 X7.4034 Y33.9171 
G01 X7.3422 Y33.9782 
G01 X7.0414 Y34.2791 
G01 X6.6482 Y34.4419 
G01 X4.4318 Y34.4419 
G01 X4.0386 Y34.2791 
G01 X3.7376 Y33.9781 
G01 X3.5747 Y33.5848 
G01 X3.5747 Y33.1592 
G01 X3.7376 Y32.7659 
G01 X4.0386 Y32.4649 
G01 X4.4318 Y32.3020 
G01 X6.6482 Y32.3020 
G01 X7.0414 Y32.4649 
G01 X7.3422 Y32.7658 
G01 X7.3966 Y32.8201 
G01 X7.4034 Y32.8269 
G01 X7.4761 Y32.8689 
G01 X7.5619 Y32.8926 
G01 X19.8994 Y32.8926 
G01 X20.0756 Y32.9656 
G01 X20.2872 Y33.1772 
G01 X20.3945 Y33.2846 
G01 X20.4539 Y33.3439 
G01 X20.4864 Y33.3635 
G01 X20.5306 Y33.3890 
G01 X20.6142 Y33.4114 
G01 X21.5045 Y33.4114 
G01 X22.1926 Y34.0995 
G01 X22.1926 Y35.0725 
G01 X21.5061 Y35.7591 
G01 X21.4585 Y35.8066 
G01 X21.4449 Y35.8202 
G01 X21.4016 Y35.8952 
G01 X21.3792 Y35.9787 
G01 X21.3792 Y36.0653 
G01 X21.4016 Y36.1488 
G01 X21.4449 Y36.2238 
G01 X21.5061 Y36.2849 
G01 X21.5810 Y36.3282 
G01 X21.6646 Y36.3506 
G01 X23.4826 Y36.3506 
G01 X23.5661 Y36.3282 
G01 X23.6411 Y36.2849 
G01 X23.7023 Y36.2238 
G01 X24.7777 Y35.1483 
G01 X24.8210 Y35.0733 
G01 X24.8434 Y34.9898 
G01 X24.8434 Y34.0995 
G01 X25.3599 Y33.5829 
G01 X25.4101 Y33.5327 
G01 X25.4211 Y33.5218 
G01 X25.4644 Y33.4468 
G01 X25.4868 Y33.3633 
G01 X25.4868 Y33.2767 
G01 X25.4644 Y33.1932 
G01 X25.4211 Y33.1182 
G01 X25.3599 Y33.0571 
G01 X25.2850 Y33.0138 
G01 X25.2014 Y32.9914 
G01 X24.0346 Y32.9914 
G01 X23.8584 Y32.9184 
G01 X22.4482 Y31.5081 
G01 X22.4349 Y31.4909 
G01 X22.4177 Y31.4777 
G01 X22.4023 Y31.4623 
G01 X22.3835 Y31.4515 
G01 X22.3663 Y31.4382 
G01 X22.3551 Y31.4336 
G01 X22.3323 Y31.4141 
G01 X22.3245 Y31.4104 
G01 X22.3175 Y31.4051 
G01 X22.2897 Y31.3935 
G01 X22.2168 Y31.3312 
G01 X22.1989 Y31.3123 
G01 X22.1840 Y31.3033 
G01 X22.1708 Y31.2920 
G01 X22.1473 Y31.2807 
G01 X22.0655 Y31.2306 
G01 X22.0460 Y31.2078 
G01 X22.0388 Y31.2028 
G01 X22.0328 Y31.1965 
G01 X22.0072 Y31.1808 
G01 X21.9449 Y31.1079 
G01 X21.9301 Y31.0864 
G01 X21.9169 Y31.0751 
G01 X21.9056 Y31.0619 
G01 X21.8841 Y31.0471 
G01 X21.8112 Y30.9848 
G01 X21.7955 Y30.9592 
G01 X21.7891 Y30.9532 
G01 X21.7842 Y30.9460 
G01 X21.7614 Y30.9265 
G01 X21.7243 Y30.8660 
G01 X21.7048 Y30.8322 
G01 X21.7017 Y30.8291 
G01 X21.6994 Y30.8254 
G01 X21.6712 Y30.7986 
G01 X21.6436 Y30.7711 
G01 X21.6399 Y30.7689 
G01 X21.6367 Y30.7659 
G01 X21.6024 Y30.7473 
G01 X21.5687 Y30.7278 
G01 X21.5645 Y30.7267 
G01 X21.5606 Y30.7246 
G01 X21.5227 Y30.7155 
G01 X21.4851 Y30.7054 
G01 X21.4808 Y30.7054 
G01 X21.4765 Y30.7044 
G01 X21.4376 Y30.7054 
G01 X10.0646 Y30.7054 
G01 X9.8884 Y30.6324 
G01 X8.1731 Y28.9170 
G01 X8.0981 Y28.8738 
G01 X8.0146 Y28.8514 
G01 X7.5619 Y28.8514 
G01 X7.4819 Y28.8728 
G01 X7.4784 Y28.8738 
G01 X7.4034 Y28.9170 
G01 X7.3422 Y28.9782 
G01 X7.0414 Y29.2791 
G01 X6.6482 Y29.4419 
G01 X4.4318 Y29.4419 
G01 X4.0386 Y29.2791 
G01 X3.7376 Y28.9781 
G01 X3.5747 Y28.5848 
G01 X3.5747 Y28.1592 
G01 X3.7376 Y27.7659 
G01 X4.0386 Y27.4649 
G01 X4.4318 Y27.3020 
G01 X4.7753 Y27.3020 
G01 X4.8588 Y27.2797 
G01 X4.9338 Y27.2364 
G01 X4.9949 Y27.1752 
G01 X5.0382 Y27.1003 
G01 X5.0606 Y27.0167 
G01 X5.0606 Y20.0673 
G01 X5.0382 Y19.9837 
G01 X4.9949 Y19.9088 
G01 X4.9338 Y19.8476 
G01 X4.8588 Y19.8043 
G01 X4.7753 Y19.7819 
G01 X4.4118 Y19.7819 
G01 X4.0186 Y19.6191 
G01 X3.7176 Y19.3181 
G01 X3.5547 Y18.9248 
G01 X3.5547 Y18.4992 
G01 X3.7176 Y18.1059 
G01 X4.0186 Y17.8049 
G01 X4.4118 Y17.6420 
G01 X6.6282 Y17.6420 
G01 X7.0214 Y17.8049 
G01 X7.3224 Y18.1059 
G01 X7.4853 Y18.4992 
G01 X7.4853 Y18.9248 
G01 X7.3224 Y19.3181 
G01 X7.0214 Y19.6191 
G01 X6.6282 Y19.7819 
G01 X6.3047 Y19.7819 
G01 X6.2212 Y19.8043 
G01 X6.1462 Y19.8476 
G01 X6.0850 Y19.9088 
G01 X6.0418 Y19.9837 
G01 X6.0194 Y20.0673 
G01 X6.0194 Y27.0167 
G01 X6.0418 Y27.1003 
G01 X6.0850 Y27.1752 
G01 X6.1462 Y27.2364 
G01 X6.2212 Y27.2797 
G01 X6.3047 Y27.3020 
G01 X6.6482 Y27.3020 
G01 X7.0414 Y27.4649 
G01 X7.3422 Y27.7658 
G01 X7.3966 Y27.8201 
G01 X7.4034 Y27.8269 
G01 X7.4761 Y27.8689 
G01 X7.5619 Y27.8926 
G01 X8.4014 Y27.8926 
G01 X8.5776 Y27.9656 
G01 X8.7892 Y28.1772 
G01 X10.2929 Y29.6809 
G01 X10.3678 Y29.7242 
G01 X10.4514 Y29.7466 
G01 X20.8955 Y29.7466 
G01 X20.9084 Y29.7490 
G01 X20.9386 Y29.7466 
G01 X20.9690 Y29.7466 
G01 X20.9816 Y29.7432 
G01 X20.9946 Y29.7422 
G01 X21.0232 Y29.7321 
G01 X21.0526 Y29.7242 
G01 X21.0639 Y29.7177 
G01 X21.0762 Y29.7133 
G01 X21.1012 Y29.6961 
G01 X21.1275 Y29.6809 
G01 X21.1367 Y29.6717 
G01 X21.1475 Y29.6643 
G01 X21.1672 Y29.6412 
G01 X21.1887 Y29.6198 
G01 X21.1952 Y29.6085 
G01 X21.2037 Y29.5985 
G01 X21.2168 Y29.5711 
G01 X21.2319 Y29.5448 
G01 X21.2353 Y29.5322 
G01 X21.2409 Y29.5204 
G01 X21.2465 Y29.4906 
G01 X21.2543 Y29.4613 
G01 X21.2543 Y29.4482 
G01 X21.2567 Y29.4353 
G01 X21.2543 Y29.4051 
G01 X21.2543 Y29.3747 
G01 X21.2520 Y29.3663 
G01 X21.2540 Y29.3555 
G01 X21.2619 Y29.3262 
G01 X21.2619 Y29.3131 
G01 X21.2643 Y29.3003 
G01 X21.2619 Y29.2700 
G01 X21.2619 Y29.2151 
G01 X21.2641 Y29.1836 
G01 X21.2619 Y29.1720 
G01 X21.2619 Y29.1601 
G01 X21.2537 Y29.1297 
G01 X21.2521 Y29.1210 
G01 X21.2588 Y29.0265 
G01 X21.2619 Y29.0150 
G01 X21.2619 Y28.9835 
G01 X21.2641 Y28.9520 
G01 X21.2619 Y28.9404 
G01 X21.2619 Y28.7983 
G01 X21.2636 Y28.7906 
G01 X21.2619 Y28.7552 
G01 X21.2619 Y28.7276 
G01 X21.2619 Y28.7235 
G01 X21.2619 Y28.7198 
G01 X21.2610 Y28.7044 
G01 X21.2628 Y28.6819 
G01 X21.2589 Y28.6613 
G01 X21.2579 Y28.6404 
G01 X21.2512 Y28.6192 
G01 X21.2585 Y28.5256 
G01 X21.2619 Y28.5130 
G01 X21.2619 Y28.4826 
G01 X21.2643 Y28.4524 
G01 X21.2619 Y28.4396 
G01 X21.2619 Y28.3377 
G01 X21.2629 Y28.3334 
G01 X21.2619 Y28.2945 
G01 X21.2619 Y28.2555 
G01 X21.2787 Y28.1837 
G01 X21.2874 Y28.1591 
G01 X21.2887 Y28.1418 
G01 X21.2928 Y28.1248 
G01 X21.2921 Y28.0988 
G01 X21.2996 Y28.0032 
G01 X21.3111 Y27.9754 
G01 X21.3123 Y27.9668 
G01 X21.3152 Y27.9586 
G01 X21.3175 Y27.9286 
G01 X21.3543 Y27.8400 
G01 X21.3667 Y27.8171 
G01 X21.3707 Y27.8002 
G01 X21.3774 Y27.7841 
G01 X21.3808 Y27.7583 
G01 X21.4032 Y27.6650 
G01 X21.4189 Y27.6394 
G01 X21.4214 Y27.6310 
G01 X21.4255 Y27.6233 
G01 X21.4325 Y27.5941 
G01 X21.4827 Y27.5123 
G01 X21.4985 Y27.4917 
G01 X21.5052 Y27.4756 
G01 X21.5143 Y27.4607 
G01 X21.5217 Y27.4358 
G01 X21.5584 Y27.3472 
G01 X21.5779 Y27.3243 
G01 X21.5816 Y27.3165 
G01 X21.5869 Y27.3095 
G01 X21.5985 Y27.2817 
G01 X21.6608 Y27.2088 
G01 X21.6796 Y27.1909 
G01 X21.6887 Y27.1760 
G01 X21.7000 Y27.1628 
G01 X21.7113 Y27.1393 
G01 X21.7614 Y27.0575 
G01 X21.7842 Y27.0380 
G01 X21.7891 Y27.0308 
G01 X21.7955 Y27.0248 
G01 X21.8112 Y26.9992 
G01 X21.8841 Y26.9369 
G01 X21.9056 Y26.9221 
G01 X21.9169 Y26.9089 
G01 X21.9301 Y26.8976 
G01 X21.9449 Y26.8761 
G01 X22.0072 Y26.8032 
G01 X22.0328 Y26.7875 
G01 X22.0388 Y26.7812 
G01 X22.0460 Y26.7762 
G01 X22.0655 Y26.7534 
G01 X22.1473 Y26.7033 
G01 X22.1708 Y26.6920 
G01 X22.1840 Y26.6807 
G01 X22.1989 Y26.6716 
G01 X22.2168 Y26.6528 
G01 X22.2897 Y26.5905 
G01 X22.3175 Y26.5789 
G01 X22.3245 Y26.5736 
G01 X22.3323 Y26.5699 
G01 X22.3552 Y26.5504 
G01 X22.4438 Y26.5137 
G01 X22.4687 Y26.5063 
G01 X22.4836 Y26.4972 
G01 X22.4997 Y26.4905 
G01 X22.5203 Y26.4747 
G01 X22.6021 Y26.4245 
G01 X22.6314 Y26.4175 
G01 X22.6390 Y26.4133 
G01 X22.6474 Y26.4109 
G01 X22.6730 Y26.3952 
G01 X22.7663 Y26.3728 
G01 X22.7921 Y26.3694 
G01 X22.8082 Y26.3627 
G01 X22.8251 Y26.3587 
G01 X22.8480 Y26.3463 
G01 X22.9366 Y26.3095 
G01 X22.9666 Y26.3072 
G01 X22.9748 Y26.3043 
G01 X22.9834 Y26.3031 
G01 X23.0112 Y26.2916 
G01 X23.1068 Y26.2841 
G01 X23.1329 Y26.2848 
G01 X23.1498 Y26.2807 
G01 X23.1671 Y26.2794 
G01 X23.1917 Y26.2707 
G01 X23.2626 Y26.2536 
G01 X23.3025 Y26.2539 
G01 X23.3414 Y26.2549 
G01 X23.3457 Y26.2539 
G01 X23.4475 Y26.2539 
G01 X23.4604 Y26.2563 
G01 X23.4906 Y26.2539 
G01 X23.5210 Y26.2539 
G01 X23.5336 Y26.2505 
G01 X23.6272 Y26.2431 
G01 X23.6484 Y26.2499 
G01 X23.6693 Y26.2509 
G01 X23.6899 Y26.2548 
G01 X23.7124 Y26.2530 
G01 X23.7269 Y26.2537 
G01 X23.7315 Y26.2539 
G01 X23.7348 Y26.2541 
G01 X23.7632 Y26.2539 
G01 X23.7986 Y26.2556 
G01 X23.8063 Y26.2539 
G01 X23.9484 Y26.2539 
G01 X23.9600 Y26.2561 
G01 X23.9915 Y26.2539 
G01 X24.0230 Y26.2539 
G01 X24.0345 Y26.2508 
G01 X24.1290 Y26.2441 
G01 X24.1377 Y26.2457 
G01 X24.1681 Y26.2539 
G01 X24.1800 Y26.2539 
G01 X24.1916 Y26.2561 
G01 X24.2231 Y26.2539 
G01 X24.7769 Y26.2539 
G01 X24.8084 Y26.2561 
G01 X24.8200 Y26.2539 
G01 X24.8319 Y26.2539 
G01 X24.8623 Y26.2457 
G01 X24.8710 Y26.2441 
G01 X24.9655 Y26.2508 
G01 X24.9770 Y26.2539 
G01 X25.0085 Y26.2539 
G01 X25.0399 Y26.2561 
G01 X25.0516 Y26.2539 
G01 X25.1937 Y26.2539 
G01 X25.2014 Y26.2556 
G01 X25.2368 Y26.2539 
G01 X25.2644 Y26.2539 
G01 X25.3477 Y26.2720 
G01 X25.3701 Y26.2798 
G01 X25.3898 Y26.2812 
G01 X25.4091 Y26.2854 
G01 X25.4327 Y26.2842 
G01 X25.5019 Y26.2892 
G01 X25.5410 Y26.3033 
G01 X25.5779 Y26.3171 
G01 X25.5818 Y26.3175 
G01 X25.5855 Y26.3188 
G01 X25.6248 Y26.3216 
G01 X25.6640 Y26.3253 
G01 X25.7312 Y26.3492 
G01 X25.7523 Y26.3600 
G01 X25.7716 Y26.3642 
G01 X25.7901 Y26.3711 
G01 X25.8137 Y26.3734 
G01 X25.8814 Y26.3881 
G01 X25.9181 Y26.4077 
G01 X25.9527 Y26.4266 
G01 X25.9565 Y26.4275 
G01 X25.9600 Y26.4293 
G01 X25.9985 Y26.4377 
G01 X26.0367 Y26.4470 
G01 X26.0999 Y26.4801 
G01 X26.1192 Y26.4939 
G01 X26.1377 Y26.5008 
G01 X26.1550 Y26.5103 
G01 X26.1781 Y26.5158 
G01 X26.2430 Y26.5401 
G01 X26.2766 Y26.5647 
G01 X26.3081 Y26.5883 
G01 X26.3117 Y26.5897 
G01 X26.3150 Y26.5920 
G01 X26.3519 Y26.6058 
G01 X26.3884 Y26.6204 
G01 X26.4462 Y26.6622 
G01 X26.4633 Y26.6786 
G01 X26.4807 Y26.6880 
G01 X26.4965 Y26.6999 
G01 X26.5185 Y26.7087 
G01 X26.5793 Y26.7419 
G01 X26.6090 Y26.7710 
G01 X26.6368 Y26.7989 
G01 X26.6403 Y26.8009 
G01 X26.6431 Y26.8036 
G01 X26.6777 Y26.8224 
G01 X26.7118 Y26.8421 
G01 X26.7630 Y26.8918 
G01 X26.7777 Y26.9104 
G01 X26.7935 Y26.9222 
G01 X26.8075 Y26.9362 
G01 X26.8280 Y26.9480 
G01 X26.8835 Y26.9896 
G01 X26.9087 Y27.0226 
G01 X26.9323 Y27.0541 
G01 X26.9354 Y27.0566 
G01 X26.9379 Y27.0597 
G01 X26.9694 Y27.0833 
G01 X27.0003 Y27.1076 
G01 X27.0440 Y27.1640 
G01 X27.0558 Y27.1846 
G01 X27.0698 Y27.1985 
G01 X27.0816 Y27.2143 
G01 X27.1002 Y27.2290 
G01 X27.1493 Y27.2780 
G01 X27.1695 Y27.3143 
G01 X27.1884 Y27.3489 
G01 X27.1911 Y27.3517 
G01 X27.1931 Y27.3552 
G01 X27.2210 Y27.3830 
G01 X27.2481 Y27.4115 
G01 X27.2833 Y27.4735 
G01 X27.2921 Y27.4955 
G01 X27.3039 Y27.5113 
G01 X27.3134 Y27.5287 
G01 X27.3298 Y27.5458 
G01 X27.3713 Y27.6013 
G01 X27.3862 Y27.6401 
G01 X27.4000 Y27.6770 
G01 X27.4023 Y27.6803 
G01 X27.4037 Y27.6839 
G01 X27.4273 Y27.7154 
G01 X27.4502 Y27.7475 
G01 X27.4762 Y27.8139 
G01 X27.4817 Y27.8370 
G01 X27.4912 Y27.8543 
G01 X27.4981 Y27.8728 
G01 X27.5119 Y27.8921 
G01 X27.5451 Y27.9530 
G01 X27.5543 Y27.9935 
G01 X27.5627 Y28.0320 
G01 X27.5645 Y28.0355 
G01 X27.5654 Y28.0393 
G01 X27.5843 Y28.0739 
G01 X27.6023 Y28.1089 
G01 X27.6186 Y28.1783 
G01 X27.6209 Y28.2019 
G01 X27.6278 Y28.2204 
G01 X27.6320 Y28.2397 
G01 X27.6428 Y28.2608 
G01 X27.6671 Y28.3257 
G01 X27.6704 Y28.3672 
G01 X27.6732 Y28.4065 
G01 X27.6745 Y28.4102 
G01 X27.6749 Y28.4141 
G01 X27.6887 Y28.4510 
G01 X27.7015 Y28.4882 
G01 X27.7078 Y28.5593 
G01 X27.7066 Y28.5829 
G01 X27.7108 Y28.6022 
G01 X27.7122 Y28.6219 
G01 X27.7200 Y28.6443 
G01 X27.7346 Y28.7113 
G01 X27.7332 Y28.7155 
G01 X27.7314 Y28.7536 
G01 X27.7284 Y28.7917 
G01 X27.7294 Y28.7968 
G01 X27.7291 Y28.8019 
G01 X27.7372 Y28.8392 
G01 X27.7442 Y28.8768 
G01 X27.7464 Y28.8815 
G01 X27.7472 Y28.8853 
G01 X27.7421 Y28.9499 
G01 X27.7374 Y28.9743 
G01 X27.7388 Y28.9928 
G01 X27.7373 Y29.0114 
G01 X27.7418 Y29.0358 
G01 X27.7462 Y29.0964 
G01 X27.7359 Y29.1176 
G01 X27.7323 Y29.1358 
G01 X27.7261 Y29.1533 
G01 X27.7242 Y29.1781 
G01 X27.7195 Y29.2025 
G01 X27.7197 Y29.2062 
G01 X27.7190 Y29.2094 
G01 X27.7197 Y29.2354 
G01 X27.7176 Y29.2613 
G01 X27.7208 Y29.2784 
G01 X27.7213 Y29.2959 
G01 X27.7287 Y29.3208 
G01 X27.7152 Y29.3786 
G01 X27.7065 Y29.4031 
G01 X27.7051 Y29.4205 
G01 X27.7011 Y29.4374 
G01 X27.7017 Y29.4634 
G01 X27.6971 Y29.5217 
G01 X27.6820 Y29.5439 
G01 X27.6762 Y29.5603 
G01 X27.6679 Y29.5756 
G01 X27.6618 Y29.6009 
G01 X27.6531 Y29.6255 
G01 X27.6528 Y29.6289 
G01 X27.6515 Y29.6320 
G01 X27.6481 Y29.6578 
G01 X27.6420 Y29.6831 
G01 X27.6425 Y29.7005 
G01 X27.6402 Y29.7178 
G01 X27.6436 Y29.7436 
G01 X27.6213 Y29.7985 
G01 X27.6088 Y29.8214 
G01 X27.6048 Y29.8383 
G01 X27.5981 Y29.8544 
G01 X27.5947 Y29.8802 
G01 X27.5811 Y29.9371 
G01 X27.5626 Y29.9567 
G01 X27.5543 Y29.9720 
G01 X27.5437 Y29.9858 
G01 X27.5337 Y30.0099 
G01 X27.5213 Y30.0328 
G01 X27.5205 Y30.0360 
G01 X27.5188 Y30.0389 
G01 X27.5114 Y30.0639 
G01 X27.5014 Y30.0879 
G01 X27.4991 Y30.1052 
G01 X27.4942 Y30.1219 
G01 X27.4935 Y30.1479 
G01 X27.4628 Y30.1987 
G01 X27.4470 Y30.2193 
G01 X27.4403 Y30.2354 
G01 X27.4312 Y30.2502 
G01 X27.4238 Y30.2752 
G01 X27.4015 Y30.3292 
G01 X27.3801 Y30.3457 
G01 X27.3696 Y30.3595 
G01 X27.3569 Y30.3715 
G01 X27.3433 Y30.3937 
G01 X27.3275 Y30.4143 
G01 X27.3262 Y30.4175 
G01 X27.3240 Y30.4201 
G01 X27.3128 Y30.4435 
G01 X27.2992 Y30.4657 
G01 X27.2942 Y30.4824 
G01 X27.2867 Y30.4982 
G01 X27.2820 Y30.5237 
G01 X27.2437 Y30.5691 
G01 X27.2249 Y30.5870 
G01 X27.2158 Y30.6018 
G01 X27.2045 Y30.6151 
G01 X27.1933 Y30.6386 
G01 X27.1627 Y30.6884 
G01 X27.1391 Y30.7014 
G01 X27.1264 Y30.7134 
G01 X27.1121 Y30.7232 
G01 X27.0952 Y30.7430 
G01 X27.0763 Y30.7609 
G01 X27.0745 Y30.7638 
G01 X27.0720 Y30.7660 
G01 X27.0572 Y30.7875 
G01 X27.0403 Y30.8073 
G01 X27.0328 Y30.8230 
G01 X27.0230 Y30.8373 
G01 X27.0143 Y30.8619 
G01 X26.9694 Y30.9007 
G01 X26.9479 Y30.9154 
G01 X26.9366 Y30.9286 
G01 X26.9234 Y30.9399 
G01 X26.9087 Y30.9614 
G01 X26.8707 Y31.0059 
G01 X26.8453 Y31.0150 
G01 X26.8310 Y31.0248 
G01 X26.8153 Y31.0323 
G01 X26.7955 Y31.0492 
G01 X26.7740 Y31.0640 
G01 X26.7718 Y31.0665 
G01 X26.7689 Y31.0683 
G01 X26.7510 Y31.0872 
G01 X26.7312 Y31.1041 
G01 X26.7214 Y31.1184 
G01 X26.7094 Y31.1311 
G01 X26.6970 Y31.1539 
G01 X26.6466 Y31.1853 
G01 X26.6231 Y31.1965 
G01 X26.6098 Y31.2078 
G01 X26.5950 Y31.2169 
G01 X26.5771 Y31.2357 
G01 X26.5326 Y31.2737 
G01 X26.5062 Y31.2787 
G01 X26.4904 Y31.2862 
G01 X26.4737 Y31.2912 
G01 X26.4516 Y31.3048 
G01 X26.4281 Y31.3160 
G01 X26.4255 Y31.3182 
G01 X26.4223 Y31.3195 
G01 X26.4017 Y31.3353 
G01 X26.3795 Y31.3489 
G01 X26.3675 Y31.3616 
G01 X26.3537 Y31.3721 
G01 X26.3379 Y31.3928 
G01 X26.3193 Y31.3978 
G01 X26.3005 Y31.4087 
G01 X26.2805 Y31.4170 
G01 X26.2632 Y31.4302 
G01 X26.2444 Y31.4411 
G01 X26.2290 Y31.4564 
G01 X26.2118 Y31.4696 
G01 X26.1986 Y31.4869 
G01 X26.1832 Y31.5022 
G01 X26.1724 Y31.5211 
G01 X26.1591 Y31.5383 
G01 X26.1508 Y31.5583 
G01 X26.1400 Y31.5772 
G01 X26.1343 Y31.5981 
G01 X26.1260 Y31.6182 
G01 X26.1232 Y31.6398 
G01 X26.1176 Y31.6607 
G01 X26.1176 Y31.6825 
G01 X26.1147 Y31.7040 
G01 X26.1176 Y31.7255 
G01 X26.1176 Y31.7473 
G01 X26.1232 Y31.7682 
G01 X26.1260 Y31.7898 
G01 X26.1343 Y31.8098 
G01 X26.1400 Y31.8308 
G01 X26.1508 Y31.8496 
G01 X26.1591 Y31.8697 
G01 X26.1724 Y31.8869 
G01 X26.1832 Y31.9058 
G01 X26.1986 Y31.9211 
G01 X26.2118 Y31.9384 
G01 X26.2290 Y31.9516 
G01 X26.2444 Y31.9669 
G01 X26.2632 Y31.9778 
G01 X26.2804 Y31.9910 
G01 X26.3005 Y31.9993 
G01 X26.3193 Y32.0102 
G01 X26.3403 Y32.0158 
G01 X26.3604 Y32.0241 
G01 X26.3819 Y32.0270 
G01 X26.4029 Y32.0326 
G01 X26.4246 Y32.0326 
G01 X26.4462 Y32.0354 
G01 X26.4677 Y32.0326 
G01 X32.6074 Y32.0326 
G01 X32.7836 Y32.1056 
G01 X32.9952 Y32.3172 
G01 X36.9629 Y36.2849 
G01 X37.0378 Y36.3282 
G01 X37.1214 Y36.3506 
G01 X45.4286 Y36.3506 
G01 X45.5121 Y36.3282 
G01 X45.5871 Y36.2849 
G01 X45.6483 Y36.2238 
G01 X50.5284 Y31.3436 
G01 X50.7046 Y31.2706 
G01 X54.4506 Y31.2706 
G01 X54.5342 Y31.2482 
G01 X54.6091 Y31.2049 
G01 X54.6703 Y31.1438 
G01 X56.1371 Y29.6769 
G01 X56.1479 Y29.6695 
G01 X56.1676 Y29.6464 
G01 X56.1891 Y29.6249 
G01 X56.1956 Y29.6136 
G01 X56.2041 Y29.6037 
G01 X56.2172 Y29.5763 
G01 X56.2323 Y29.5500 
G01 X56.2357 Y29.5374 
G01 X56.2413 Y29.5256 
G01 X56.2469 Y29.4957 
G01 X56.2547 Y29.4664 
G01 X56.2547 Y29.4534 
G01 X56.2571 Y29.4405 
G01 X56.2547 Y29.4103 
G01 X56.2547 Y29.3799 
G01 X56.2516 Y29.3684 
G01 X56.2540 Y29.3555 
G01 X56.2619 Y29.3262 
G01 X56.2619 Y29.3131 
G01 X56.2643 Y29.3003 
G01 X56.2619 Y29.2700 
G01 X56.2619 Y29.2151 
G01 X56.2641 Y29.1836 
G01 X56.2619 Y29.1720 
G01 X56.2619 Y29.1601 
G01 X56.2537 Y29.1297 
G01 X56.2521 Y29.1210 
G01 X56.2588 Y29.0265 
G01 X56.2619 Y29.0150 
G01 X56.2619 Y28.9835 
G01 X56.2641 Y28.9520 
G01 X56.2619 Y28.9404 
G01 X56.2619 Y28.7983 
G01 X56.2636 Y28.7906 
G01 X56.2619 Y28.7552 
G01 X56.2619 Y28.7276 
G01 X56.2619 Y28.7235 
G01 X56.2619 Y28.7198 
G01 X56.2610 Y28.7044 
G01 X56.2628 Y28.6819 
G01 X56.2589 Y28.6613 
G01 X56.2579 Y28.6404 
G01 X56.2512 Y28.6192 
G01 X56.2585 Y28.5256 
G01 X56.2619 Y28.5130 
G01 X56.2619 Y28.4827 
G01 X56.2643 Y28.4524 
G01 X56.2619 Y28.4395 
G01 X56.2619 Y28.3377 
G01 X56.2629 Y28.3334 
G01 X56.2619 Y28.2945 
G01 X56.2619 Y28.2555 
G01 X56.2787 Y28.1837 
G01 X56.2874 Y28.1591 
G01 X56.2887 Y28.1418 
G01 X56.2928 Y28.1248 
G01 X56.2921 Y28.0988 
G01 X56.2996 Y28.0032 
G01 X56.3111 Y27.9754 
G01 X56.3123 Y27.9668 
G01 X56.3152 Y27.9586 
G01 X56.3175 Y27.9286 
G01 X56.3543 Y27.8400 
G01 X56.3667 Y27.8171 
G01 X56.3707 Y27.8002 
G01 X56.3774 Y27.7841 
G01 X56.3808 Y27.7583 
G01 X56.4032 Y27.6650 
G01 X56.4189 Y27.6394 
G01 X56.4214 Y27.6310 
G01 X56.4255 Y27.6233 
G01 X56.4325 Y27.5941 
G01 X56.4827 Y27.5123 
G01 X56.4985 Y27.4917 
G01 X56.5052 Y27.4756 
G01 X56.5143 Y27.4607 
G01 X56.5217 Y27.4358 
G01 X56.5584 Y27.3472 
G01 X56.5779 Y27.3243 
G01 X56.5816 Y27.3165 
G01 X56.5869 Y27.3095 
G01 X56.5985 Y27.2817 
G01 X56.6608 Y27.2088 
G01 X56.6796 Y27.1909 
G01 X56.6887 Y27.1760 
G01 X56.7000 Y27.1628 
G01 X56.7113 Y27.1393 
G01 X56.7614 Y27.0575 
G01 X56.7843 Y27.0380 
G01 X56.7892 Y27.0308 
G01 X56.7955 Y27.0248 
G01 X56.8112 Y26.9992 
G01 X56.8841 Y26.9369 
G01 X56.9056 Y26.9221 
G01 X56.9169 Y26.9089 
G01 X56.9301 Y26.8976 
G01 X56.9449 Y26.8761 
G01 X57.0072 Y26.8032 
G01 X57.0328 Y26.7875 
G01 X57.0388 Y26.7812 
G01 X57.0460 Y26.7763 
G01 X57.0655 Y26.7534 
G01 X57.1473 Y26.7033 
G01 X57.1708 Y26.6920 
G01 X57.1840 Y26.6807 
G01 X57.1989 Y26.6716 
G01 X57.2168 Y26.6528 
G01 X57.2897 Y26.5905 
G01 X57.3175 Y26.5789 
G01 X57.3245 Y26.5736 
G01 X57.3323 Y26.5699 
G01 X57.3551 Y26.5504 
G01 X57.4438 Y26.5137 
G01 X57.4688 Y26.5063 
G01 X57.4836 Y26.4972 
G01 X57.4997 Y26.4905 
G01 X57.5203 Y26.4747 
G01 X57.6021 Y26.4245 
G01 X57.6313 Y26.4175 
G01 X57.6390 Y26.4134 
G01 X57.6474 Y26.4109 
G01 X57.6730 Y26.3952 
G01 X57.7663 Y26.3728 
G01 X57.7921 Y26.3694 
G01 X57.8082 Y26.3627 
G01 X57.8251 Y26.3587 
G01 X57.8480 Y26.3462 
G01 X57.9366 Y26.3095 
G01 X57.9666 Y26.3072 
G01 X57.9748 Y26.3043 
G01 X57.9834 Y26.3031 
G01 X58.0112 Y26.2916 
G01 X58.1068 Y26.2841 
G01 X58.1328 Y26.2848 
G01 X58.1498 Y26.2807 
G01 X58.1671 Y26.2794 
G01 X58.1917 Y26.2707 
G01 X58.2626 Y26.2536 
G01 X58.3025 Y26.2539 
G01 X58.3414 Y26.2549 
G01 X58.3457 Y26.2539 
G01 X58.4475 Y26.2539 
G01 X58.4604 Y26.2563 
G01 X58.4906 Y26.2539 
G01 X58.5210 Y26.2539 
G01 X58.5336 Y26.2505 
G01 X58.6272 Y26.2431 
G01 X58.6484 Y26.2499 
G01 X58.6693 Y26.2509 
G01 X58.6899 Y26.2548 
G01 X58.7124 Y26.2530 
G01 X58.7269 Y26.2537 
G01 X58.7315 Y26.2539 
G01 X58.7348 Y26.2541 
G01 X58.7632 Y26.2539 
G01 X58.7986 Y26.2556 
G01 X58.8063 Y26.2539 
G01 X58.9484 Y26.2539 
G01 X58.9600 Y26.2561 
G01 X58.9915 Y26.2539 
G01 X59.0230 Y26.2539 
G01 X59.0345 Y26.2508 
G01 X59.1290 Y26.2441 
G01 X59.1377 Y26.2457 
G01 X59.1681 Y26.2539 
G01 X59.1800 Y26.2539 
G01 X59.1916 Y26.2561 
G01 X59.2231 Y26.2539 
G01 X59.7769 Y26.2539 
G01 X59.8084 Y26.2561 
G01 X59.8200 Y26.2539 
G01 X59.8319 Y26.2539 
G01 X59.8623 Y26.2457 
G01 X59.8710 Y26.2441 
G01 X59.9655 Y26.2508 
G01 X59.9770 Y26.2539 
G01 X60.0085 Y26.2539 
G01 X60.0400 Y26.2561 
G01 X60.0516 Y26.2539 
G01 X60.1937 Y26.2539 
G01 X60.2014 Y26.2556 
G01 X60.2368 Y26.2539 
G01 X60.2644 Y26.2539 
G01 X60.3477 Y26.2720 
G01 X60.3701 Y26.2798 
G01 X60.3898 Y26.2812 
G01 X60.4091 Y26.2854 
G01 X60.4327 Y26.2842 
G01 X60.5019 Y26.2892 
G01 X60.5410 Y26.3033 
G01 X60.5779 Y26.3171 
G01 X60.5818 Y26.3175 
G01 X60.5855 Y26.3188 
G01 X60.6248 Y26.3216 
G01 X60.6640 Y26.3253 
G01 X60.7312 Y26.3492 
G01 X60.7523 Y26.3600 
G01 X60.7716 Y26.3642 
G01 X60.7901 Y26.3711 
G01 X60.8137 Y26.3734 
G01 X60.8814 Y26.3881 
G01 X60.9181 Y26.4077 
G01 X60.9527 Y26.4266 
G01 X60.9565 Y26.4275 
G01 X60.9600 Y26.4293 
G01 X60.9985 Y26.4377 
G01 X61.0367 Y26.4470 
G01 X61.0999 Y26.4801 
G01 X61.1192 Y26.4939 
G01 X61.1377 Y26.5008 
G01 X61.1550 Y26.5103 
G01 X61.1781 Y26.5158 
G01 X61.2430 Y26.5401 
G01 X61.2765 Y26.5647 
G01 X61.3080 Y26.5882 
G01 X61.3117 Y26.5897 
G01 X61.3150 Y26.5920 
G01 X61.3519 Y26.6058 
G01 X61.3884 Y26.6204 
G01 X61.4462 Y26.6622 
G01 X61.4633 Y26.6786 
G01 X61.4807 Y26.6880 
G01 X61.4965 Y26.6999 
G01 X61.5185 Y26.7087 
G01 X61.5793 Y26.7419 
G01 X61.6090 Y26.7710 
G01 X61.6368 Y26.7989 
G01 X61.6403 Y26.8009 
G01 X61.6431 Y26.8036 
G01 X61.6777 Y26.8224 
G01 X61.7118 Y26.8421 
G01 X61.7630 Y26.8918 
G01 X61.7777 Y26.9104 
G01 X61.7935 Y26.9222 
G01 X61.8075 Y26.9362 
G01 X61.8280 Y26.9480 
G01 X61.8835 Y26.9896 
G01 X61.9087 Y27.0226 
G01 X61.9323 Y27.0541 
G01 X61.9354 Y27.0566 
G01 X61.9379 Y27.0597 
G01 X61.9694 Y27.0833 
G01 X62.0003 Y27.1076 
G01 X62.0440 Y27.1640 
G01 X62.0558 Y27.1845 
G01 X62.0698 Y27.1985 
G01 X62.0816 Y27.2143 
G01 X62.1002 Y27.2290 
G01 X62.1493 Y27.2780 
G01 X62.1695 Y27.3143 
G01 X62.1884 Y27.3489 
G01 X62.1911 Y27.3517 
G01 X62.1931 Y27.3552 
G01 X62.2210 Y27.3830 
G01 X62.2481 Y27.4115 
G01 X62.2833 Y27.4735 
G01 X62.2921 Y27.4955 
G01 X62.3039 Y27.5113 
G01 X62.3134 Y27.5287 
G01 X62.3298 Y27.5458 
G01 X62.3713 Y27.6013 
G01 X62.3862 Y27.6401 
G01 X62.4000 Y27.6770 
G01 X62.4023 Y27.6803 
G01 X62.4038 Y27.6840 
G01 X62.4273 Y27.7155 
G01 X62.4502 Y27.7475 
G01 X62.4762 Y27.8139 
G01 X62.4817 Y27.8370 
G01 X62.4912 Y27.8543 
G01 X62.4981 Y27.8728 
G01 X62.5119 Y27.8921 
G01 X62.5451 Y27.9530 
G01 X62.5543 Y27.9935 
G01 X62.5627 Y28.0320 
G01 X62.5645 Y28.0355 
G01 X62.5654 Y28.0393 
G01 X62.5843 Y28.0739 
G01 X62.6023 Y28.1089 
G01 X62.6186 Y28.1783 
G01 X62.6209 Y28.2019 
G01 X62.6278 Y28.2204 
G01 X62.6320 Y28.2397 
G01 X62.6428 Y28.2608 
G01 X62.6671 Y28.3257 
G01 X62.6704 Y28.3672 
G01 X62.6732 Y28.4065 
G01 X62.6745 Y28.4102 
G01 X62.6749 Y28.4141 
G01 X62.6887 Y28.4510 
G01 X62.7015 Y28.4882 
G01 X62.7078 Y28.5593 
G01 X62.7066 Y28.5829 
G01 X62.7108 Y28.6022 
G01 X62.7122 Y28.6219 
G01 X62.7200 Y28.6443 
G01 X62.7346 Y28.7113 
G01 X62.7332 Y28.7155 
G01 X62.7314 Y28.7536 
G01 X62.7284 Y28.7917 
G01 X62.7294 Y28.7968 
G01 X62.7291 Y28.8019 
G01 X62.7372 Y28.8392 
G01 X62.7442 Y28.8768 
G01 X62.7464 Y28.8815 
G01 X62.7472 Y28.8853 
G01 X62.7421 Y28.9499 
G01 X62.7374 Y28.9743 
G01 X62.7388 Y28.9928 
G01 X62.7373 Y29.0114 
G01 X62.7418 Y29.0358 
G01 X62.7462 Y29.0964 
G01 X62.7359 Y29.1176 
G01 X62.7323 Y29.1358 
G01 X62.7261 Y29.1534 
G01 X62.7242 Y29.1781 
G01 X62.7195 Y29.2025 
G01 X62.7197 Y29.2062 
G01 X62.7190 Y29.2093 
G01 X62.7197 Y29.2354 
G01 X62.7176 Y29.2613 
G01 X62.7208 Y29.2784 
G01 X62.7213 Y29.2958 
G01 X62.7287 Y29.3208 
G01 X62.7152 Y29.3786 
G01 X62.7065 Y29.4031 
G01 X62.7051 Y29.4204 
G01 X62.7011 Y29.4374 
G01 X62.7017 Y29.4634 
G01 X62.6971 Y29.5217 
G01 X62.6820 Y29.5440 
G01 X62.6762 Y29.5603 
G01 X62.6679 Y29.5756 
G01 X62.6618 Y29.6010 
G01 X62.6531 Y29.6255 
G01 X62.6528 Y29.6289 
G01 X62.6515 Y29.6320 
G01 X62.6481 Y29.6578 
G01 X62.6420 Y29.6831 
G01 X62.6425 Y29.7005 
G01 X62.6402 Y29.7178 
G01 X62.6436 Y29.7436 
G01 X62.6213 Y29.7985 
G01 X62.6088 Y29.8214 
G01 X62.6048 Y29.8383 
G01 X62.5981 Y29.8544 
G01 X62.5947 Y29.8802 
G01 X62.5811 Y29.9371 
G01 X62.5626 Y29.9567 
G01 X62.5543 Y29.9720 
G01 X62.5437 Y29.9858 
G01 X62.5337 Y30.0098 
G01 X62.5213 Y30.0327 
G01 X62.5205 Y30.0360 
G01 X62.5188 Y30.0389 
G01 X62.5114 Y30.0639 
G01 X62.5014 Y30.0879 
G01 X62.4991 Y30.1052 
G01 X62.4942 Y30.1219 
G01 X62.4935 Y30.1479 
G01 X62.4628 Y30.1987 
G01 X62.4470 Y30.2193 
G01 X62.4403 Y30.2354 
G01 X62.4312 Y30.2502 
G01 X62.4238 Y30.2752 
G01 X62.4015 Y30.3292 
G01 X62.3801 Y30.3457 
G01 X62.3696 Y30.3595 
G01 X62.3569 Y30.3715 
G01 X62.3433 Y30.3937 
G01 X62.3275 Y30.4143 
G01 X62.3262 Y30.4175 
G01 X62.3240 Y30.4201 
G01 X62.3128 Y30.4435 
G01 X62.2992 Y30.4657 
G01 X62.2942 Y30.4824 
G01 X62.2867 Y30.4982 
G01 X62.2820 Y30.5237 
G01 X62.2437 Y30.5691 
G01 X62.2249 Y30.5870 
G01 X62.2158 Y30.6018 
G01 X62.2045 Y30.6151 
G01 X62.1933 Y30.6386 
G01 X62.1627 Y30.6884 
G01 X62.1391 Y30.7014 
G01 X62.1264 Y30.7134 
G01 X62.1121 Y30.7232 
G01 X62.0952 Y30.7430 
G01 X62.0763 Y30.7609 
G01 X62.0745 Y30.7638 
G01 X62.0720 Y30.7660 
G01 X62.0572 Y30.7875 
G01 X62.0403 Y30.8073 
G01 X62.0328 Y30.8230 
G01 X62.0230 Y30.8373 
G01 X62.0143 Y30.8619 
G01 X61.9694 Y30.9007 
G01 X61.9479 Y30.9154 
G01 X61.9366 Y30.9286 
G01 X61.9234 Y30.9399 
G01 X61.9087 Y30.9614 
G01 X61.8707 Y31.0059 
G01 X61.8453 Y31.0150 
G01 X61.8310 Y31.0248 
G01 X61.8153 Y31.0323 
G01 X61.7955 Y31.0492 
G01 X61.7740 Y31.0640 
G01 X61.7718 Y31.0665 
G01 X61.7689 Y31.0683 
G01 X61.7510 Y31.0872 
G01 X61.7312 Y31.1041 
G01 X61.7214 Y31.1184 
G01 X61.7094 Y31.1311 
G01 X61.6970 Y31.1539 
G01 X61.6466 Y31.1853 
G01 X61.6231 Y31.1965 
G01 X61.6098 Y31.2078 
G01 X61.5950 Y31.2169 
G01 X61.5771 Y31.2357 
G01 X61.5326 Y31.2737 
G01 X61.5062 Y31.2787 
G01 X61.4904 Y31.2862 
G01 X61.4737 Y31.2912 
G01 X61.4516 Y31.3048 
G01 X61.4281 Y31.3160 
G01 X61.4255 Y31.3182 
G01 X61.4223 Y31.3195 
G01 X61.4017 Y31.3353 
G01 X61.3795 Y31.3489 
G01 X61.3675 Y31.3616 
G01 X61.3537 Y31.3721 
G01 X61.3379 Y31.3928 
G01 X61.2832 Y31.4158 
G01 X61.2582 Y31.4232 
G01 X61.2434 Y31.4323 
G01 X61.2273 Y31.4390 
G01 X61.2067 Y31.4548 
G01 X61.1568 Y31.4854 
G01 X61.1299 Y31.4862 
G01 X61.1132 Y31.4911 
G01 X61.0959 Y31.4934 
G01 X61.0719 Y31.5034 
G01 X61.0469 Y31.5108 
G01 X61.0440 Y31.5125 
G01 X61.0407 Y31.5133 
G01 X61.0178 Y31.5257 
G01 X60.9938 Y31.5357 
G01 X60.9800 Y31.5463 
G01 X60.9647 Y31.5546 
G01 X60.9458 Y31.5725 
G01 X60.8882 Y31.5867 
G01 X60.8624 Y31.5901 
G01 X60.8463 Y31.5968 
G01 X60.8294 Y31.6008 
G01 X60.8065 Y31.6133 
G01 X60.7525 Y31.6357 
G01 X60.7258 Y31.6322 
G01 X60.7085 Y31.6345 
G01 X60.6911 Y31.6340 
G01 X60.6658 Y31.6401 
G01 X60.6400 Y31.6435 
G01 X60.6369 Y31.6448 
G01 X60.6335 Y31.6451 
G01 X60.6090 Y31.6538 
G01 X60.5836 Y31.6599 
G01 X60.5683 Y31.6682 
G01 X60.5519 Y31.6740 
G01 X60.5305 Y31.6887 
G01 X60.4714 Y31.6937 
G01 X60.4454 Y31.6931 
G01 X60.4285 Y31.6971 
G01 X60.4111 Y31.6985 
G01 X60.3866 Y31.7072 
G01 X60.3292 Y31.7209 
G01 X60.3044 Y31.7136 
G01 X60.3000 Y31.7135 
G01 X60.2957 Y31.7123 
G01 X60.2568 Y31.7123 
G01 X60.2179 Y31.7113 
G01 X60.2136 Y31.7123 
G01 X60.2092 Y31.7123 
G01 X60.1716 Y31.7224 
G01 X60.1396 Y31.7301 
G01 X60.0524 Y31.7301 
G01 X60.0396 Y31.7277 
G01 X60.0093 Y31.7301 
G01 X59.9790 Y31.7301 
G01 X59.9664 Y31.7335 
G01 X59.8772 Y31.7405 
G01 X59.8635 Y31.7380 
G01 X59.8342 Y31.7301 
G01 X59.8211 Y31.7301 
G01 X59.8083 Y31.7277 
G01 X59.7780 Y31.7301 
G01 X58.7220 Y31.7301 
G01 X58.6917 Y31.7277 
G01 X58.6789 Y31.7301 
G01 X58.6658 Y31.7301 
G01 X58.6365 Y31.7379 
G01 X58.6228 Y31.7405 
G01 X58.5336 Y31.7335 
G01 X58.5210 Y31.7301 
G01 X58.4907 Y31.7301 
G01 X58.4604 Y31.7277 
G01 X58.4475 Y31.7301 
G01 X58.3457 Y31.7301 
G01 X58.3414 Y31.7291 
G01 X58.3025 Y31.7301 
G01 X58.2635 Y31.7301 
G01 X58.1917 Y31.7133 
G01 X58.1671 Y31.7046 
G01 X58.1498 Y31.7033 
G01 X58.1328 Y31.6992 
G01 X58.1068 Y31.6999 
G01 X58.0112 Y31.6924 
G01 X57.9834 Y31.6809 
G01 X57.9748 Y31.6797 
G01 X57.9666 Y31.6768 
G01 X57.9366 Y31.6745 
G01 X57.8480 Y31.6378 
G01 X57.8251 Y31.6253 
G01 X57.8082 Y31.6213 
G01 X57.7921 Y31.6146 
G01 X57.7663 Y31.6112 
G01 X57.6730 Y31.5888 
G01 X57.6474 Y31.5731 
G01 X57.6390 Y31.5706 
G01 X57.6313 Y31.5665 
G01 X57.6021 Y31.5595 
G01 X57.5203 Y31.5093 
G01 X57.4997 Y31.4935 
G01 X57.4836 Y31.4868 
G01 X57.4688 Y31.4777 
G01 X57.4438 Y31.4703 
G01 X57.3551 Y31.4336 
G01 X57.3323 Y31.4141 
G01 X57.3245 Y31.4104 
G01 X57.3175 Y31.4051 
G01 X57.2897 Y31.3935 
G01 X57.2168 Y31.3312 
G01 X57.1989 Y31.3123 
G01 X57.1840 Y31.3033 
G01 X57.1708 Y31.2920 
G01 X57.1473 Y31.2807 
G01 X57.0655 Y31.2306 
G01 X57.0460 Y31.2077 
G01 X57.0388 Y31.2028 
G01 X57.0328 Y31.1965 
G01 X57.0072 Y31.1808 
G01 X56.9449 Y31.1079 
G01 X56.9301 Y31.0864 
G01 X56.9169 Y31.0751 
G01 X56.9056 Y31.0619 
G01 X56.8841 Y31.0471 
G01 X56.8112 Y30.9848 
G01 X56.7955 Y30.9592 
G01 X56.7892 Y30.9532 
G01 X56.7843 Y30.9460 
G01 X56.7614 Y30.9265 
G01 X56.7598 Y30.9239 
G01 X56.7315 Y30.8971 
G01 X56.7040 Y30.8695 
G01 X56.7002 Y30.8673 
G01 X56.6970 Y30.8643 
G01 X56.6628 Y30.8458 
G01 X56.6290 Y30.8263 
G01 X56.6248 Y30.8251 
G01 X56.6210 Y30.8231 
G01 X56.5831 Y30.8139 
G01 X56.5455 Y30.8039 
G01 X56.5411 Y30.8039 
G01 X56.5369 Y30.8028 
G01 X56.4979 Y30.8039 
G01 X56.4590 Y30.8039 
G01 X56.4547 Y30.8050 
G01 X56.4504 Y30.8051 
G01 X56.4130 Y30.8162 
G01 X56.3754 Y30.8263 
G01 X56.3716 Y30.8284 
G01 X56.3674 Y30.8297 
G01 X56.3342 Y30.8500 
G01 X56.3004 Y30.8695 
G01 X56.2974 Y30.8726 
G01 X56.2936 Y30.8749 
G01 X56.2668 Y30.9032 
G01 X55.1640 Y32.0059 
G01 X55.0136 Y32.1564 
G01 X54.8374 Y32.2294 
G01 X51.0914 Y32.2294 
G01 X51.0078 Y32.2518 
G01 X50.9329 Y32.2951 
G01 X50.8717 Y32.3562 
G01 X46.1420 Y37.0859 
G01 X45.9916 Y37.2364 
G01 X45.8154 Y37.3094 
G01 X36.7346 Y37.3094 
G01 X36.5584 Y37.2364 
G01 X32.3791 Y33.0571 
G01 X32.3041 Y33.0138 
G01 X32.2206 Y32.9914 
G01 X26.8346 Y32.9914 
G01 X26.7546 Y33.0128 
G01 X26.7510 Y33.0138 
G01 X26.6761 Y33.0571 
G01 X26.6149 Y33.1182 
G01 X26.5716 Y33.1932 
G01 X26.5492 Y33.2767 
G01 X26.5492 Y33.3633 
G01 X26.5707 Y33.4433 
G01 X26.5716 Y33.4468 
G01 X26.6149 Y33.5218 
G01 X26.6761 Y33.5829 
G01 X27.1926 Y34.0995 
G01 X27.1926 Y35.0725 
G01 X26.5045 Y35.7606 
G01 X25.6142 Y35.7606 
G01 X25.5306 Y35.7830 
G01 X25.4557 Y35.8263 
G01 X25.3945 Y35.8874 
G01 X24.1960 Y37.0859 
G01 X24.0456 Y37.2364 
G01 X23.8694 Y37.3094 
G01 X3.7146 Y37.3094 
G01 X3.5384 Y37.2364 
G01 X2.0301 Y35.7280 
G01 X1.8796 Y35.5776 
G01 X1.8066 Y35.4014 
G01 X1.8066 Y11.3346 
G01 X1.8796 Y11.1584 
G01 X3.5478 Y9.4902 
G01 X3.5650 Y9.4770 
G01 X3.5783 Y9.4598 
G01 X3.5936 Y9.4444 
G01 X3.6045 Y9.4256 
G01 X3.6177 Y9.4084 
G01 X3.6260 Y9.3883 
G01 X3.6369 Y9.3695 
G01 X3.6425 Y9.3485 
G01 X3.6508 Y9.3284 
G01 X3.6536 Y9.3069 
G01 X3.6593 Y9.2859 
G01 X3.6593 Y9.2642 
G01 X3.6621 Y9.2426 
G01 X3.6593 Y9.2211 
G01 X3.6593 Y9.1994 
G01 X3.6536 Y9.1784 
G01 X3.6508 Y9.1569 
G01 X3.6425 Y9.1368 
G01 X3.6369 Y9.1158 
G01 X3.6260 Y9.0970 
G01 X3.5547 Y8.9248 
G01 X3.5547 Y8.4992 
G01 X3.7176 Y8.1059 
G01 X4.0186 Y7.8049 
G01 X4.4118 Y7.6420 
G01 X6.6282 Y7.6420 
G01 X6.7914 Y7.7096 
G01 X6.8102 Y7.7205 
G01 X6.8312 Y7.7261 
G01 X6.8512 Y7.7344 
G01 X6.8728 Y7.7373 
G01 X6.8938 Y7.7429 
G01 X6.9155 Y7.7429 
G01 X6.9370 Y7.7457 
G01 X6.9585 Y7.7429 
G01 X6.9803 Y7.7429 
G01 X7.0012 Y7.7373 
G01 X7.0228 Y7.7344 
G01 X7.0429 Y7.7261 
G01 X7.0638 Y7.7205 
G01 X7.0827 Y7.7096 
G01 X7.1027 Y7.7013 
G01 X7.1200 Y7.6881 
G01 X7.1388 Y7.6772 
G01 X7.1541 Y7.6619 
G01 X7.1714 Y7.6487 
G01 X7.1846 Y7.6314 
G01 X12.9364 Y1.8796 
G01 X13.1126 Y1.8066 
G01 X26.1246 Y1.8066 
G01 X26.2081 Y1.7842 
G01 X26.2831 Y1.7409 
G01 X26.3443 Y1.6798 
G01 X26.9064 Y1.1176 
G01 X27.0826 Y1.0446 
G01 X49.1274 Y1.0446 
G01 X49.3036 Y1.1176 
G01 X56.2668 Y8.0808 
G01 X56.2936 Y8.1091 
G01 X56.2974 Y8.1114 
G01 X56.3004 Y8.1145 
G01 X56.3342 Y8.1340 
G01 X56.3674 Y8.1543 
G01 X56.3716 Y8.1556 
G01 X56.3754 Y8.1577 
G01 X56.4130 Y8.1678 
G01 X56.4504 Y8.1789 
G01 X56.4547 Y8.1790 
G01 X56.4590 Y8.1801 
G01 X56.4979 Y8.1801 
G01 X56.5369 Y8.1811 
G01 X56.5411 Y8.1801 
G01 X56.5455 Y8.1801 
G01 X56.5831 Y8.1700 
G01 X56.6210 Y8.1609 
G01 X56.6248 Y8.1589 
G01 X56.6290 Y8.1577 
G01 X56.6628 Y8.1382 
G01 X56.6970 Y8.1197 
G01 X56.7002 Y8.1167 
G01 X56.7040 Y8.1145 
G01 X56.7315 Y8.0869 
G01 X56.7598 Y8.0601 
G01 X56.7614 Y8.0575 
G01 X56.7843 Y8.0380 
G01 X56.7892 Y8.0308 
G01 X56.7955 Y8.0248 
G01 X56.8112 Y7.9992 
G01 X56.8841 Y7.9369 
G01 X56.9056 Y7.9221 
G01 X56.9169 Y7.9089 
G01 X56.9301 Y7.8976 
G01 X56.9449 Y7.8762 
G01 X57.0072 Y7.8032 
G01 X57.0328 Y7.7875 
G01 X57.0388 Y7.7812 
G01 X57.0460 Y7.7763 
G01 X57.0655 Y7.7534 
G01 X57.1473 Y7.7032 
G01 X57.1708 Y7.6920 
G01 X57.1840 Y7.6807 
G01 X57.1989 Y7.6717 
G01 X57.2168 Y7.6527 
G01 X57.2897 Y7.5905 
G01 X57.3175 Y7.5789 
G01 X57.3245 Y7.5736 
